<?xml version="1.0" encoding="UTF-8"?>
<map version="1.10" tiledversion="1.11.2" orientation="orthogonal" renderorder="right-down" width="240" height="240" tilewidth="32" tileheight="32" infinite="0" nextlayerid="8" nextobjectid="103">
 <editorsettings>
  <export target="alpha_map.json" format="json"/>
 </editorsettings>
 <tileset firstgid="1" source="alpha_tileset..tsx"/>
 <tileset firstgid="57601" source=":/automap-tiles.tsx"/>
 <tileset firstgid="57606" source="alpha_ground_set.tsx"/>
 <tileset firstgid="58956" source="alpha_objects.tsx"/>
 <tileset firstgid="58991" source="alpha_items.tsx"/>
 <tileset firstgid="58994" source="alpha_buildings.tsx"/>
 <tileset firstgid="59001" source="alpha_zones.tsx"/>
 <layer id="1" name="ground" width="240" height="240">
  <data encoding="csv">
57624,57624,57624,57624,57624,57624,57624,57624,57624,57624,57624,57624,57624,57624,57624,57624,57624,57624,57624,57624,57624,57624,57624,57624,57624,57624,57624,57624,57624,57624,57624,57624,57624,57624,57624,57624,57624,57624,57624,57624,57624,57624,57624,57624,57624,57624,57624,57624,57624,57624,57624,57624,57624,57624,57624,57624,57624,57624,57624,57624,57624,57624,57624,57624,57624,57624,57624,57624,57624,57624,57624,57624,57624,57624,57624,57624,57624,57624,57624,57624,57624,57624,57624,57624,57624,57624,57624,57624,57624,57624,57624,57624,57624,57624,57624,57624,57624,57624,57624,57624,57624,57624,57624,57624,57625,57624,57624,57624,57624,57624,57624,57624,57626,57624,57624,57624,57624,57624,57624,57624,57624,57624,57624,57624,57624,57624,57624,57624,57624,57624,57624,57624,57624,57624,57624,57624,57624,57624,57624,57624,57624,57624,57624,57624,57624,57624,57624,57624,57624,57624,57624,57624,57624,57624,57624,57624,57624,57624,57624,57624,57624,57624,57624,57624,57624,57624,57624,57624,57624,57624,57624,57624,57624,57624,57624,57624,57624,57624,57624,57624,57624,57624,57624,57624,57624,57624,57624,57624,57624,57624,57624,57624,57624,57624,57624,57624,57624,57624,57624,57624,57624,57624,57624,57624,57624,57624,57624,57624,57624,57624,57624,57624,57624,57624,57624,57624,57624,57624,57624,57624,57624,57624,57624,57624,57624,57624,57624,57624,57624,57624,57624,57624,57624,57624,57624,57624,57624,57624,57624,57624,
57624,57624,57624,57624,57624,57624,57624,57624,57624,57624,57624,57624,57624,57624,57624,57624,57628,57624,57624,57624,57624,57624,57624,57624,57624,57624,57624,57624,57624,57624,57624,57624,57624,57624,57624,57624,57624,57624,57624,57624,57624,57624,57624,57624,57624,57624,57624,57624,57624,57624,57624,57624,57624,57624,57624,57624,57624,57624,57624,57624,57624,57624,57624,57624,57624,57624,57624,57624,57624,57624,57624,57624,57624,57624,57624,57624,57624,57624,57624,57624,57624,57624,57624,57624,57624,57624,57624,57624,57624,57624,57624,57624,57624,57624,57624,57624,57624,57624,57624,57624,57624,57624,57624,57624,57624,57624,57624,57624,57624,57624,57624,57624,57624,57624,57624,57624,57624,57624,57624,57624,57624,57624,57624,57624,57624,57624,57624,57624,57624,57624,57624,57624,57624,57624,57624,57624,57624,57624,57624,57624,57624,57624,57624,57624,57624,57624,57624,57624,57624,57624,57624,57624,57624,57624,57624,57624,57624,57624,57624,57624,57624,57624,57624,57624,57624,57624,57624,57624,57624,57624,57624,57624,57627,57624,57624,57624,57624,57624,57624,57624,57624,57624,57624,57624,57624,57624,57624,57624,57624,57624,57624,57624,57624,57624,57624,57624,57624,57629,57624,57624,57625,57624,57624,57624,57624,57624,57624,57624,57624,57624,57624,57624,57624,57624,57624,57624,57624,57624,57624,57624,57624,57624,57624,57624,57624,57624,57624,57624,57624,57624,57624,57624,57624,57624,57624,57624,57624,57624,57624,57624,
57624,57624,57624,57624,57626,57624,57624,57624,57624,57624,57624,57624,57624,57624,57624,57624,57624,57624,57624,57624,57624,57624,57624,57624,57624,57624,57624,57624,57624,57624,57624,57624,57624,57624,57624,57624,57624,57624,57624,57624,57624,57624,57624,57624,57624,57624,57624,57624,57624,57624,57624,57624,57624,57624,57624,57624,57624,57624,57624,57624,57624,57624,57624,57624,57624,57624,57624,57624,57624,57624,57624,57624,57624,57624,57629,57624,57624,57624,57624,57624,57624,57624,57624,57624,57624,57624,57624,57624,57625,57624,57624,57624,57624,57624,57624,57624,57624,57624,57624,57624,57624,57624,57624,57624,57624,57624,57624,57624,57624,57624,57624,57624,57624,57624,57624,57624,57624,57624,57624,57624,57624,57624,57624,57624,57624,57624,57624,57624,57624,57624,57624,57624,57624,57624,57624,57624,57624,57624,57624,57624,57624,57624,57624,57624,57624,57624,57624,57624,57624,57624,57624,57624,57624,57624,57624,57624,57624,57624,57624,57624,57624,57624,57624,57624,57624,57624,57624,57624,57624,57624,57624,57624,57624,57624,57624,57624,57624,57624,57624,57624,57624,57624,57624,57624,57624,57624,57624,57624,57624,57624,57624,57624,57624,57624,57624,57624,57624,57624,57624,57624,57624,57624,57624,57624,57624,57624,57624,57624,57624,57624,57624,57624,57624,57624,57624,57624,57624,57624,57624,57624,57624,57624,57624,57624,57624,57624,57624,57624,57624,57624,57624,57624,57624,57624,57624,57624,57624,57624,57624,57624,
57624,57624,57624,57624,57624,57624,57624,57624,57624,57624,57624,57624,57624,57624,57624,57624,57624,57624,57624,57624,57624,57624,57624,57624,57624,57624,57624,57624,57624,57624,57624,57624,57624,57624,57624,57624,57624,57624,57624,57624,57624,57624,57624,57624,57624,57624,57624,57624,57624,57624,57624,57624,57624,57624,57624,57624,57624,57624,57624,57624,57624,57624,57624,57624,57624,57624,57624,57624,57624,57624,57624,57624,57624,57624,57624,57624,57624,57624,57624,57624,57624,57624,57624,57624,57624,57624,57624,57624,57624,57624,57624,57624,57624,57624,57624,57624,57624,57624,57624,57624,57624,57624,57624,57624,57624,57624,57624,57624,57624,57624,57624,57624,57624,57624,57624,57624,57624,57624,57624,57624,57624,57624,57624,57624,57624,57624,57624,57624,57624,57624,57624,57624,57624,57624,57624,57624,57624,57624,57624,57624,57624,57624,57624,57624,57624,57624,57624,57624,57624,57624,57624,57624,57624,57624,57624,57624,57624,57624,57624,57624,57624,57624,57624,57624,57624,57624,57624,57624,57624,57624,57624,57624,57624,57624,57624,57624,57624,57624,57624,57624,57624,57624,57624,57624,57624,57624,57624,57624,57624,57624,57624,57624,57624,57624,57624,57624,57624,57624,57624,57624,57624,57624,57624,57624,57624,57624,57624,57624,57624,57624,57624,57624,57624,57624,57624,57624,57624,57624,57624,57624,57624,57624,57624,57624,57624,57624,57624,57624,57624,57624,57624,57624,57624,57625,57624,57624,57624,57624,57624,57624,
57624,57624,57624,57624,57624,57624,57624,57624,57624,57624,57624,57624,57624,57624,57624,57624,57624,57624,57624,57624,57624,57624,57624,57624,57624,57624,57624,57624,57624,57624,57624,57624,57624,57624,57624,57624,57624,57624,57624,57624,57624,57624,57624,57624,57624,57624,57624,57624,57624,57624,57624,57624,57624,57624,57626,57624,57624,57624,57624,57627,57624,57624,57624,57624,57624,57629,57624,57624,57624,57624,57624,57624,57624,57624,57624,57624,57624,57624,57624,57624,57624,57624,57624,57624,57624,57624,57624,57624,57624,57624,57624,57624,57624,57624,57624,57624,57624,57624,57624,57624,57624,57624,57624,57624,57624,57624,57624,57624,57624,57624,57624,57624,57624,57624,57626,57624,57624,57624,57624,57624,57624,57624,57624,57624,57624,57624,57624,57624,57624,57624,57625,57624,57624,57624,57624,57624,57624,57624,57624,57624,57624,57624,57624,57624,57624,57624,57624,57624,57624,57624,57624,57624,57624,57624,57624,57624,57624,57624,57624,57624,57624,57624,57624,57624,57624,57624,57624,57624,57624,57624,57624,57624,57624,57624,57624,57624,57624,57624,57624,57624,57624,57624,57624,57624,57624,57624,57629,57624,57624,57624,57624,57624,57624,57624,57624,57624,57624,57624,57624,57624,57624,57624,57624,57624,57624,57624,57624,57624,57624,57624,57624,57624,57624,57624,57624,57624,57624,57624,57624,57624,57624,57624,57624,57624,57624,57624,57624,57624,57624,57624,57624,57624,57624,57624,57624,57624,57624,57624,57624,57624,
57624,57624,57624,57624,57624,57624,57624,57624,57624,57624,57624,57624,57624,57624,57624,57624,57624,57624,57624,57624,57624,57624,57624,57624,57624,57624,57624,57624,57624,57624,57624,57624,57624,57624,57624,57624,57624,57624,57624,57624,57624,57624,57624,57624,57624,57624,57624,57624,57624,57624,57624,57624,57624,57624,57624,57624,57624,57624,57624,57624,57624,57624,57624,57624,57624,57624,57624,57624,57624,57624,57624,57624,57624,57624,57624,57624,57624,57624,57624,57624,57624,57624,57624,57624,57624,57624,57624,57624,57624,57624,57624,57624,57624,57624,57624,57624,57624,57624,57624,57624,57624,57624,57624,57624,57624,57624,57624,57624,57624,57624,57624,57624,57624,57624,57624,57624,57624,57624,57624,57624,57624,57624,57624,57624,57624,57624,57624,57624,57624,57624,57624,57624,57624,57624,57624,57624,57624,57624,57624,57624,57624,57624,57624,57624,57624,57624,57624,57624,57624,57624,57624,57624,57624,57624,57624,57624,57624,57624,57624,57624,57624,57624,57624,57624,57624,57624,57624,57624,57624,57624,57624,57624,57624,57624,57624,57624,57624,57624,57628,57624,57624,57624,57624,57624,57624,57624,57624,57624,57624,57624,57624,57624,57624,57624,57624,57624,57624,57624,57624,57624,57624,57624,57624,57624,57624,57624,57624,57624,57624,57624,57624,57624,57624,57624,57624,57624,57624,57624,57624,57624,57624,57624,57624,57624,57624,57624,57624,57624,57624,57624,57624,57624,57624,57624,57624,57624,57624,57624,57624,57624,
57624,57624,57624,57624,57624,57624,57624,57624,57624,57624,57624,57624,57624,57624,57624,57624,57624,57624,57624,57624,57624,57624,57624,57624,57627,57624,57624,57624,57624,57624,57624,57624,57624,57624,57624,57624,57624,57624,57624,57624,57624,57624,57624,57624,57624,57624,57624,57624,57624,57624,57624,57624,57624,57624,57624,57624,57624,57624,57624,57624,57624,57624,57624,57624,57624,57624,57624,57624,57624,57624,57624,57624,57624,57624,57624,57624,57624,57624,57624,57624,57624,57624,57624,57624,57624,57624,57624,57624,57624,57624,57624,57624,57624,57624,57624,57624,57624,57624,57624,57624,57624,57624,57624,57624,57624,57624,57624,57624,57624,57624,57624,57624,57624,57624,57624,57624,57624,57624,57624,57624,57624,57624,57624,57624,57624,57624,57624,57624,57624,57624,57624,57624,57624,57624,57624,57624,57624,57624,57624,57624,57624,57624,57624,57624,57624,57624,57624,57624,57624,57624,57624,57624,57624,57624,57624,57624,57624,57624,57624,57624,57624,57624,57624,57624,57624,57624,57624,57624,57624,57624,57624,57624,57624,57624,57624,57624,57624,57624,57624,57624,57624,57624,57624,57624,57624,57624,57624,57624,57624,57624,57624,57624,57624,57624,57624,57624,57624,57624,57624,57624,57624,57624,57624,57624,57624,57624,57624,57624,57624,57624,57624,57624,57624,57624,57624,57624,57624,57624,57624,57624,57624,57624,57624,57624,57624,57624,57624,57624,57624,57624,57624,57624,57624,57624,57624,57624,57624,57624,57624,57624,
57624,57624,57624,57624,57624,57624,57624,57624,57624,57624,57624,57624,57624,57624,57624,57624,57624,57624,57624,57624,57624,57624,57624,57624,57624,57624,57624,57624,57624,57624,57624,57624,57624,57624,57624,57624,57624,57624,57624,57624,57624,57624,57624,57624,57624,57624,57624,57624,57624,57624,57624,57624,57624,57624,57624,57624,57624,57624,57624,57624,57624,57624,57624,57624,57624,57624,57624,57624,57624,57624,57624,57624,57624,57624,57624,57624,57624,57624,57624,57624,57624,57624,57624,57624,57624,57624,57624,57624,57624,57624,57624,57624,57624,57624,57624,57624,57624,57624,57624,57624,57624,57624,57624,57624,57624,57624,57624,57624,57624,57624,57624,57624,57624,57624,57624,57624,57624,57624,57624,57624,57624,57624,57624,57624,57624,57624,57624,57624,57624,57624,57624,57624,57624,57624,57624,57624,57624,57624,57624,57624,57624,57624,57624,57624,57624,57624,57624,57624,57624,57624,57624,57624,57624,57624,57624,57624,57624,57624,57624,57624,57624,57624,57624,57624,57624,57624,57624,57624,57624,57624,57624,57624,57624,57624,57624,57624,57624,57624,57624,57624,57624,57624,57624,57624,57624,57625,57624,57624,57624,57624,57624,57624,57624,57624,57624,57624,57624,57624,57624,57624,57624,57624,57624,57624,57624,57624,57624,57624,57624,57624,57624,57624,57624,57624,57624,57624,57624,57624,57624,57624,57624,57624,57624,57624,57624,57624,57624,57624,57624,57624,57624,57624,57624,57624,57624,57624,57624,57624,57624,57624,
57624,57624,57624,57624,57624,57624,57624,57624,57624,57624,57624,57624,57624,57624,57624,57624,57624,57624,57624,57624,57624,57624,57624,57624,57624,57624,57624,57624,57624,57624,57624,57624,57624,57624,57624,57624,57624,57624,57624,57624,57624,57624,57624,57624,57624,57624,57624,57624,57624,57624,57624,57624,57624,57624,57624,57624,57624,57624,57624,57624,57624,57624,57624,57624,57624,57624,57624,57625,57624,57624,57624,57624,57624,57624,57624,57624,57624,57624,57624,57624,57624,57624,57624,57624,57624,57624,57624,57624,57624,57624,57624,57624,57624,57624,57624,57624,57624,57624,57624,57624,57624,57624,57624,57624,57624,57624,57624,57624,57624,57624,57624,57624,57624,57624,57624,57624,57624,57624,57624,57624,57624,57624,57624,57624,57624,57624,57624,57624,57624,57624,57624,57624,57624,57624,57624,57624,57624,57624,57624,57624,57624,57624,57624,57624,57624,57624,57624,57624,57624,57624,57624,57624,57624,57624,57624,57624,57624,57624,57624,57624,57624,57624,57624,57624,57624,57624,57624,57624,57624,57624,57624,57624,57624,57624,57624,57624,57624,57624,57624,57624,57624,57624,57624,57624,57624,57624,57624,57624,57624,57624,57624,57624,57624,57624,57624,57624,57624,57624,57624,57624,57624,57624,57624,57624,57624,57624,57624,57624,57624,57624,57624,57624,57624,57624,57624,57624,57624,57624,57624,57624,57624,57624,57624,57624,57624,57625,57624,57624,57624,57624,57624,57624,57624,57624,57624,57624,57624,57624,57624,57624,
57624,57624,57624,57624,57624,57624,57624,57624,57624,57624,57624,57624,57624,57624,57624,57624,57624,57624,57624,57624,57624,57624,57624,57624,57624,57624,57624,57624,57624,57624,57624,57624,57624,57624,57624,57624,57624,57624,57624,57624,57624,57624,57624,57624,57624,57624,57624,57624,57624,57624,57624,57624,57624,57624,57624,57624,57624,57624,57624,57624,57624,57624,57624,57624,57624,57624,57624,57624,57624,57624,57624,57624,57624,57624,57624,57624,57624,57624,57624,57624,57624,57624,57624,57624,57624,57624,57624,57624,57624,57624,57624,57624,57624,57624,57624,57624,57624,57624,57624,57624,57624,57624,57624,57624,57624,57624,57624,57624,57624,57624,57624,57624,57624,57624,57624,57624,57624,57624,57624,57624,57624,57624,57624,57624,57624,57624,57624,57624,57624,57624,57624,57624,57624,57624,57624,57624,57624,57624,57624,57624,57624,57624,57624,57624,57624,57624,57624,57624,57624,57624,57624,57624,57624,57624,57624,57624,57624,57624,57624,57624,57624,57624,57624,57624,57624,57624,57624,57624,57624,57624,57624,57624,57624,57624,57624,57624,57624,57624,57624,57624,57624,57624,57624,57624,57624,57624,57624,57624,57624,57624,57624,57624,57624,57624,57624,57624,57624,57624,57624,57624,57624,57624,57624,57624,57624,57624,57624,57626,57624,57624,57624,57624,57624,57624,57624,57624,57624,57624,57624,57624,57624,57624,57624,57624,57624,57624,57624,57624,57624,57624,57624,57624,57624,57624,57624,57624,57624,57624,57624,57624,
57624,57624,57624,57624,57624,57624,57624,57624,57624,57624,57624,57624,57624,57624,57624,57624,57624,57624,57624,57624,57624,57624,57624,57624,57624,57624,57624,57624,57624,57624,57624,57624,57624,57624,57624,57624,57624,57624,57624,57624,57624,57624,57624,57624,57624,57624,57624,57624,57624,57624,57624,57624,57624,57624,57624,57624,57624,57624,57624,57624,57624,57624,57624,57624,57624,57624,57624,57624,57624,57624,57624,57624,57624,57624,57624,57624,57624,57624,57624,57624,57624,57624,57624,57624,57624,57624,57624,57624,57624,57624,57624,57624,57624,57624,57624,57624,57624,57627,57624,57624,57624,57624,57624,57624,57624,57624,57624,57624,57624,57624,57624,57624,57624,57624,57624,57624,57624,57624,57624,57624,57624,57624,57624,57624,57624,57624,57624,57624,57624,57624,57624,57624,57624,57624,57624,57624,57624,57624,57624,57624,57624,57624,57624,57624,57624,57624,57624,57624,57624,57624,57624,57624,57624,57624,57624,57624,57624,57624,57624,57624,57624,57624,57624,57624,57624,57624,57624,57624,57624,57624,57624,57624,57624,57624,57624,57624,57624,57624,57624,57624,57624,57624,57624,57624,57624,57624,57624,57624,57624,57624,57624,57624,57624,57624,57624,57624,57624,57624,57624,57624,57624,57624,57624,57624,57624,57624,57624,57624,57624,57624,57624,57624,57624,57624,57624,57624,57624,57624,57624,57624,57624,57624,57624,57624,57624,57624,57624,57624,57624,57624,57624,57624,57624,57624,57624,57624,57624,57624,57624,57624,
57624,57624,57624,57624,57624,57624,57624,57624,57624,57624,57624,57624,57624,57624,57624,57624,57624,57624,57624,57624,57624,57624,57624,57624,57624,57624,57624,57624,57629,57628,57624,57624,57624,57624,57624,57624,57624,57624,57624,57624,57624,57624,57624,57624,57624,57624,57624,57624,57624,57624,57624,57624,57624,57624,57624,57624,57624,57624,57624,57624,57624,57624,57624,57624,57624,57627,57624,57624,57624,57624,57624,57624,57624,57624,57624,57624,57624,57624,57624,57624,57624,57624,57624,57624,57624,57624,57624,57624,57624,57624,57624,57624,57624,57624,57624,57624,57624,57624,57627,57624,57624,57624,57624,57624,57624,57624,57624,57624,57624,57624,57624,57624,57624,57624,57624,57624,57624,57624,57624,57624,57624,57624,57624,57624,57624,57624,57624,57624,57624,57624,57624,57624,57624,57624,57624,57624,57624,57624,57624,57624,57624,57624,57624,57624,57624,57624,57624,57624,57624,57624,57624,57624,57624,57624,57624,57624,57624,57624,57624,57624,57624,57624,57624,57624,57624,57624,57624,57624,57624,57624,57624,57624,57624,57624,57624,57624,57624,57624,57624,57624,57624,57624,57624,57624,57624,57624,57624,57624,57624,57624,57624,57624,57624,57624,57624,57624,57624,57624,57624,57624,57624,57624,57624,57624,57624,57624,57624,57624,57624,57624,57624,57624,57624,57624,57624,57624,57624,57624,57624,57624,57624,57624,57624,57624,57629,57624,57624,57624,57624,57624,57624,57624,57624,57624,57624,57624,57624,57624,57624,57628,
57624,57624,57624,57624,57624,57624,57624,57624,57624,57624,57624,57624,57624,57624,57624,57624,57624,57624,57624,57624,57624,57624,57624,57624,57624,57624,57624,57624,57624,57624,57624,57624,57624,57624,57624,57624,57624,57624,57624,57624,57624,57624,57624,57624,57624,57624,57624,57624,57624,57624,57624,57624,57624,57624,57624,57624,57624,57624,57624,57624,57624,57624,57624,57624,57624,57624,57624,57624,57624,57624,57624,57624,57624,57624,57624,57624,57624,57624,57624,57624,57624,57624,57624,57624,57624,57624,57624,57624,57624,57624,57624,57624,57624,57624,57624,57624,57624,57624,57624,57624,57624,57624,57628,57624,57624,57624,57624,57624,57624,57624,57624,57624,57624,57624,57624,57624,57624,57624,57624,57624,57624,57624,57624,57624,57624,57624,57624,57624,57624,57624,57624,57624,57624,57624,57624,57624,57624,57624,57624,57624,57624,57624,57624,57624,57624,57624,57624,57624,57624,57624,57624,57624,57624,57624,57624,57624,57624,57624,57624,57624,57624,57624,57624,57624,57624,57624,57624,57624,57624,57624,57624,57624,57624,57624,57624,57624,57624,57624,57624,57624,57624,57624,57624,57624,57624,57624,57624,57624,57624,57624,57624,57624,57624,57624,57624,57624,57624,57624,57624,57624,57624,57624,57624,57624,57624,57624,57624,57624,57624,57624,57624,57624,57624,57624,57624,57624,57624,57624,57624,57624,57624,57624,57624,57624,57624,57624,57624,57624,57624,57624,57624,57624,57624,57624,57624,57624,57624,57624,57624,57624,
57624,57624,57624,57624,57624,57624,57624,57624,57624,57624,57624,57624,57624,57624,57624,57624,57624,57624,57624,57624,57624,57624,57624,57624,57624,57624,57624,57624,57624,57624,57624,57624,57624,57624,57624,57624,57624,57624,57628,57624,57624,57624,57624,57624,57624,57624,57624,57624,57624,57624,57624,57624,57624,57624,57624,57624,57624,57624,57624,57624,57624,57624,57624,57624,57624,57624,57624,57624,57624,57624,57624,57624,57624,57624,57624,57624,57624,57624,57624,57624,57624,57624,57624,57624,57624,57624,57624,57624,57624,57624,57624,57624,57624,57624,57624,57624,57624,57624,57624,57624,57624,57624,57624,57624,57624,57624,57624,57624,57624,57624,57624,57624,57624,57624,57624,57624,57624,57624,57624,57624,57624,57624,57624,57624,57624,57624,57624,57624,57624,57624,57624,57624,57624,57624,57624,57624,57624,57624,57624,57624,57624,57624,57624,57624,57624,57624,57624,57624,57624,57624,57624,57624,57624,57624,57624,57624,57624,57624,57624,57624,57624,57624,57624,57624,57624,57624,57624,57624,57624,57624,57624,57624,57624,57624,57624,57624,57624,57624,57624,57624,57624,57624,57624,57624,57624,57624,57624,57624,57624,57624,57624,57624,57624,57624,57624,57624,57624,57624,57624,57624,57624,57624,57624,57624,57624,57624,57624,57624,57624,57624,57624,57624,57624,57624,57624,57624,57624,57624,57624,57624,57624,57624,57624,57624,57624,57624,57624,57624,57624,57624,57624,57624,57624,57624,57624,57624,57624,57624,57624,57624,
57624,57624,57624,57624,57624,57624,57624,57624,57624,57624,57624,57624,57624,57624,57624,57624,57624,57624,57624,57624,57624,57624,57624,57624,57624,57624,57624,57624,57624,57624,57624,57624,57624,57624,57624,57624,57624,57624,57624,57624,57624,57624,57624,57624,57624,57624,57624,57624,57624,57624,57624,57624,57624,57624,57624,57624,57624,57624,57624,57624,57624,57624,57624,57624,57624,57624,57624,57624,57624,57624,57624,57624,57624,57624,57624,57625,57624,57624,57624,57624,57624,57624,57624,57624,57624,57624,57624,57624,57624,57624,57624,57624,57624,57624,57624,57624,57624,57624,57624,57624,57624,57624,57624,57624,57624,57624,57624,57624,57624,57624,57624,57624,57624,57624,57624,57624,57624,57624,57624,57624,57624,57624,57624,57624,57624,57624,57624,57624,57624,57624,57624,57624,57624,57624,57624,57624,57624,57624,57624,57624,57624,57624,57624,57624,57624,57624,57624,57624,57624,57624,57624,57624,57624,57624,57624,57624,57624,57624,57624,57624,57624,57624,57624,57624,57624,57624,57624,57624,57624,57624,57624,57624,57624,57624,57624,57624,57624,57624,57628,57624,57624,57624,57624,57624,57624,57624,57624,57624,57624,57624,57624,57624,57624,57624,57624,57624,57624,57624,57624,57624,57624,57624,57624,57624,57624,57624,57624,57624,57624,57624,57624,57624,57624,57624,57624,57624,57624,57624,57624,57624,57624,57624,57624,57624,57624,57624,57624,57624,57624,57624,57624,57624,57624,57624,57624,57624,57624,57624,57624,57624,
57624,57624,57624,57624,57624,57624,57624,57624,57624,57624,57624,57624,57624,57624,57624,57624,57624,57624,57624,57624,57624,57624,57624,57624,57624,57624,57624,57624,57624,57624,57624,57624,57624,57624,57624,57624,57624,57624,57624,57624,57624,57624,57624,57624,57624,57624,57624,57624,57624,57624,57624,57624,57624,57624,57624,57624,57624,57624,57624,57624,57624,57624,57624,57624,57624,57624,57624,57624,57624,57624,57624,57624,57624,57624,57624,57624,57624,57624,57624,57624,57624,57624,57624,57624,57624,57624,57624,57624,57624,57624,57624,57624,57624,57624,57624,57624,57624,57624,57624,57624,57624,57624,57624,57624,57624,57624,57624,57624,57624,57624,57624,57624,57624,57624,57624,57624,57624,57624,57624,57624,57624,57624,57624,57624,57624,57624,57624,57624,57624,57624,57624,57624,57624,57624,57624,57624,57624,57624,57624,57624,57624,57624,57624,57624,57624,57624,57624,57624,57624,57624,57624,57624,57624,57624,57624,57624,57624,57624,57624,57624,57624,57624,57624,57624,57624,57624,57624,57624,57624,57624,57624,57624,57624,57624,57624,57624,57624,57624,57624,57624,57624,57629,57624,57624,57624,57624,57624,57624,57624,57624,57624,57624,57624,57624,57624,57624,57624,57624,57624,57624,57624,57624,57624,57624,57624,57624,57624,57624,57624,57624,57624,57624,57624,57624,57624,57624,57624,57624,57624,57624,57624,57624,57624,57624,57624,57624,57626,57624,57624,57624,57624,57624,57624,57627,57624,57624,57624,57624,57624,57624,
57624,57624,57624,57624,57624,57624,57624,57624,57624,57624,57624,57624,57624,57624,57624,57624,57624,57624,57624,57624,57624,57624,57624,57624,57624,57624,57624,57624,57624,57624,57624,57624,57624,57624,57624,57624,57624,57624,57624,57624,57624,57624,57624,57624,57624,57624,57624,57624,57624,57624,57624,57624,57624,57624,57624,57624,57624,57624,57624,57624,57624,57624,57624,57624,57624,57624,57624,57624,57624,57624,57624,57624,57624,57624,57624,57624,57624,57624,57624,57624,57624,57624,57624,57624,57624,57624,57624,57624,57624,57624,57624,57624,57624,57624,57624,57624,57624,57624,57624,57624,57624,57624,57624,57624,57624,57624,57624,57624,57624,57624,57624,57624,57624,57624,57624,57624,57624,57624,57624,57624,57624,57624,57624,57624,57626,57624,57624,57624,57624,57624,57624,57624,57624,57624,57624,57624,57624,57624,57624,57624,57624,57624,57624,57624,57624,57624,57624,57624,57624,57624,57624,57624,57624,57624,57624,57624,57624,57624,57624,57624,57624,57624,57624,57624,57624,57624,57624,57624,57624,57624,57624,57624,57624,57624,57624,57624,57624,57624,57624,57624,57624,57624,57624,57624,57624,57624,57624,57624,57624,57624,57624,57624,57624,57624,57624,57624,57624,57624,57624,57624,57624,57624,57625,57624,57624,57624,57624,57624,57624,57624,57624,57624,57624,57624,57624,57624,57624,57624,57624,57624,57624,57624,57624,57624,57624,57624,57624,57624,57624,57624,57624,57624,57624,57624,57624,57624,57624,57624,57624,57624,
57624,57624,57624,57624,57624,57624,57624,57624,57624,57624,57624,57624,57624,57624,57624,57624,57624,57624,57624,57624,57624,57624,57624,57624,57624,57624,57624,57624,57624,57624,57624,57624,57624,57624,57624,57624,57624,57624,57624,57624,57624,57624,57624,57624,57624,57624,57624,57624,57624,57624,57624,57624,57624,57624,57624,57624,57624,57624,57624,57624,57624,57624,57624,57624,57624,57624,57624,57624,57624,57624,57624,57624,57624,57624,57624,57624,57624,57624,57624,57624,57624,57624,57624,57624,57624,57624,57624,57624,57624,57629,57624,57624,57624,57624,57624,57624,57624,57624,57624,57624,57624,57624,57624,57624,57624,57624,57624,57624,57624,57624,57624,57624,57624,57624,57624,57624,57624,57624,57624,57624,57624,57624,57624,57624,57624,57624,57624,57624,57624,57624,57624,57624,57624,57624,57624,57624,57624,57624,57624,57624,57624,57624,57624,57624,57624,57624,57624,57624,57624,57624,57624,57624,57624,57624,57624,57624,57624,57624,57624,57624,57624,57624,57624,57624,57624,57624,57624,57624,57624,57624,57624,57624,57624,57624,57624,57624,57624,57624,57624,57624,57624,57624,57624,57624,57624,57624,57624,57624,57624,57624,57624,57624,57624,57624,57627,57624,57624,57624,57624,57624,57624,57624,57624,57624,57624,57624,57624,57624,57624,57624,57624,57624,57624,57624,57624,57624,57624,57624,57624,57624,57624,57624,57624,57624,57624,57624,57624,57624,57624,57624,57624,57624,57624,57624,57624,57624,57624,57624,57624,57624,
57624,57624,57624,57624,57624,57624,57624,57624,57624,57624,57624,57624,57624,57624,57624,57624,57624,57624,57624,57624,57624,57624,57624,57624,57624,57624,57624,57624,57624,57624,57624,57624,57624,57624,57624,57624,57624,57624,57624,57624,57624,57624,57624,57624,57624,57624,57624,57624,57624,57624,57624,57624,57624,57624,57624,57624,57624,57624,57624,57624,57624,57624,57624,57624,57624,57624,57624,57624,57624,57624,57624,57624,57624,57624,57624,57624,57624,57624,57624,57624,57624,57624,57624,57624,57624,57624,57624,57624,57624,57624,57624,57624,57624,57624,57624,57624,57624,57624,57624,57624,57624,57624,57624,57624,57624,57624,57624,57624,57624,57624,57624,57624,57624,57624,57624,57624,57624,57624,57624,57624,57624,57624,57624,57624,57624,57624,57624,57624,57624,57624,57624,57624,57624,57624,57624,57624,57624,57624,57624,57624,57624,57624,57624,57624,57624,57624,57624,57624,57626,57624,57624,57624,57624,57624,57624,57624,57624,57624,57624,57624,57624,57624,57624,57624,57624,57624,57624,57624,57624,57624,57624,57624,57624,57624,57624,57624,57624,57624,57624,57624,57624,57624,57624,57624,57624,57624,57624,57624,57624,57624,57624,57624,57624,57624,57624,57624,57624,57624,57624,57624,57624,57624,57624,57624,57624,57624,57624,57624,57624,57624,57624,57624,57624,57624,57624,57624,57624,57624,57624,57624,57624,57624,57627,57624,57624,57624,57624,57624,57624,57624,57624,57624,57624,57624,57624,57624,57624,57624,57624,57624,
57624,57624,57624,57624,57624,57624,57624,57624,57624,57624,57624,57624,57624,57624,57624,57624,57624,57624,57624,57624,57624,57624,57624,57624,57624,57624,57624,57624,57624,57624,57624,57624,57624,57624,57624,57624,57624,57624,57624,57624,57624,57624,57624,57624,57624,57624,57624,57624,57624,57624,57624,57624,57624,57624,57624,57624,57624,57624,57624,57624,57624,57624,57624,57624,57624,57624,57624,57624,57624,57624,57624,57624,57624,57624,57624,57624,57624,57624,57624,57624,57624,57624,57624,57624,57624,57624,57624,57624,57624,57624,57624,57624,57624,57624,57624,57624,57624,57624,57624,57624,57624,57624,57624,57624,57624,57624,57624,57624,57624,57624,57624,57624,57624,57624,57624,57624,57624,57624,57624,57624,57624,57624,57624,57624,57624,57624,57624,57624,57624,57624,57624,57624,57624,57624,57624,57624,57624,57624,57624,57624,57624,57624,57624,57624,57624,57624,57624,57624,57624,57624,57624,57624,57624,57624,57624,57624,57624,57624,57624,57624,57624,57624,57624,57624,57624,57624,57624,57624,57624,57624,57624,57624,57624,57624,57624,57624,57624,57624,57624,57624,57624,57624,57624,57624,57624,57624,57624,57624,57624,57624,57624,57624,57624,57624,57624,57624,57624,57624,57624,57624,57624,57624,57624,57624,57624,57624,57624,57624,57624,57624,57628,57624,57624,57624,57624,57624,57624,57624,57624,57624,57624,57624,57624,57624,57624,57624,57624,57624,57624,57624,57624,57624,57624,57624,57624,57624,57624,57624,57624,57624,
57624,57624,57624,57624,57624,57624,57624,57624,57624,57624,57624,57624,57624,57624,57624,57624,57624,57624,57624,57624,57624,57624,57624,57624,57624,57624,57624,57624,57624,57624,57624,57624,57624,57624,57624,57624,57624,57624,57624,57624,57624,57624,57624,57624,57624,57624,57624,57624,57624,57624,57624,57624,57624,57624,57624,57624,57624,57624,57624,57624,57624,57624,57624,57624,57624,57624,57624,57624,57624,57624,57624,57624,57624,57624,57624,57624,57624,57624,57624,57624,57624,57624,57624,57624,57624,57624,57627,57624,57624,57624,57624,57624,57624,57624,57624,57624,57624,57624,57624,57624,57624,57624,57624,57624,57624,57624,57624,57624,57624,57624,57624,57624,57624,57624,57624,57624,57624,57624,57624,57624,57624,57624,57624,57624,57624,57624,57624,57624,57624,57624,57624,57624,57624,57624,57624,57624,57624,57624,57624,57624,57624,57624,57624,57624,57624,57624,57624,57624,57624,57624,57624,57624,57624,57624,57624,57624,57624,57624,57624,57624,57624,57624,57624,57624,57624,57624,57624,57624,57624,57624,57624,57624,57624,57624,57624,57624,57624,57624,57624,57624,57624,57624,57624,57624,57624,57624,57624,57624,57624,57624,57624,57624,57624,57624,57624,57624,57624,57624,57624,57624,57624,57624,57624,57624,57624,57624,57624,57624,57624,57624,57624,57624,57624,57624,57624,57624,57627,57624,57624,57624,57624,57624,57624,57624,57624,57624,57624,57624,57624,57624,57624,57624,57624,57624,57624,57624,57624,57624,57624,57624,
57624,57624,57624,57624,57624,57624,57624,57624,57624,57624,57624,57624,57624,57624,57624,57624,57624,57624,57624,57624,57624,57624,57624,57624,57624,57624,57625,57624,57624,57624,57624,57624,57624,57624,57624,57624,57624,57624,57624,57624,57624,57624,57624,57624,57624,57624,57624,57624,57624,57624,57624,57624,57624,57624,57624,57624,57624,57624,57624,57624,57624,57624,57624,57624,57624,57624,57624,57624,57624,57624,57624,57624,57624,57624,57624,57624,57624,57624,57624,57624,57624,57624,57624,57624,57624,57624,57624,57624,57624,57624,57624,57624,57624,57624,57624,57624,57624,57624,57624,57624,57624,57624,57624,57624,57624,57624,57624,57624,57624,57624,57624,57624,57624,57624,57624,57624,57624,57624,57624,57624,57624,57624,57624,57624,57624,57624,57624,57624,57624,57624,57624,57624,57624,57624,57624,57624,57624,57624,57624,57624,57624,57624,57624,57624,57624,57624,57624,57624,57624,57624,57624,57624,57624,57624,57624,57624,57624,57624,57624,57624,57624,57624,57624,57624,57624,57624,57624,57624,57624,57624,57624,57624,57624,57624,57624,57624,57624,57624,57624,57624,57624,57624,57624,57624,57624,57624,57624,57624,57624,57624,57624,57624,57624,57624,57624,57624,57624,57624,57624,57624,57624,57624,57624,57624,57624,57624,57624,57624,57624,57624,57624,57624,57624,57624,57624,57624,57624,57624,57624,57624,57624,57624,57624,57624,57624,57624,57624,57624,57624,57624,57624,57624,57624,57624,57624,57624,57624,57624,57624,57624,
57624,57624,57624,57624,57624,57624,57624,57624,57624,57624,57624,57624,57624,57624,57624,57624,57624,57624,57624,57624,57624,57624,57624,57624,57624,57624,57624,57624,57624,57624,57624,57624,57624,57624,57624,57624,57624,57624,57624,57624,57624,57624,57624,57624,57624,57624,57624,57624,57624,57624,57624,57624,57624,57624,57624,57624,57624,57624,57624,57624,57624,57624,57624,57624,57624,57624,57624,57624,57624,57624,57624,57624,57624,57624,57624,57624,57624,57624,57624,57624,57624,57624,57624,57624,57624,57624,57624,57624,57624,57624,57624,57624,57624,57624,57624,57624,57624,57624,57624,57624,57624,57624,57624,57624,57624,57624,57624,57624,57624,57624,57624,57624,57624,57624,57624,57624,57624,57624,57624,57624,57624,57624,57624,57624,57624,57624,57624,57624,57624,57624,57624,57624,57624,57624,57624,57624,57624,57624,57624,57624,57624,57624,57624,57624,57624,57624,57624,57624,57624,57624,57624,57624,57624,57624,57624,57624,57624,57624,57624,57624,57624,57624,57624,57624,57624,57624,57624,57624,57624,57624,57624,57624,57624,57624,57624,57624,57624,57624,57624,57624,57624,57624,57624,57624,57624,57624,57624,57624,57624,57624,57624,57624,57624,57624,57624,57624,57624,57624,57624,57624,57624,57624,57624,57624,57624,57624,57624,57624,57624,57624,57624,57624,57625,57624,57624,57624,57624,57624,57624,57624,57624,57624,57624,57624,57624,57624,57624,57624,57624,57624,57624,57624,57624,57624,57624,57624,57624,57624,57624,57624,
57624,57624,57624,57624,57624,57624,57624,57624,57624,57624,57624,57624,57624,57624,57624,57624,57624,57624,57624,57624,57624,57624,57624,57624,57624,57624,57624,57624,57624,57624,57624,57624,57624,57624,57624,57624,57624,57624,57624,57624,57624,57624,57624,57624,57624,57624,57624,57624,57624,57624,57624,57624,57624,57624,57624,57624,57624,57624,57624,57624,57624,57624,57624,57624,57624,57624,57624,57624,57624,57624,57624,57624,57624,57624,57624,57624,57624,57624,57624,57624,57624,57624,57624,57624,57624,57624,57624,57624,57624,57624,57624,57624,57624,57624,57624,57624,57624,57624,57624,57624,57624,57624,57624,57624,57624,57624,57624,57624,57624,57624,57624,57624,57624,57624,57624,57624,57624,57624,57624,57624,57624,57624,57624,57624,57624,57624,57624,57624,57624,57624,57624,57624,57624,57624,57624,57624,57624,57624,57624,57624,57624,57624,57624,57624,57624,57624,57624,57624,57624,57624,57624,57624,57624,57624,57624,57624,57624,57624,57624,57624,57624,57624,57624,57624,57624,57624,57624,57624,57624,57624,57624,57624,57624,57624,57624,57624,57624,57624,57624,57624,57624,57624,57624,57624,57624,57624,57624,57624,57624,57624,57624,57624,57624,57624,57624,57624,57624,57624,57624,57624,57624,57624,57624,57624,57624,57624,57624,57624,57624,57624,57624,57624,57624,57624,57624,57624,57624,57624,57624,57624,57624,57624,57624,57624,57624,57624,57624,57624,57624,57624,57624,57624,57624,57624,57624,57624,57624,57624,57624,57624,
57624,57624,57624,57624,57624,57624,57624,57624,57624,57624,57624,57624,57624,57624,57624,57624,57624,57624,57624,57624,57624,57624,57624,57624,57624,57624,57624,57624,57624,57624,57624,57624,57624,57624,57624,57624,57624,57624,57624,57624,57624,57624,57624,57624,57624,57624,57624,57624,57624,57624,57624,57624,57624,57624,57624,57624,57624,57624,57624,57624,57624,57624,57624,57624,57624,57624,57624,57624,57624,57624,57624,57624,57624,57624,57624,57624,57624,57624,57624,57624,57624,57624,57624,57624,57624,57624,57624,57624,57624,57624,57624,57624,57624,57624,57624,57624,57624,57624,57624,57624,57624,57624,57624,57624,57624,57624,57624,57624,57624,57624,57624,57624,57624,57624,57624,57624,57624,57624,57624,57626,57624,57624,57624,57624,57627,57624,57624,57624,57624,57624,57624,57624,57624,57624,57624,57624,57624,57624,57624,57624,57624,57624,57624,57624,57624,57624,57624,57624,57624,57624,57624,57624,57624,57624,57624,57624,57624,57624,57624,57624,57624,57624,57624,57624,57624,57624,57624,57624,57624,57624,57624,57624,57624,57624,57624,57624,57624,57624,57624,57624,57624,57624,57624,57624,57624,57624,57624,57624,57624,57624,57624,57624,57624,57624,57624,57624,57624,57624,57624,57624,57624,57624,57624,57624,57624,57624,57624,57624,57624,57624,57624,57624,57624,57624,57624,57624,57624,57624,57624,57624,57624,57624,57624,57624,57624,57624,57624,57624,57624,57624,57624,57624,57624,57624,57624,57624,57624,57624,57624,57624,
57624,57624,57624,57624,57624,57624,57624,57624,57624,57624,57624,57624,57624,57624,57624,57624,57624,57624,57624,57624,57624,57624,57624,57624,57624,57624,57624,57624,57624,57624,57624,57624,57624,57624,57624,57624,57624,57624,57624,57624,57624,57624,57624,57624,57624,57624,57624,57624,57624,57624,57624,57624,57624,57624,57624,57624,57624,57624,57624,57624,57624,57624,57624,57624,57624,57624,57624,57624,57624,57624,57624,57624,57624,57624,57624,57624,57624,57624,57624,57624,57624,57624,57624,57624,57624,57624,57624,57624,57624,57624,57624,57624,57624,57624,57624,57624,57624,57624,57624,57624,57624,57624,57624,57624,57624,57624,57624,57624,57624,57624,57624,57624,57624,57624,57624,57624,57624,57624,57624,57624,57624,57624,57624,57624,57624,57624,57624,57624,57624,57624,57624,57624,57624,57626,57624,57624,57624,57624,57624,57624,57624,57624,57624,57624,57624,57624,57624,57624,57624,57624,57624,57624,57624,57624,57624,57624,57624,57624,57624,57624,57624,57624,57624,57624,57624,57624,57624,57624,57624,57624,57624,57624,57624,57624,57624,57624,57624,57624,57624,57624,57624,57624,57624,57624,57624,57624,57624,57624,57624,57624,57624,57624,57624,57624,57624,57624,57624,57624,57624,57624,57624,57624,57624,57624,57624,57624,57624,57624,57624,57624,57624,57624,57624,57624,57624,57624,57624,57624,57624,57624,57624,57624,57624,57624,57624,57624,57624,57624,57624,57624,57624,57624,57624,57624,57624,57624,57624,57624,57624,57624,
57624,57624,57624,57624,57624,57624,57624,57624,57624,57624,57624,57624,57624,57624,57624,57624,57624,57624,57624,57624,57624,57624,57624,57624,57624,57624,57624,57624,57624,57624,57624,57624,57624,57624,57624,57624,57624,57624,57624,57624,57624,57624,57624,57624,57624,57624,57624,57624,57624,57624,57624,57624,57624,57624,57624,57624,57624,57624,57624,57624,57624,57624,57624,57624,57624,57624,57624,57624,57624,57624,57624,57624,57624,57624,57624,57624,57624,57624,57624,57624,57624,57624,57624,57624,57624,57624,57624,57624,57624,57624,57624,57624,57624,57624,57624,57624,57624,57624,57624,57624,57624,57624,57624,57624,57624,57624,57624,57624,57624,57624,57624,57624,57624,57624,57624,57624,57624,57624,57624,57624,57624,57624,57624,57624,57624,57624,57624,57624,57624,57624,57624,57624,57624,57627,57624,57624,57624,57624,57624,57624,57624,57624,57624,57624,57624,57624,57624,57624,57624,57624,57624,57624,57624,57624,57624,57624,57624,57624,57624,57624,57624,57624,57624,57624,57624,57624,57624,57624,57624,57624,57624,57624,57624,57624,57624,57624,57624,57624,57624,57624,57624,57624,57624,57624,57624,57624,57624,57624,57624,57624,57624,57624,57624,57624,57624,57624,57624,57624,57624,57624,57624,57624,57624,57624,57624,57624,57624,57624,57624,57624,57624,57624,57624,57624,57624,57624,57624,57624,57624,57624,57624,57624,57624,57624,57624,57624,57624,57624,57624,57624,57624,57624,57624,57624,57624,57624,57624,57624,57624,57624,
57624,57624,57624,57624,57624,57624,57624,57624,57624,57624,57624,57624,57624,57624,57624,57624,57624,57624,57624,57624,57624,57624,57624,57624,57624,57624,57624,57624,57624,57624,57624,57624,57624,57624,57624,57624,57624,57624,57624,57624,57624,57624,57624,57624,57624,57624,57624,57624,57624,57624,57624,57624,57624,57624,57624,57624,57624,57624,57624,57624,57624,57624,57624,57624,57624,57624,57624,57624,57624,57624,57624,57624,57624,57624,57624,57624,57624,57624,57624,57624,57624,57624,57624,57624,57624,57624,57624,57624,57624,57624,57624,57624,57624,57624,57624,57624,57624,57624,57624,57624,57624,57624,57624,57624,57624,57624,57624,57624,57624,57624,57624,57624,57624,57624,57624,57624,57624,57624,57624,57624,57624,57624,57624,57624,57624,57624,57624,57624,57624,57624,57624,57624,57624,57624,57624,57624,57624,57624,57624,57624,57624,57624,57624,57624,57624,57624,57624,57624,57624,57624,57624,57625,57624,57624,57624,57624,57624,57624,57624,57624,57624,57624,57624,57624,57624,57624,57624,57624,57624,57624,57624,57624,57624,57624,57624,57624,57624,57624,57624,57624,57624,57624,57624,57624,57624,57624,57624,57624,57624,57624,57624,57624,57624,57624,57624,57624,57624,57624,57624,57624,57624,57624,57624,57624,57624,57624,57624,57624,57624,57624,57624,57624,57624,57624,57624,57624,57624,57624,57624,57624,57624,57624,57624,57624,57624,57624,57624,57624,57624,57624,57624,57624,57624,57624,57624,57624,57624,57624,57624,57624,
57624,57624,57624,57624,57624,57624,57624,57624,57624,57624,57624,57624,57624,57624,57624,57624,57624,57624,57624,57624,57624,57624,57624,57624,57624,57624,57624,57624,57624,57624,57624,57624,57624,57624,57624,57624,57624,57624,57624,57624,57624,57624,57624,57624,57624,57624,57624,57624,57624,57624,57624,57624,57624,57624,57624,57625,57624,57624,57624,57624,57624,57628,57624,57624,57624,57624,57624,57624,57624,57624,57624,57624,57624,57624,57624,57624,57624,57624,57624,57624,57624,57624,57624,57624,57624,57624,57624,57624,57624,57624,57624,57624,57624,57624,57624,57624,57624,57624,57624,57624,57629,57624,57624,57624,57624,57624,57624,57624,57624,57624,57624,57624,57624,57624,57624,57624,57624,57624,57624,57624,57624,57624,57624,57624,57624,57624,57624,57624,57624,57624,57624,57624,57624,57624,57624,57624,57624,57624,57624,57624,57624,57624,57624,57624,57624,57624,57624,57624,57624,57624,57624,57624,57624,57624,57624,57624,57624,57624,57624,57624,57624,57624,57624,57624,57624,57624,57624,57624,57624,57624,57624,57624,57624,57624,57624,57624,57624,57624,57624,57624,57624,57624,57624,57624,57624,57624,57624,57624,57624,57624,57624,57624,57624,57624,57624,57624,57624,57624,57624,57624,57624,57624,57624,57624,57624,57624,57624,57624,57624,57624,57624,57624,57624,57624,57624,57624,57624,57624,57624,57624,57624,57624,57624,57624,57624,57624,57624,57624,57624,57624,57624,57624,57624,57624,57624,57624,57624,57624,57624,57624,
57624,57624,57624,57624,57624,57624,57624,57624,57624,57624,57624,57624,57624,57624,57624,57624,57624,57624,57624,57624,57624,57624,57624,57624,57624,57624,57624,57624,57624,57624,57624,57624,57624,57624,57624,57624,57624,57624,57624,57624,57624,57624,57624,57624,57624,57624,57624,57624,57624,57624,57624,57624,57624,57624,57624,57624,57624,57624,57624,57624,57624,57624,57624,57624,57624,57624,57624,57624,57624,57624,57624,57624,57624,57624,57624,57624,57624,57624,57624,57624,57624,57625,57624,57624,57624,57624,57624,57624,57624,57624,57624,57624,57624,57624,57624,57624,57624,57624,57624,57624,57624,57624,57624,57624,57624,57624,57624,57624,57624,57624,57624,57624,57624,57624,57624,57624,57624,57624,57624,57624,57624,57624,57624,57624,57624,57624,57624,57629,57624,57624,57624,57624,57624,57624,57624,57624,57624,57624,57624,57624,57624,57629,57624,57624,57624,57624,57624,57624,57624,57627,57624,57624,57624,57624,57624,57624,57624,57624,57624,57624,57624,57624,57624,57624,57624,57624,57624,57624,57624,57624,57624,57624,57624,57624,57624,57624,57624,57624,57624,57624,57624,57624,57624,57624,57624,57624,57624,57629,57624,57624,57624,57624,57624,57624,57624,57624,57624,57624,57624,57624,57624,57624,57624,57624,57624,57624,57624,57624,57624,57624,57624,57624,57624,57624,57624,57624,57624,57624,57624,57624,57624,57624,57624,57624,57624,57624,57624,57624,57624,57624,57624,57624,57624,57624,57624,57624,57624,57624,57624,57624,
57624,57624,57624,57624,57624,57624,57624,57624,57624,57624,57624,57624,57624,57624,57624,57624,57624,57624,57624,57624,57624,57624,57624,57624,57624,57624,57624,57624,57624,57624,57624,57624,57624,57624,57624,57624,57624,57624,57624,57624,57624,57624,57624,57624,57624,57624,57624,57624,57624,57624,57624,57624,57624,57624,57624,57624,57624,57624,57624,57624,57624,57624,57624,57624,57624,57624,57624,57624,57624,57626,57624,57624,57624,57624,57624,57624,57624,57624,57624,57624,57624,57624,57624,57624,57624,57624,57624,57624,57624,57624,57624,57624,57624,57624,57624,57624,57624,57624,57624,57624,57624,57624,57624,57624,57624,57624,57624,57624,57624,57624,57624,57624,57624,57624,57624,57624,57624,57624,57624,57624,57624,57624,57624,57624,57624,57624,57624,57624,57624,57624,57624,57624,57624,57624,57624,57624,57624,57624,57624,57624,57624,57624,57624,57624,57624,57624,57624,57624,57624,57624,57624,57624,57624,57624,57624,57624,57624,57624,57624,57624,57624,57624,57624,57624,57624,57624,57624,57624,57624,57624,57624,57624,57624,57624,57624,57624,57624,57624,57624,57624,57624,57624,57624,57624,57624,57624,57624,57624,57624,57624,57624,57624,57624,57624,57624,57624,57624,57624,57626,57624,57624,57624,57624,57624,57624,57624,57624,57624,57624,57624,57624,57624,57624,57624,57624,57624,57624,57624,57624,57624,57624,57624,57624,57624,57624,57624,57624,57624,57624,57624,57624,57624,57624,57624,57624,57624,57624,57624,57624,57624,
57624,57624,57624,57624,57626,57624,57624,57624,57624,57624,57624,57624,57624,57624,57624,57624,57624,57624,57624,57624,57624,57624,57624,57624,57624,57624,57624,57624,57624,57624,57624,57624,57624,57624,57624,57624,57624,57624,57624,57624,57624,57624,57624,57624,57624,57624,57624,57624,57624,57624,57624,57624,57624,57624,57624,57624,57624,57624,57624,57624,57624,57624,57624,57624,57624,57624,57624,57624,57624,57624,57624,57624,57624,57624,57624,57624,57624,57624,57624,57624,57624,57624,57624,57624,57624,57624,57624,57624,57624,57624,57624,57624,57624,57624,57624,57624,57624,57624,57624,57624,57624,57624,57624,57624,57624,57624,57624,57624,57624,57624,57624,57624,57624,57624,57624,57624,57624,57624,57624,57624,57624,57624,57624,57624,57624,57624,57624,57624,57624,57624,57624,57624,57624,57624,57624,57624,57624,57624,57624,57624,57624,57624,57624,57624,57624,57624,57624,57624,57624,57624,57624,57624,57624,57624,57624,57624,57624,57624,57628,57624,57624,57624,57624,57624,57624,57624,57624,57624,57624,57624,57624,57624,57624,57624,57624,57624,57624,57624,57624,57624,57624,57624,57624,57624,57624,57624,57624,57624,57624,57624,57624,57624,57624,57624,57624,57624,57624,57624,57624,57624,57624,57624,57624,57624,57624,57624,57624,57624,57624,57624,57624,57624,57624,57624,57624,57624,57624,57624,57624,57624,57624,57627,57624,57624,57624,57624,57624,57624,57624,57624,57624,57624,57624,57624,57624,57624,57624,57624,57624,57624,
57624,57624,57624,57624,57624,57624,57624,57624,57624,57624,57624,57624,57624,57624,57624,57624,57624,57624,57624,57624,57624,57624,57624,57624,57624,57624,57624,57624,57624,57624,57624,57624,57624,57624,57624,57624,57624,57624,57624,57624,57624,57624,57624,57624,57624,57624,57624,57624,57624,57624,57624,57624,57624,57624,57624,57624,57624,57624,57624,57624,57624,57624,57624,57624,57624,57624,57624,57624,57624,57624,57624,57624,57624,57624,57624,57624,57624,57624,57624,57624,57624,57624,57624,57624,57624,57624,57624,57624,57624,57624,57624,57624,57624,57624,57624,57624,57624,57624,57624,57624,57624,57624,57624,57624,57624,57624,57624,57624,57624,57624,57624,57624,57624,57624,57624,57624,57624,57624,57624,57624,57624,57624,57624,57624,57624,57624,57624,57624,57624,57624,57624,57624,57624,57624,57624,57624,57624,57624,57624,57624,57624,57624,57624,57624,57624,57624,57624,57624,57624,57624,57624,57624,57624,57624,57624,57624,57624,57624,57624,57624,57624,57624,57624,57624,57624,57624,57624,57624,57624,57628,57624,57624,57624,57624,57624,57624,57624,57624,57624,57624,57624,57624,57624,57624,57624,57624,57624,57624,57626,57624,57624,57624,57624,57624,57624,57624,57624,57624,57624,57624,57624,57624,57624,57624,57624,57624,57624,57624,57624,57624,57624,57624,57624,57624,57624,57624,57624,57624,57624,57624,57624,57624,57624,57624,57624,57624,57624,57624,57624,57624,57624,57624,57624,57624,57624,57624,57624,57624,57624,57624,
57624,57624,57624,57624,57624,57624,57624,57624,57624,57624,57624,57624,57624,57624,57624,57624,57624,57624,57624,57624,57624,57624,57624,57624,57624,57624,57624,57624,57624,57624,57624,57624,57624,57624,57624,57624,57624,57624,57624,57624,57624,57624,57624,57624,57624,57624,57624,57624,57624,57624,57624,57624,57624,57624,57624,57624,57624,57624,57624,57624,57624,57624,57624,57624,57624,57624,57624,57624,57624,57624,57624,57624,57624,57624,57624,57624,57624,57624,57624,57624,57624,57624,57624,57624,57624,57624,57624,57624,57624,57624,57624,57624,57624,57624,57624,57627,57624,57624,57624,57624,57624,57624,57624,57624,57624,57624,57624,57624,57624,57624,57624,57624,57624,57624,57624,57624,57624,57624,57624,57624,57624,57624,57624,57624,57624,57624,57624,57624,57624,57624,57624,57624,57624,57624,57624,57624,57624,57624,57624,57624,57624,57624,57624,57624,57624,57624,57624,57624,57624,57624,57624,57624,57624,57624,57624,57624,57624,57624,57624,57624,57624,57624,57624,57624,57624,57624,57624,57624,57624,57624,57624,57624,57624,57624,57624,57624,57624,57624,57624,57624,57624,57624,57624,57624,57624,57624,57624,57624,57624,57624,57624,57624,57624,57624,57624,57624,57624,57624,57624,57624,57624,57624,57624,57624,57624,57624,57624,57624,57624,57624,57624,57624,57624,57624,57624,57624,57624,57624,57624,57624,57624,57624,57624,57624,57624,57624,57624,57624,57624,57624,57624,57624,57624,57624,57624,57624,57624,57624,57624,57624,
57624,57624,57624,57624,57624,57624,57624,57624,57624,57624,57624,57624,57624,57624,57624,57624,57624,57624,57624,57624,57624,57624,57624,57624,57624,57624,57624,57624,57624,57624,57624,57624,57624,57624,57624,57624,57624,57624,57624,57624,57624,57624,57624,57624,57624,57624,57624,57624,57624,57624,57624,57624,57624,57624,57624,57624,57624,57624,57624,57624,57624,57624,57624,57624,57624,57624,57624,57624,57624,57624,57624,57624,57624,57624,57624,57624,57624,57624,57624,57624,57624,57624,57624,57624,57624,57624,57624,57624,57624,57624,57624,57624,57624,57624,57624,57624,57624,57624,57624,57624,57624,57624,57624,57624,57624,57624,57624,57624,57624,57624,57624,57624,57624,57624,57624,57624,57624,57624,57624,57624,57624,57624,57624,57624,57624,57624,57624,57624,57624,57624,57624,57624,57624,57624,57624,57624,57624,57624,57624,57624,57624,57624,57624,57624,57624,57624,57624,57624,57624,57624,57624,57624,57624,57624,57624,57624,57624,57624,57624,57624,57624,57624,57624,57624,57624,57624,57624,57624,57624,57624,57624,57624,57624,57624,57624,57624,57624,57624,57624,57624,57624,57624,57624,57624,57624,57624,57624,57624,57624,57624,57624,57624,57624,57624,57624,57624,57624,57624,57624,57624,57624,57624,57624,57624,57624,57624,57624,57624,57624,57624,57624,57624,57624,57624,57624,57624,57624,57624,57624,57624,57624,57624,57624,57624,57624,57624,57624,57624,57624,57624,57624,57624,57624,57624,57624,57624,57624,57624,57624,57624,
57624,57624,57624,57624,57624,57624,57624,57624,57624,57624,57624,57624,57624,57624,57624,57624,57624,57624,57624,57624,57624,57629,57624,57624,57624,57624,57624,57624,57624,57624,57624,57624,57624,57624,57624,57624,57624,57624,57624,57624,57624,57624,57624,57624,57624,57624,57624,57624,57624,57624,57624,57624,57624,57624,57624,57624,57624,57624,57624,57624,57624,57624,57624,57624,57624,57624,57624,57624,57624,57624,57624,57624,57624,57624,57624,57624,57624,57624,57624,57624,57624,57624,57624,57624,57624,57624,57624,57624,57624,57624,57624,57624,57624,57624,57624,57624,57624,57624,57624,57624,57624,57624,57624,57624,57624,57624,57628,57624,57624,57624,57624,57624,57624,57624,57624,57624,57624,57624,57624,57624,57624,57624,57624,57624,57624,57624,57624,57624,57624,57624,57624,57624,57624,57624,57624,57624,57624,57624,57624,57624,57624,57624,57624,57624,57624,57624,57624,57624,57624,57624,57624,57624,57624,57624,57624,57624,57624,57624,57624,57624,57624,57624,57624,57624,57624,57624,57624,57624,57624,57624,57624,57624,57624,57624,57624,57624,57624,57624,57624,57624,57624,57624,57624,57624,57624,57624,57624,57624,57624,57624,57624,57624,57624,57624,57624,57624,57624,57624,57624,57624,57624,57624,57624,57624,57624,57624,57624,57624,57624,57624,57624,57624,57624,57624,57624,57624,57624,57624,57624,57624,57624,57624,57624,57624,57624,57624,57624,57624,57624,57624,57624,57624,57624,57624,57624,57624,57624,57624,57624,57624,
57624,57624,57624,57624,57624,57624,57624,57624,57624,57624,57624,57624,57624,57624,57624,57624,57624,57624,57624,57624,57624,57624,57624,57624,57624,57624,57624,57624,57624,57624,57624,57624,57624,57624,57624,57624,57624,57624,57624,57624,57624,57624,57624,57624,57624,57624,57624,57624,57624,57624,57624,57624,57624,57624,57624,57624,57624,57624,57624,57624,57624,57624,57624,57624,57624,57628,57624,57624,57624,57624,57624,57624,57624,57624,57624,57624,57624,57624,57624,57624,57624,57624,57624,57624,57624,57624,57624,57624,57624,57624,57624,57624,57624,57624,57624,57624,57624,57624,57624,57624,57624,57624,57624,57624,57624,57624,57624,57624,57624,57624,57624,57624,57624,57624,57624,57624,57624,57624,57624,57624,57624,57624,57624,57624,57624,57624,57624,57624,57624,57624,57624,57624,57624,57624,57624,57624,57624,57624,57624,57624,57624,57624,57624,57624,57624,57624,57624,57624,57624,57624,57624,57624,57624,57624,57624,57624,57624,57624,57624,57624,57624,57624,57624,57624,57624,57624,57624,57624,57624,57624,57624,57624,57624,57624,57624,57624,57624,57624,57624,57624,57624,57624,57624,57624,57624,57624,57624,57624,57624,57624,57624,57624,57624,57624,57624,57624,57624,57624,57624,57625,57624,57624,57624,57624,57624,57624,57624,57624,57624,57624,57624,57624,57624,57624,57624,57624,57624,57624,57624,57624,57624,57624,57624,57624,57624,57624,57624,57624,57624,57624,57624,57624,57624,57624,57624,57624,57624,57624,57624,57624,
57624,57624,57624,57624,57624,57624,57624,57624,57624,57624,57624,57624,57624,57624,57624,57624,57624,57624,57624,57624,57624,57624,57624,57624,57624,57624,57624,57624,57624,57624,57624,57624,57624,57624,57624,57624,57624,57624,57624,57624,57624,57624,57624,57624,57624,57624,57624,57624,57624,57624,57624,57624,57624,57624,57624,57624,57624,57624,57627,57624,57624,57624,57624,57624,57624,57624,57624,57624,57624,57624,57624,57624,57624,57624,57624,57624,57624,57624,57624,57624,57624,57624,57624,57624,57624,57624,57624,57624,57624,57624,57624,57624,57624,57624,57624,57624,57624,57624,57624,57624,57624,57624,57624,57624,57624,57624,57624,57624,57624,57624,57624,57624,57624,57624,57624,57624,57624,57624,57624,57624,57624,57624,57626,57624,57624,57624,57624,57624,57624,57624,57624,57624,57624,57624,57624,57624,57624,57624,57624,57624,57624,57624,57624,57624,57624,57624,57624,57624,57624,57624,57624,57624,57624,57624,57624,57624,57624,57624,57624,57624,57624,57624,57624,57624,57624,57624,57624,57624,57624,57624,57624,57624,57624,57624,57624,57624,57624,57624,57624,57624,57624,57624,57624,57624,57627,57624,57624,57624,57624,57624,57624,57624,57624,57624,57624,57624,57624,57624,57624,57624,57624,57624,57624,57624,57624,57624,57626,57624,57624,57624,57624,57624,57624,57624,57624,57624,57624,57624,57624,57624,57624,57624,57624,57624,57624,57624,57624,57624,57624,57624,57624,57624,57624,57624,57624,57624,57624,57624,57624,57624,
57624,57624,57624,57624,57624,57624,57624,57624,57624,57624,57624,57624,57624,57624,57624,57624,57624,57624,57624,57624,57624,57624,57624,57624,57624,57624,57624,57624,57624,57624,57624,57624,57624,57624,57624,57624,57624,57624,57624,57624,57624,57624,57624,57624,57624,57624,57624,57629,57624,57624,57624,57624,57624,57624,57624,57624,57624,57624,57624,57624,57624,57624,57624,57624,57624,57624,57624,57624,57624,57624,57624,57624,57624,57624,57624,57624,57624,57624,57624,57624,57624,57624,57624,57624,57624,57624,57624,57624,57624,57624,57624,57626,57624,57624,57624,57624,57624,57624,57624,57624,57624,57624,57624,57624,57624,57624,57624,57624,57624,57624,57624,57624,57624,57624,57624,57624,57624,57624,57624,57624,57624,57624,57624,57624,57624,57624,57624,57624,57624,57624,57624,57624,57624,57624,57624,57624,57624,57624,57624,57624,57624,57624,57624,57624,57624,57624,57624,57624,57624,57624,57624,57624,57624,57624,57624,57624,57624,57624,57624,57624,57624,57624,57624,57624,57624,57624,57624,57624,57624,57624,57624,57624,57624,57627,57624,57624,57624,57624,57624,57624,57624,57624,57624,57624,57624,57624,57624,57624,57624,57624,57624,57624,57624,57624,57624,57624,57624,57624,57624,57624,57624,57624,57624,57624,57624,57624,57624,57624,57624,57624,57624,57624,57624,57624,57624,57624,57624,57624,57624,57624,57624,57624,57624,57624,57624,57624,57628,57624,57624,57624,57624,57624,57624,57624,57624,57624,57624,57624,57624,57624,
57624,57624,57624,57624,57624,57624,57624,57624,57624,57624,57624,57624,57624,57624,57624,57624,57624,57624,57624,57624,57624,57624,57624,57624,57624,57624,57624,57624,57624,57624,57624,57624,57624,57624,57624,57624,57624,57624,57624,57624,57624,57624,57624,57624,57624,57624,57624,57624,57624,57624,57624,57624,57624,57624,57624,57624,57624,57624,57624,57624,57624,57624,57624,57624,57624,57628,57624,57624,57624,57624,57624,57624,57624,57624,57624,57624,57624,57624,57624,57624,57624,57624,57624,57624,57624,57624,57624,57624,57624,57624,57624,57624,57624,57624,57624,57624,57624,57624,57624,57624,57624,57624,57624,57624,57624,57624,57624,57624,57624,57624,57624,57624,57624,57624,57624,57624,57624,57624,57624,57624,57624,57624,57624,57624,57624,57624,57624,57624,57624,57624,57624,57624,57624,57624,57624,57624,57624,57624,57624,57624,57624,57624,57624,57624,57624,57624,57624,57624,57624,57624,57624,57624,57624,57624,57624,57624,57624,57624,57624,57624,57624,57624,57624,57624,57624,57624,57624,57624,57624,57624,57624,57624,57624,57624,57624,57624,57624,57624,57624,57624,57624,57624,57624,57624,57624,57624,57624,57624,57624,57624,57624,57624,57624,57624,57624,57624,57627,57624,57624,57624,57624,57624,57624,57624,57624,57624,57624,57624,57625,57624,57624,57624,57624,57624,57624,57624,57624,57624,57624,57624,57624,57624,57624,57624,57624,57624,57624,57624,57624,57624,57624,57624,57624,57624,57624,57624,57624,57624,57624,57624,
57624,57624,57624,57624,57624,57624,57624,57624,57624,57624,57624,57624,57624,57624,57624,57624,57624,57624,57624,57624,57624,57624,57624,57624,57624,57624,57624,57624,57624,57624,57624,57624,57624,57624,57624,57624,57624,57624,57624,57624,57624,57624,57624,57624,57624,57624,57624,57624,57624,57624,57624,57624,57624,57624,57624,57624,57624,57624,57624,57624,57624,57624,57624,57624,57624,57624,57624,57624,57624,57624,57624,57624,57624,57624,57624,57624,57624,57624,57624,57624,57624,57624,57624,57624,57624,57624,57624,57624,57624,57624,57624,57624,57624,57624,57624,57624,57624,57624,57624,57624,57624,57624,57624,57624,57624,57624,57624,57624,57624,57624,57624,57624,57624,57624,57624,57624,57624,57624,57624,57624,57624,57624,57624,57624,57626,57624,57624,57624,57624,57624,57624,57624,57624,57624,57624,57624,57624,57624,57624,57624,57624,57624,57624,57624,57624,57624,57624,57624,57624,57624,57624,57624,57624,57624,57624,57624,57624,57624,57624,57624,57624,57624,57624,57624,57624,57624,57624,57624,57624,57624,57624,57624,57624,57624,57624,57624,57624,57624,57624,57624,57624,57624,57624,57624,57624,57624,57624,57624,57624,57624,57624,57624,57624,57624,57624,57624,57624,57624,57624,57624,57624,57624,57624,57624,57624,57624,57624,57624,57624,57624,57624,57624,57624,57624,57624,57624,57624,57624,57624,57624,57624,57624,57624,57624,57624,57624,57624,57624,57624,57624,57624,57624,57624,57624,57624,57624,57624,57624,57624,57624,
57624,57624,57624,57624,57624,57624,57624,57624,57624,57624,57624,57624,57624,57624,57624,57624,57624,57624,57624,57624,57624,57624,57624,57624,57624,57624,57624,57624,57624,57624,57624,57624,57624,57624,57624,57624,57624,57624,57624,57624,57624,57624,57624,57624,57624,57624,57624,57624,57624,57624,57624,57624,57624,57624,57624,57624,57624,57624,57624,57624,57624,57624,57624,57624,57624,57624,57624,57624,57624,57624,57624,57624,57624,57624,57624,57624,57624,57624,57624,57624,57624,57624,57624,57624,57624,57624,57624,57624,57624,57624,57624,57624,57624,57624,57624,57624,57624,57624,57624,57624,57624,57624,57624,57624,57624,57624,57624,57624,57624,57624,57624,57624,57624,57624,57624,57624,57624,57624,57624,57624,57624,57624,57624,57624,57624,57624,57624,57624,57624,57624,57624,57624,57624,57624,57624,57624,57624,57624,57624,57628,57624,57624,57624,57624,57624,57624,57624,57624,57625,57624,57624,57624,57624,57624,57624,57624,57624,57624,57624,57624,57624,57624,57624,57624,57624,57624,57624,57624,57624,57624,57624,57624,57624,57625,57624,57624,57624,57624,57624,57624,57624,57624,57624,57624,57624,57624,57624,57624,57624,57624,57624,57624,57624,57624,57624,57624,57624,57624,57624,57624,57624,57624,57624,57624,57624,57624,57624,57624,57624,57624,57624,57624,57624,57624,57624,57624,57624,57624,57624,57624,57624,57624,57624,57624,57624,57624,57624,57624,57624,57624,57624,57624,57624,57624,57624,57624,57624,57624,57624,57624,
57624,57624,57624,57624,57624,57624,57624,57624,57624,57624,57624,57624,57624,57624,57624,57624,57624,57624,57624,57624,57624,57624,57624,57624,57624,57624,57624,57624,57624,57624,57624,57624,57624,57624,57624,57624,57624,57624,57624,57624,57628,57624,57624,57624,57624,57624,57624,57624,57624,57624,57624,57624,57624,57624,57624,57624,57624,57624,57624,57624,57624,57624,57624,57624,57624,57624,57624,57624,57624,57624,57624,57624,57624,57624,57624,57624,57624,57624,57624,57624,57624,57624,57624,57624,57624,57624,57624,57624,57624,57624,57624,57624,57624,57624,57624,57624,57624,57624,57624,57624,57624,57624,57624,57624,57624,57624,57624,57624,57624,57624,57624,57624,57624,57624,57624,57624,57624,57624,57624,57624,57624,57624,57624,57624,57624,57624,57624,57624,57624,57624,57624,57624,57624,57624,57624,57624,57624,57624,57624,57624,57624,57624,57624,57624,57624,57624,57624,57624,57624,57624,57624,57624,57624,57624,57624,57624,57624,57624,57624,57624,57624,57624,57624,57624,57624,57624,57624,57624,57624,57624,57624,57624,57624,57624,57624,57624,57624,57624,57624,57624,57624,57624,57624,57624,57624,57624,57624,57624,57624,57624,57624,57624,57624,57624,57624,57624,57624,57624,57624,57624,57624,57624,57624,57624,57624,57624,57624,57624,57624,57624,57624,57624,57624,57624,57624,57624,57624,57624,57624,57624,57624,57624,57624,57624,57624,57624,57624,57624,57624,57624,57624,57624,57624,57624,57624,57624,57624,57624,57624,57624,
57624,57624,57624,57624,57624,57624,57624,57624,57624,57624,57624,57624,57624,57624,57624,57624,57624,57624,57624,57624,57624,57624,57624,57624,57624,57624,57624,57624,57624,57624,57624,57624,57624,57624,57624,57624,57624,57624,57624,57624,57624,57624,57624,57624,57624,57624,57624,57624,57624,57624,57624,57624,57624,57624,57624,57624,57624,57624,57624,57624,57624,57624,57624,57624,57624,57624,57624,57624,57624,57624,57624,57624,57624,57624,57624,57624,57624,57624,57624,57624,57624,57624,57624,57624,57624,57624,57624,57624,57624,57624,57624,57624,57624,57624,57624,57624,57624,57624,57624,57624,57624,57624,57624,57624,57624,57624,57624,57624,57624,57624,57624,57624,57624,57624,57624,57624,57624,57624,57624,57624,57624,57624,57624,57624,57624,57624,57624,57624,57624,57624,57624,57624,57624,57624,57624,57625,57624,57624,57624,57624,57624,57624,57624,57624,57624,57624,57624,57624,57624,57624,57624,57624,57624,57624,57624,57624,57624,57624,57624,57624,57624,57624,57624,57624,57624,57624,57624,57624,57624,57624,57624,57624,57624,57624,57624,57624,57624,57624,57624,57624,57624,57624,57624,57624,57624,57624,57624,57624,57624,57624,57624,57624,57624,57624,57624,57624,57624,57624,57624,57624,57624,57624,57624,57624,57624,57624,57624,57624,57624,57624,57624,57624,57624,57624,57624,57624,57624,57624,57624,57624,57624,57624,57624,57624,57624,57624,57624,57624,57624,57624,57624,57624,57624,57624,57624,57624,57624,57624,57624,57624,
57624,57624,57624,57624,57624,57624,57624,57624,57624,57624,57624,57624,57624,57624,57624,57624,57624,57624,57624,57624,57624,57624,57624,57624,57624,57624,57627,57624,57624,57624,57624,57624,57624,57624,57624,57624,57624,57624,57624,57624,57624,57624,57624,57624,57624,57624,57624,57624,57624,57624,57624,57624,57624,57624,57624,57624,57624,57624,57624,57624,57624,57624,57624,57624,57624,57624,57624,57624,57624,57624,57624,57624,57624,57624,57624,57624,57624,57624,57624,57624,57624,57624,57624,57624,57624,57624,57624,57624,57624,57624,57624,57624,57624,57624,57624,57624,57624,57624,57624,57624,57624,57624,57624,57624,57624,57624,57624,57624,57624,57624,57624,57624,57624,57624,57624,57624,57624,57624,57624,57624,57624,57624,57624,57624,57624,57624,57624,57624,57624,57624,57624,57624,57624,57624,57624,57624,57624,57624,57624,57624,57624,57624,57624,57624,57624,57624,57624,57624,57624,57624,57624,57624,57624,57624,57624,57624,57624,57624,57624,57624,57624,57624,57624,57624,57624,57624,57624,57624,57624,57624,57624,57624,57624,57624,57624,57624,57624,57624,57624,57624,57624,57624,57624,57624,57624,57624,57624,57624,57624,57624,57624,57624,57624,57624,57624,57624,57624,57624,57624,57624,57624,57624,57624,57624,57624,57624,57624,57624,57624,57624,57624,57624,57624,57624,57624,57624,57624,57624,57624,57624,57624,57624,57624,57624,57624,57624,57624,57624,57624,57624,57624,57624,57624,57624,57624,57624,57624,57624,57624,57624,
57624,57624,57624,57624,57624,57624,57624,57624,57624,57624,57624,57624,57624,57624,57624,57624,57624,57624,57624,57624,57624,57624,57624,57624,57624,57624,57624,57624,57624,57624,57624,57624,57624,57624,57624,57624,57624,57624,57624,57624,57624,57624,57624,57624,57624,57624,57624,57624,57624,57624,57624,57624,57624,57624,57624,57624,57624,57625,57624,57624,57624,57624,57624,57624,57624,57624,57624,57624,57624,57624,57624,57624,57624,57624,57624,57624,57624,57624,57624,57624,57624,57624,57624,57624,57624,57624,57624,57624,57624,57624,57624,57624,57624,57624,57624,57624,57624,57624,57624,57624,57624,57624,57624,57624,57624,57624,57624,57624,57624,57624,57624,57624,57624,57624,57624,57624,57624,57624,57624,57624,57624,57624,57624,57624,57624,57624,57624,57624,57624,57624,57624,57624,57624,57624,57624,57624,57624,57624,57624,57624,57624,57624,57624,57624,57624,57624,57624,57624,57624,57624,57624,57624,57624,57624,57624,57624,57624,57624,57624,57624,57624,57624,57624,57624,57624,57624,57624,57624,57624,57624,57624,57624,57624,57624,57624,57624,57624,57624,57624,57624,57624,57624,57624,57624,57624,57624,57624,57624,57624,57624,57624,57624,57624,57624,57624,57624,57624,57624,57624,57624,57624,57624,57624,57624,57624,57624,57624,57624,57624,57624,57624,57624,57624,57624,57624,57624,57624,57624,57624,57624,57624,57624,57624,57624,57624,57624,57624,57624,57624,57624,57624,57624,57624,57624,57624,57624,57624,57624,57624,57624,
57624,57624,57624,57624,57624,57624,57624,57624,57624,57624,57624,57624,57624,57624,57624,57624,57624,57624,57624,57624,57624,57624,57624,57624,57624,57624,57624,57624,57624,57624,57624,57624,57624,57624,57624,57624,57624,57624,57624,57624,57624,57624,57624,57624,57624,57624,57624,57624,57624,57624,57624,57624,57624,57624,57624,57624,57624,57624,57624,57624,57624,57624,57624,57624,57624,57624,57624,57624,57624,57624,57624,57624,57624,57624,57624,57624,57624,57624,57624,57624,57624,57624,57624,57624,57624,57624,57624,57624,57624,57624,57624,57624,57624,57624,57624,57624,57624,57624,57624,57624,57624,57624,57624,57624,57624,57624,57624,57624,57624,57624,57624,57624,57624,57624,57624,57624,57624,57624,57624,57624,57624,57624,57624,57624,57624,57624,57624,57624,57624,57624,57624,57624,57624,57624,57624,57624,57624,57624,57624,57624,57624,57624,57624,57624,57624,57624,57624,57624,57624,57624,57624,57624,57624,57624,57624,57624,57624,57624,57624,57624,57624,57624,57624,57624,57624,57624,57624,57624,57624,57624,57624,57624,57624,57624,57624,57624,57624,57624,57624,57624,57624,57624,57624,57624,57624,57624,57624,57624,57624,57624,57624,57624,57624,57624,57624,57624,57624,57624,57624,57624,57624,57624,57624,57624,57624,57629,57624,57624,57624,57624,57624,57624,57624,57624,57624,57624,57624,57624,57624,57624,57624,57624,57624,57624,57624,57624,57624,57624,57624,57624,57624,57624,57624,57625,57624,57624,57624,57624,57624,57624,
57624,57624,57624,57624,57624,57624,57624,57624,57624,57624,57624,57624,57624,57624,57624,57624,57624,57624,57624,57624,57629,57624,57624,57624,57624,57624,57624,57624,57624,57624,57624,57624,57624,57624,57624,57624,57624,57624,57624,57624,57624,57624,57624,57624,57624,57624,57624,57624,57624,57624,57624,57624,57624,57624,57624,57624,57624,57624,57624,57624,57624,57624,57624,57624,57624,57624,57624,57624,57624,57624,57624,57624,57624,57624,57624,57624,57624,57624,57624,57624,57624,57624,57624,57624,57624,57624,57624,57624,57624,57624,57624,57624,57624,57624,57624,57624,57624,57624,57624,57624,57624,57624,57624,57624,57624,57624,57624,57624,57624,57624,57624,57624,57624,57624,57624,57624,57624,57624,57624,57624,57624,57624,57624,57624,57624,57624,57624,57624,57624,57624,57624,57624,57624,57624,57624,57624,57624,57624,57624,57624,57624,57624,57624,57624,57624,57624,57624,57624,57624,57624,57624,57624,57624,57624,57624,57624,57624,57624,57624,57624,57624,57624,57624,57624,57624,57624,57624,57624,57624,57624,57624,57624,57624,57624,57624,57624,57624,57624,57624,57627,57624,57624,57624,57624,57624,57624,57624,57624,57624,57624,57624,57624,57624,57624,57624,57624,57624,57624,57624,57624,57624,57624,57624,57624,57624,57624,57627,57624,57624,57624,57624,57624,57624,57624,57624,57624,57624,57624,57624,57624,57624,57624,57624,57624,57624,57624,57624,57624,57624,57624,57624,57624,57624,57624,57624,57624,57624,57624,57624,57624,
57624,57624,57624,57629,57624,57624,57624,57624,57624,57624,57624,57624,57624,57624,57624,57624,57624,57624,57624,57624,57624,57624,57624,57624,57624,57626,57624,57624,57624,57624,57624,57624,57624,57624,57624,57624,57624,57624,57624,57624,57624,57624,57624,57624,57624,57624,57624,57624,57624,57624,57624,57624,57624,57624,57624,57624,57624,57624,57624,57624,57624,57624,57624,57624,57624,57624,57624,57624,57624,57624,57624,57624,57624,57624,57624,57624,57624,57624,57624,57624,57624,57624,57624,57624,57624,57624,57624,57624,57624,57624,57624,57624,57624,57624,57624,57624,57624,57624,57624,57624,57624,57624,57624,57624,57624,57624,57624,57624,57624,57624,57624,57624,57624,57624,57624,57624,57624,57624,57624,57624,57624,57624,57624,57624,57624,57624,57624,57624,57625,57624,57624,57624,57624,57624,57624,57624,57624,57624,57624,57624,57624,57624,57624,57624,57624,57624,57624,57624,57624,57624,57624,57624,57624,57624,57624,57624,57624,57624,57624,57624,57624,57624,57624,57624,57624,57624,57624,57624,57624,57624,57624,57624,57624,57624,57624,57624,57624,57624,57624,57624,57624,57624,57624,57624,57624,57624,57624,57624,57624,57624,57624,57624,57624,57629,57624,57624,57624,57624,57624,57624,57624,57624,57624,57624,57624,57624,57624,57624,57624,57624,57624,57624,57624,57624,57624,57624,57624,57624,57624,57624,57624,57624,57624,57624,57624,57624,57624,57624,57624,57624,57624,57624,57624,57624,57624,57624,57624,57624,57624,57624,
57624,57624,57624,57624,57624,57624,57624,57624,57624,57624,57624,57624,57629,57624,57624,57624,57624,57624,57624,57624,57624,57624,57624,57624,57624,57624,57624,57624,57624,57624,57624,57624,57624,57624,57624,57624,57624,57624,57624,57624,57624,57624,57624,57624,57624,57624,57624,57624,57624,57624,57624,57624,57624,57624,57624,57624,57624,57624,57624,57624,57624,57624,57624,57624,57624,57624,57624,57624,57624,57624,57624,57624,57624,57624,57624,57624,57624,57624,57624,57624,57624,57624,57624,57624,57624,57624,57624,57624,57624,57624,57624,57624,57624,57624,57624,57624,57624,57624,57624,57624,57624,57624,57624,57624,57624,57624,57624,57624,57624,57624,57624,57624,57624,57624,57624,57624,57624,57624,57624,57624,57624,57624,57624,57624,57624,57624,57624,57624,57624,57624,57624,57624,57624,57624,57624,57624,57624,57624,57624,57624,57624,57624,57624,57624,57624,57624,57624,57624,57624,57624,57624,57624,57624,57624,57624,57624,57624,57624,57624,57624,57624,57624,57624,57624,57624,57624,57624,57624,57624,57624,57624,57624,57624,57624,57624,57624,57624,57624,57624,57624,57624,57624,57624,57624,57624,57624,57624,57624,57624,57624,57624,57624,57624,57624,57624,57624,57624,57624,57624,57624,57624,57624,57624,57624,57624,57624,57624,57624,57624,57624,57624,57624,57624,57624,57624,57624,57624,57624,57624,57624,57624,57624,57624,57624,57624,57624,57624,57624,57624,57624,57624,57624,57624,57624,57624,57624,57624,57624,57624,57624,
57624,57624,57624,57624,57624,57624,57624,57624,57624,57624,57624,57624,57624,57624,57624,57624,57624,57624,57624,57624,57624,57624,57624,57624,57624,57624,57624,57624,57624,57624,57624,57624,57624,57624,57624,57624,57624,57624,57624,57624,57624,57624,57624,57624,57624,57624,57624,57624,57624,57624,57624,57624,57624,57624,57624,57629,57624,57624,57624,57624,57624,57624,57624,57624,57624,57624,57624,57624,57624,57624,57624,57624,57624,57624,57624,57624,57624,57624,57624,57624,57624,57624,57624,57624,57624,57624,57624,57624,57624,57624,57624,57624,57624,57624,57624,57624,57624,57624,57624,57624,57624,57624,57624,57624,57624,57624,57624,57624,57624,57624,57624,57624,57624,57624,57624,57624,57624,57624,57624,57624,57624,57624,57624,57624,57624,57624,57624,57624,57624,57624,57624,57624,57624,57624,57624,57624,57624,57624,57624,57624,57624,57624,57624,57624,57624,57624,57624,57624,57624,57624,57624,57624,57624,57624,57624,57624,57624,57624,57624,57624,57624,57624,57624,57624,57624,57624,57624,57624,57624,57624,57624,57624,57624,57624,57624,57624,57624,57624,57624,57624,57624,57624,57624,57624,57624,57624,57624,57624,57624,57624,57624,57624,57624,57624,57624,57624,57624,57624,57624,57624,57624,57624,57624,57624,57624,57624,57624,57624,57624,57624,57624,57624,57624,57624,57624,57624,57624,57624,57624,57624,57624,57624,57624,57624,57624,57624,57624,57624,57624,57624,57624,57624,57624,57624,57624,57624,57624,57624,57624,57624,
57624,57624,57624,57624,57624,57624,57624,57624,57624,57624,57624,57626,57624,57624,57624,57624,57624,57624,57624,57624,57624,57624,57624,57624,57624,57624,57624,57624,57624,57624,57624,57624,57624,57624,57624,57624,57624,57624,57624,57624,57624,57624,57624,57624,57624,57624,57624,57624,57624,57624,57624,57624,57624,57624,57624,57624,57624,57624,57624,57624,57624,57624,57624,57624,57624,57624,57624,57624,57624,57624,57624,57624,57624,57624,57624,57624,57624,57624,57624,57624,57624,57624,57624,57624,57624,57624,57624,57624,57624,57624,57624,57624,57624,57624,57624,57624,57624,57624,57624,57624,57624,57624,57624,57624,57624,57624,57624,57624,57624,57624,57624,57624,57624,57624,57624,57624,57624,57624,57624,57624,57624,57624,57624,57624,57624,57624,57624,57624,57624,57624,57624,57624,57624,57624,57624,57624,57624,57624,57624,57624,57624,57624,57624,57624,57624,57624,57624,57624,57624,57624,57624,57624,57624,57624,57624,57624,57624,57624,57624,57624,57624,57624,57624,57624,57624,57624,57624,57624,57624,57624,57624,57624,57624,57624,57624,57624,57624,57624,57624,57624,57624,57624,57624,57624,57624,57624,57624,57624,57624,57624,57624,57624,57624,57624,57624,57624,57624,57624,57624,57624,57624,57624,57624,57624,57624,57624,57624,57624,57624,57624,57624,57624,57624,57624,57624,57624,57624,57624,57624,57624,57624,57624,57624,57624,57624,57624,57624,57624,57624,57624,57624,57624,57624,57624,57624,57624,57624,57624,57624,57624,
57624,57624,57624,57624,57624,57624,57624,57624,57624,57624,57624,57624,57624,57624,57624,57624,57628,57624,57624,57624,57624,57624,57624,57624,57624,57624,57624,57624,57624,57624,57624,57624,57624,57624,57624,57624,57624,57624,57624,57624,57624,57624,57624,57624,57624,57624,57624,57624,57624,57624,57624,57624,57624,57624,57624,57624,57624,57624,57624,57624,57624,57624,57624,57624,57624,57624,57624,57624,57624,57624,57624,57624,57624,57624,57624,57624,57624,57624,57624,57624,57624,57624,57624,57624,57624,57624,57624,57624,57624,57624,57624,57624,57624,57624,57624,57624,57624,57624,57624,57624,57624,57624,57624,57624,57624,57624,57624,57624,57624,57624,57624,57624,57624,57624,57624,57624,57624,57624,57624,57624,57624,57624,57624,57624,57624,57624,57624,57624,57624,57624,57624,57624,57624,57624,57624,57624,57624,57624,57624,57624,57624,57624,57624,57624,57624,57624,57624,57624,57624,57624,57624,57624,57624,57624,57624,57624,57624,57624,57624,57624,57624,57624,57624,57624,57624,57624,57624,57624,57624,57624,57624,57624,57624,57624,57624,57624,57624,57624,57624,57624,57624,57624,57624,57624,57624,57624,57624,57624,57624,57624,57624,57624,57624,57624,57624,57624,57624,57624,57624,57624,57624,57624,57624,57624,57624,57624,57624,57624,57624,57624,57624,57624,57624,57624,57624,57624,57624,57624,57624,57624,57624,57624,57624,57624,57624,57624,57624,57624,57624,57624,57624,57624,57624,57624,57624,57624,57624,57624,57624,57624,
57624,57624,57624,57624,57624,57624,57624,57624,57624,57624,57624,57624,57624,57624,57629,57624,57624,57624,57624,57624,57624,57624,57624,57624,57624,57624,57624,57624,57624,57624,57624,57624,57624,57624,57624,57624,57624,57624,57624,57624,57624,57624,57624,57624,57624,57624,57624,57624,57624,57624,57624,57624,57624,57624,57624,57624,57624,57624,57624,57624,57624,57624,57624,57624,57624,57624,57624,57624,57624,57624,57624,57624,57624,57624,57624,57624,57624,57624,57624,57624,57624,57624,57624,57624,57624,57624,57624,57624,57624,57624,57624,57624,57624,57624,57624,57624,57624,57624,57624,57624,57624,57624,57624,57624,57624,57624,57624,57624,57624,57624,57624,57624,57624,57624,57624,57624,57624,57624,57624,57624,57624,57624,57624,57624,57624,57624,57624,57624,57624,57624,57624,57624,57624,57624,57624,57624,57624,57624,57624,57624,57624,57624,57624,57624,57624,57624,57624,57624,57624,57624,57624,57624,57624,57624,57624,57624,57624,57624,57624,57624,57624,57624,57624,57624,57624,57624,57624,57624,57624,57624,57624,57624,57624,57624,57624,57624,57624,57624,57624,57624,57624,57624,57624,57624,57624,57624,57624,57624,57624,57624,57624,57624,57624,57624,57624,57624,57624,57624,57624,57624,57624,57629,57624,57624,57624,57624,57624,57624,57624,57624,57624,57624,57624,57624,57624,57624,57624,57624,57624,57624,57624,57624,57624,57629,57624,57624,57624,57624,57624,57624,57624,57624,57624,57624,57624,57624,57624,57624,57624,57624,
57624,57624,57624,57624,57624,57624,57624,57624,57624,57624,57624,57624,57624,57624,57624,57624,57624,57624,57624,57624,57624,57624,57624,57624,57624,57624,57624,57624,57624,57624,57624,57624,57624,57624,57624,57624,57624,57624,57624,57624,57624,57624,57624,57624,57624,57624,57624,57624,57624,57626,57624,57624,57624,57624,57624,57624,57624,57624,57624,57624,57624,57624,57624,57624,57624,57624,57624,57624,57624,57624,57624,57624,57624,57624,57624,57624,57624,57624,57624,57624,57624,57624,57624,57624,57624,57624,57624,57624,57624,57624,57624,57624,57624,57624,57624,57624,57624,57624,57624,57624,57624,57624,57624,57624,57624,57624,57624,57624,57624,57624,57624,57624,57624,57624,57624,57624,57624,57624,57624,57624,57624,57624,57624,57624,57624,57624,57624,57624,57627,57624,57624,57624,57624,57624,57624,57624,57624,57624,57624,57624,57624,57624,57624,57624,57624,57624,57624,57624,57624,57624,57624,57624,57624,57624,57624,57624,57624,57624,57624,57624,57624,57626,57624,57624,57624,57624,57624,57624,57624,57624,57624,57624,57624,57624,57624,57624,57624,57624,57629,57624,57624,57625,57624,57624,57624,57624,57624,57624,57624,57624,57624,57624,57624,57624,57624,57624,57624,57624,57624,57624,57624,57624,57624,57624,57624,57624,57624,57624,57624,57624,57624,57624,57624,57624,57624,57624,57624,57624,57624,57624,57624,57624,57624,57624,57624,57624,57624,57624,57624,57624,57624,57624,57624,57624,57624,57624,57624,57624,57624,57624,
57624,57624,57624,57624,57624,57624,57624,57624,57624,57624,57624,57624,57624,57624,57624,57624,57624,57624,57624,57624,57624,57624,57624,57624,57624,57624,57624,57624,57624,57624,57624,57624,57624,57624,57624,57624,57624,57626,57624,57624,57624,57626,57624,57624,57624,57624,57624,57624,57624,57624,57624,57624,57624,57624,57624,57624,57624,57624,57624,57624,57624,57624,57624,57624,57624,57624,57624,57624,57624,57624,57624,57624,57624,57624,57624,57624,57624,57624,57624,57624,57624,57624,57624,57624,57624,57624,57624,57625,57624,57624,57624,57624,57625,57624,57624,57624,57624,57624,57624,57624,57624,57624,57624,57624,57624,57624,57624,57624,57624,57624,57624,57624,57624,57624,57624,57624,57624,57624,57624,57624,57624,57624,57624,57624,57624,57624,57624,57624,57624,57624,57624,57624,57624,57624,57624,57624,57624,57624,57624,57624,57624,57624,57624,57624,57624,57624,57624,57624,57624,57624,57624,57624,57624,57624,57624,57624,57624,57624,57624,57624,57624,57624,57624,57624,57624,57624,57624,57624,57624,57624,57624,57624,57624,57624,57624,57624,57624,57624,57624,57624,57624,57624,57624,57624,57624,57624,57624,57624,57624,57624,57624,57624,57624,57624,57624,57624,57624,57624,57624,57624,57624,57624,57624,57624,57624,57624,57624,57624,57624,57624,57624,57624,57624,57624,57624,57624,57624,57624,57624,57624,57624,57624,57624,57624,57624,57624,57624,57624,57624,57624,57624,57624,57624,57624,57624,57624,57624,57624,57624,57624,
57624,57624,57624,57624,57624,57624,57624,57624,57624,57624,57624,57624,57624,57624,57628,57624,57624,57624,57624,57624,57624,57624,57624,57624,57624,57624,57624,57624,57624,57624,57624,57624,57624,57624,57624,57624,57624,57624,57624,57624,57624,57624,57624,57624,57624,57624,57624,57624,57624,57624,57624,57624,57624,57624,57624,57624,57624,57624,57624,57624,57624,57624,57624,57624,57624,57624,57624,57624,57624,57624,57624,57624,57624,57624,57624,57624,57624,57624,57624,57624,57624,57624,57624,57624,57624,57624,57624,57624,57624,57624,57624,57624,57624,57624,57624,57624,57624,57624,57624,57624,57624,57624,57624,57624,57624,57624,57624,57624,57624,57629,57624,57624,57624,57624,57624,57624,57624,57624,57624,57624,57625,57624,57624,57624,57624,57624,57624,57624,57624,57624,57624,57624,57624,57624,57624,57624,57624,57624,57624,57624,57624,57624,57624,57624,57624,57624,57624,57624,57624,57624,57624,57624,57624,57624,57624,57624,57624,57624,57624,57624,57624,57624,57624,57624,57624,57624,57624,57624,57624,57624,57624,57624,57624,57624,57624,57624,57624,57624,57624,57624,57624,57624,57624,57624,57624,57624,57624,57624,57624,57624,57624,57624,57624,57624,57624,57624,57624,57624,57624,57624,57624,57624,57624,57624,57624,57624,57624,57624,57624,57624,57624,57624,57624,57624,57624,57624,57624,57624,57624,57624,57624,57624,57624,57624,57624,57624,57624,57624,57624,57624,57624,57624,57624,57624,57624,57624,57624,57624,57624,57624,
57624,57624,57624,57624,57624,57624,57624,57624,57624,57624,57624,57624,57624,57624,57624,57624,57624,57624,57624,57624,57624,57624,57624,57624,57624,57624,57626,57624,57624,57624,57624,57624,57624,57624,57624,57624,57624,57624,57624,57624,57624,57624,57624,57624,57624,57624,57624,57624,57624,57624,57624,57624,57624,57624,57624,57624,57624,57624,57624,57624,57624,57624,57624,57624,57624,57624,57624,57624,57624,57624,57624,57624,57624,57624,57624,57624,57624,57624,57624,57624,57624,57624,57624,57624,57624,57624,57624,57624,57624,57624,57624,57624,57624,57624,57624,57624,57624,57624,57624,57624,57624,57624,57624,57624,57624,57624,57624,57624,57624,57624,57624,57624,57624,57624,57624,57624,57624,57624,57624,57624,57624,57624,57624,57624,57624,57624,57624,57624,57624,57624,57624,57624,57624,57624,57624,57624,57624,57629,57624,57624,57624,57624,57624,57624,57624,57624,57624,57624,57624,57624,57624,57624,57624,57624,57624,57624,57624,57624,57624,57624,57624,57624,57624,57624,57624,57624,57624,57627,57624,57624,57624,57624,57624,57624,57624,57624,57624,57624,57624,57624,57624,57624,57624,57624,57624,57624,57624,57624,57624,57624,57624,57624,57624,57624,57624,57624,57624,57624,57624,57624,57624,57624,57624,57624,57624,57624,57624,57624,57624,57624,57624,57624,57624,57624,57624,57624,57624,57624,57624,57624,57624,57624,57624,57624,57624,57624,57624,57624,57624,57624,57624,57624,57624,57624,57624,57624,57624,57624,57624,57624,
57624,57624,57624,57624,57624,57624,57624,57624,57624,57624,57624,57624,57624,57624,57624,57624,57624,57624,57624,57624,57624,57624,57624,57624,57624,57624,57624,57624,57624,57624,57624,57624,57624,57624,57624,57624,57624,57624,57624,57624,57624,57629,57624,57624,57624,57624,57624,57624,57624,57624,57624,57624,57624,57624,57624,57624,57624,57624,57624,57624,57624,57624,57624,57624,57624,57624,57624,57624,57624,57624,57624,57624,57624,57624,57624,57624,57628,57624,57624,57624,57624,57624,57624,57624,57624,57624,57624,57624,57624,57624,57624,57624,57624,57624,57624,57624,57624,57624,57624,57624,57624,57624,57624,57624,57624,57624,57624,57624,57624,57624,57624,57624,57624,57624,57624,57624,57624,57624,57624,57624,57624,57624,57624,57624,57624,57624,57624,57624,57624,57624,57624,57624,57624,57624,57624,57624,57624,57624,57624,57624,57624,57624,57624,57624,57624,57624,57624,57624,57624,57624,57624,57624,57624,57624,57624,57626,57624,57624,57624,57624,57624,57624,57624,57624,57624,57624,57624,57624,57624,57624,57624,57624,57624,57624,57624,57624,57624,57624,57624,57624,57624,57624,57624,57624,57624,57624,57624,57624,57624,57624,57624,57624,57624,57624,57624,57624,57624,57628,57624,57624,57624,57624,57624,57624,57624,57624,57624,57624,57624,57624,57624,57624,57624,57624,57624,57624,57624,57624,57624,57624,57624,57624,57624,57624,57624,57624,57624,57624,57624,57624,57624,57624,57624,57624,57624,57624,57624,57624,57624,57624,
57624,57624,57624,57624,57624,57624,57624,57624,57624,57624,57624,57624,57624,57624,57624,57624,57624,57624,57624,57624,57624,57624,57624,57624,57624,57624,57624,57624,57624,57624,57624,57624,57624,57624,57624,57624,57624,57624,57624,57624,57624,57624,57624,57624,57624,57624,57624,57624,57624,57624,57624,57624,57624,57624,57624,57624,57624,57624,57624,57624,57624,57624,57624,57624,57624,57624,57624,57624,57624,57624,57624,57624,57624,57624,57624,57624,57624,57624,57624,57624,57624,57624,57624,57624,57624,57624,57624,57624,57624,57624,57624,57624,57624,57624,57624,57624,57624,57624,57624,57624,57624,57624,57624,57624,57624,57624,57624,57624,57624,57624,57624,57624,57624,57624,57624,57624,57624,57624,57624,57624,57624,57624,57624,57624,57624,57624,57624,57624,57624,57624,57624,57624,57624,57624,57624,57624,57624,57624,57624,57624,57624,57624,57624,57624,57624,57624,57624,57624,57624,57624,57624,57624,57624,57624,57624,57624,57624,57624,57624,57624,57624,57624,57624,57624,57624,57624,57624,57624,57624,57624,57624,57624,57629,57624,57624,57624,57624,57624,57624,57624,57624,57624,57624,57624,57624,57624,57624,57624,57624,57624,57624,57624,57624,57624,57624,57624,57624,57624,57624,57624,57624,57624,57624,57624,57624,57624,57624,57624,57624,57624,57624,57624,57624,57624,57624,57624,57624,57624,57624,57624,57624,57624,57624,57624,57624,57624,57624,57624,57624,57625,57624,57624,57624,57624,57624,57624,57624,57624,57624,57624,
57624,57624,57624,57624,57624,57624,57624,57624,57624,57624,57624,57624,57624,57624,57624,57624,57624,57624,57624,57624,57624,57624,57624,57624,57624,57624,57624,57624,57624,57624,57624,57624,57624,57624,57624,57624,57624,57624,57624,57624,57624,57624,57624,57624,57624,57624,57624,57624,57624,57624,57624,57624,57624,57624,57624,57624,57624,57624,57624,57624,57624,57624,57624,57624,57624,57624,57624,57624,57624,57624,57624,57624,57624,57624,57624,57624,57624,57624,57624,57624,57624,57624,57624,57624,57624,57624,57624,57624,57624,57624,57624,57624,57624,57624,57624,57624,57624,57624,57624,57624,57624,57624,57624,57624,57624,57624,57624,57624,57624,57624,57624,57624,57624,57624,57624,57624,57624,57624,57624,57624,57624,57624,57624,57624,57624,57624,57624,57624,57624,57624,57624,57624,57624,57624,57624,57624,57624,57624,57624,57624,57624,57624,57624,57624,57624,57624,57624,57624,57624,57624,57624,57624,57624,57624,57624,57624,57624,57624,57624,57624,57624,57624,57624,57624,57624,57624,57624,57624,57624,57624,57624,57624,57624,57624,57624,57624,57624,57624,57624,57624,57624,57624,57624,57624,57624,57624,57624,57624,57624,57624,57624,57624,57624,57624,57624,57624,57624,57624,57624,57624,57624,57624,57624,57624,57624,57624,57624,57624,57624,57624,57624,57624,57624,57624,57624,57624,57624,57624,57624,57624,57624,57624,57624,57624,57624,57624,57624,57624,57624,57624,57624,57624,57624,57624,57624,57624,57624,57624,57624,57624,
57624,57624,57624,57624,57624,57624,57624,57624,57624,57624,57624,57624,57624,57624,57624,57624,57624,57624,57624,57624,57624,57624,57624,57624,57624,57624,57624,57624,57624,57624,57624,57624,57624,57624,57624,57624,57624,57624,57624,57624,57624,57624,57624,57624,57624,57624,57624,57624,57624,57624,57624,57624,57624,57624,57624,57624,57624,57624,57624,57624,57624,57624,57624,57624,57624,57624,57624,57624,57624,57624,57624,57624,57624,57624,57624,57624,57628,57624,57624,57624,57624,57624,57624,57624,57624,57624,57624,57624,57624,57624,57624,57624,57624,57624,57624,57624,57624,57624,57624,57624,57624,57624,57624,57624,57624,57624,57624,57624,57624,57624,57624,57624,57624,57624,57624,57624,57624,57624,57624,57624,57624,57624,57624,57624,57624,57624,57624,57624,57624,57624,57624,57624,57624,57624,57624,57624,57624,57624,57624,57624,57624,57624,57624,57624,57624,57624,57624,57624,57624,57624,57624,57624,57624,57624,57624,57624,57624,57624,57624,57624,57624,57624,57624,57624,57624,57624,57624,57624,57624,57624,57624,57624,57624,57624,57624,57624,57624,57624,57624,57624,57624,57624,57624,57624,57624,57624,57624,57624,57624,57624,57624,57624,57624,57624,57624,57624,57624,57624,57624,57624,57624,57624,57624,57624,57624,57624,57624,57624,57624,57624,57624,57624,57624,57624,57624,57624,57624,57624,57624,57624,57624,57624,57624,57624,57624,57624,57624,57624,57624,57624,57624,57624,57624,57624,57629,57624,57624,57624,57624,57624,
57624,57624,57624,57624,57624,57624,57624,57624,57624,57624,57624,57624,57624,57624,57624,57624,57624,57624,57624,57624,57624,57624,57624,57624,57624,57624,57624,57624,57624,57624,57624,57624,57624,57624,57624,57624,57624,57624,57624,57624,57624,57629,57624,57624,57624,57624,57624,57624,57624,57624,57624,57624,57624,57624,57624,57624,57624,57624,57624,57624,57624,57624,57624,57624,57624,57624,57624,57624,57624,57624,57624,57624,57624,57624,57624,57624,57624,57624,57624,57624,57624,57624,57624,57624,57624,57624,57624,57624,57624,57624,57624,57624,57624,57624,57624,57624,57624,57624,57624,57624,57624,57624,57624,57624,57624,57624,57624,57624,57624,57624,57624,57624,57624,57624,57624,57624,57624,57624,57624,57624,57624,57624,57624,57624,57624,57624,57624,57624,57624,57624,57624,57624,57624,57624,57624,57624,57624,57624,57624,57624,57624,57624,57624,57624,57624,57624,57624,57624,57624,57624,57624,57624,57624,57624,57624,57624,57624,57624,57624,57624,57624,57624,57624,57624,57624,57624,57624,57624,57624,57624,57624,57624,57624,57624,57624,57624,57624,57624,57624,57624,57624,57624,57624,57624,57624,57624,57624,57624,57624,57624,57624,57624,57624,57624,57624,57624,57624,57624,57624,57624,57624,57624,57624,57624,57624,57624,57624,57624,57624,57624,57624,57624,57624,57624,57624,57624,57624,57624,57624,57624,57624,57624,57624,57624,57624,57624,57624,57624,57624,57624,57624,57624,57624,57624,57624,57624,57624,57624,57624,57624,
57624,57624,57624,57624,57624,57624,57624,57624,57624,57624,57624,57624,57624,57624,57624,57624,57624,57624,57624,57624,57624,57624,57624,57624,57624,57624,57624,57624,57624,57624,57624,57624,57624,57624,57624,57624,57624,57624,57624,57624,57624,57625,57624,57624,57624,57624,57624,57624,57624,57624,57624,57624,57624,57624,57624,57624,57624,57624,57624,57624,57624,57624,57624,57624,57624,57624,57624,57624,57624,57624,57624,57624,57624,57624,57624,57624,57624,57624,57624,57624,57624,57624,57624,57624,57624,57624,57624,57624,57624,57624,57624,57624,57624,57624,57624,57624,57624,57624,57624,57624,57624,57624,57624,57624,57624,57624,57624,57624,57624,57624,57624,57624,57624,57624,57624,57624,57624,57624,57624,57624,57624,57624,57624,57624,57624,57624,57624,57624,57624,57624,57624,57624,57624,57624,57624,57624,57624,57624,57624,57624,57624,57624,57624,57624,57624,57624,57624,57624,57624,57624,57624,57624,57624,57624,57624,57624,57624,57624,57624,57624,57624,57624,57624,57624,57624,57624,57624,57624,57624,57624,57624,57624,57624,57624,57624,57624,57624,57624,57624,57624,57624,57624,57624,57624,57624,57624,57624,57624,57624,57624,57624,57624,57624,57624,57624,57624,57624,57624,57624,57624,57624,57624,57624,57624,57624,57624,57624,57624,57624,57624,57624,57624,57624,57624,57624,57624,57624,57624,57624,57624,57624,57624,57624,57624,57624,57624,57624,57624,57624,57624,57624,57624,57624,57624,57624,57624,57624,57624,57624,57624,
57624,57624,57624,57624,57624,57624,57624,57624,57624,57624,57624,57624,57624,57624,57624,57624,57624,57624,57624,57624,57624,57624,57624,57624,57624,57624,57624,57624,57624,57624,57624,57624,57624,57624,57624,57624,57624,57624,57624,57624,57624,57624,57624,57624,57624,57624,57624,57624,57624,57624,57624,57624,57624,57624,57624,57624,57624,57624,57624,57624,57624,57624,57624,57624,57624,57624,57624,57624,57624,57624,57624,57624,57624,57624,57624,57624,57624,57624,57624,57624,57624,57624,57624,57624,57624,57624,57624,57624,57624,57624,57624,57624,57624,57624,57624,57624,57624,57624,57624,57624,57624,57624,57624,57624,57624,57624,57624,57624,57624,57624,57624,57624,57624,57624,57624,57624,57624,57624,57624,57624,57624,57624,57624,57624,57624,57624,57624,57624,57624,57624,57624,57624,57624,57624,57624,57624,57624,57624,57624,57624,57624,57624,57624,57624,57624,57624,57624,57624,57624,57624,57624,57624,57624,57624,57624,57624,57624,57628,57624,57624,57624,57624,57624,57624,57624,57624,57624,57624,57624,57624,57624,57624,57624,57624,57624,57624,57624,57624,57624,57624,57624,57624,57624,57624,57624,57624,57624,57624,57624,57624,57624,57624,57624,57624,57624,57624,57624,57624,57624,57624,57624,57624,57624,57624,57624,57624,57624,57624,57624,57624,57624,57624,57624,57624,57624,57624,57624,57624,57624,57624,57624,57624,57624,57624,57624,57624,57624,57624,57624,57624,57624,57624,57624,57624,57624,57624,57624,57624,57624,57624,
57624,57624,57624,57624,57624,57624,57624,57624,57624,57624,57624,57624,57624,57624,57624,57624,57626,57624,57624,57624,57624,57624,57624,57624,57624,57624,57624,57624,57624,57624,57624,57624,57624,57624,57624,57624,57624,57624,57624,57624,57624,57624,57624,57624,57624,57624,57624,57624,57624,57624,57624,57624,57624,57624,57624,57624,57624,57624,57624,57624,57624,57624,57624,57624,57624,57624,57624,57624,57624,57624,57624,57624,57624,57624,57624,57624,57624,57624,57624,57624,57624,57624,57624,57624,57624,57624,57624,57624,57624,57624,57624,57624,57624,57624,57624,57624,57624,57624,57624,57624,57624,57624,57624,57624,57624,57624,57624,57624,57624,57624,57624,57624,57624,57624,57624,57624,57624,57624,57624,57624,57624,57624,57624,57624,57624,57624,57624,57624,57624,57624,57624,57624,57624,57624,57624,57624,57624,57624,57624,57624,57624,57624,57624,57624,57624,57624,57624,57624,57624,57624,57624,57624,57624,57624,57624,57624,57624,57624,57624,57624,57624,57624,57624,57624,57624,57624,57624,57624,57624,57624,57624,57624,57624,57624,57624,57624,57624,57624,57624,57624,57624,57624,57624,57624,57624,57624,57624,57624,57624,57624,57624,57624,57624,57624,57624,57624,57624,57624,57624,57624,57624,57624,57624,57624,57624,57624,57624,57624,57624,57624,57624,57624,57624,57624,57624,57624,57624,57624,57624,57624,57624,57624,57624,57624,57624,57624,57627,57624,57624,57624,57624,57624,57624,57624,57624,57624,57624,57624,57624,57624,
57624,57624,57624,57624,57624,57624,57624,57624,57624,57624,57624,57624,57624,57624,57624,57624,57624,57624,57624,57624,57624,57624,57624,57624,57624,57624,57624,57624,57624,57624,57624,57624,57624,57624,57624,57624,57624,57624,57624,57624,57624,57624,57624,57624,57624,57624,57624,57624,57624,57624,57624,57624,57624,57624,57624,57624,57624,57624,57624,57624,57624,57624,57624,57624,57624,57624,57624,57624,57624,57624,57624,57624,57624,57624,57624,57624,57624,57624,57624,57624,57624,57624,57624,57624,57624,57624,57624,57624,57624,57624,57624,57624,57624,57624,57624,57624,57624,57624,57624,57624,57624,57624,57624,57624,57624,57624,57624,57624,57624,57624,57624,57624,57624,57624,57624,57624,57624,57624,57624,57624,57626,57624,57624,57624,57624,57624,57624,57624,57624,57624,57624,57624,57624,57624,57624,57624,57624,57624,57624,57624,57624,57624,57624,57624,57624,57624,57624,57624,57624,57624,57624,57624,57624,57624,57624,57624,57624,57624,57624,57624,57624,57624,57624,57624,57624,57624,57624,57624,57624,57624,57624,57624,57624,57624,57624,57624,57624,57624,57624,57624,57624,57624,57624,57624,57624,57624,57624,57624,57624,57624,57624,57624,57624,57624,57624,57624,57624,57624,57624,57624,57624,57624,57624,57624,57624,57624,57624,57624,57624,57624,57624,57624,57624,57624,57624,57624,57624,57624,57624,57624,57624,57624,57624,57624,57624,57624,57624,57624,57624,57624,57624,57624,57624,57624,57624,57624,57624,57624,57624,57624,
57624,57624,57624,57624,57624,57624,57624,57624,57624,57624,57624,57624,57624,57624,57624,57624,57624,57624,57624,57624,57624,57624,57624,57624,57624,57624,57624,57624,57624,57624,57624,57624,57624,57624,57624,57624,57624,57624,57624,57624,57624,57624,57624,57624,57624,57624,57624,57624,57624,57624,57624,57624,57624,57624,57624,57624,57624,57624,57624,57624,57624,57624,57624,57624,57624,57624,57624,57624,57624,57624,57624,57624,57624,57624,57624,57624,57624,57624,57624,57624,57624,57624,57624,57629,57624,57624,57624,57626,57624,57624,57624,57624,57624,57624,57624,57624,57624,57626,57624,57624,57624,57624,57624,57624,57624,57624,57624,57626,57624,57624,57624,57624,57624,57624,57624,57624,57624,57624,57624,57624,57624,57624,57624,57624,57624,57624,57624,57624,57625,57624,57624,57624,57624,57624,57624,57624,57624,57624,57624,57624,57624,57624,57624,57624,57624,57624,57624,57624,57624,57624,57624,57624,57624,57624,57624,57624,57624,57624,57624,57624,57624,57624,57624,57624,57624,57624,57624,57624,57624,57624,57624,57624,57624,57624,57624,57624,57624,57624,57624,57624,57624,57624,57624,57624,57624,57624,57624,57624,57624,57624,57624,57624,57624,57624,57624,57624,57624,57624,57624,57624,57624,57624,57624,57624,57624,57624,57624,57624,57624,57624,57624,57624,57624,57624,57624,57624,57624,57624,57624,57624,57624,57624,57624,57624,57624,57624,57624,57624,57624,57624,57624,57624,57624,57624,57624,57624,57624,57624,57624,57624,
57624,57624,57624,57624,57624,57624,57624,57624,57624,57624,57624,57624,57624,57624,57624,57624,57624,57624,57624,57624,57624,57624,57624,57624,57624,57624,57624,57624,57624,57624,57624,57624,57624,57624,57624,57624,57624,57624,57624,57624,57624,57624,57624,57624,57624,57624,57624,57624,57624,57624,57624,57624,57624,57624,57624,57624,57624,57624,57624,57624,57624,57624,57624,57624,57624,57624,57624,57624,57624,57624,57624,57624,57624,57624,57624,57624,57624,57624,57624,57624,57624,57624,57624,57624,57624,57624,57624,57624,57624,57624,57624,57624,57624,57624,57624,57624,57624,57624,57624,57624,57624,57624,57624,57624,57624,57624,57624,57624,57624,57624,57624,57624,57624,57624,57624,57624,57624,57624,57624,57624,57624,57624,57624,57624,57624,57624,57624,57624,57624,57624,57624,57624,57624,57624,57624,57624,57624,57624,57624,57624,57624,57624,57624,57624,57624,57624,57624,57624,57624,57624,57624,57624,57624,57624,57624,57624,57624,57624,57624,57624,57624,57624,57624,57624,57624,57624,57624,57624,57624,57624,57624,57624,57624,57624,57624,57624,57624,57624,57624,57624,57624,57624,57624,57624,57624,57624,57624,57624,57624,57624,57624,57624,57624,57624,57624,57624,57624,57624,57624,57624,57624,57624,57624,57624,57624,57624,57624,57624,57624,57624,57624,57624,57624,57624,57624,57624,57624,57624,57624,57624,57624,57624,57624,57624,57624,57624,57624,57624,57624,57624,57624,57624,57624,57624,57624,57624,57624,57624,57624,57624,
57624,57624,57624,57624,57624,57624,57624,57624,57624,57624,57624,57624,57624,57624,57624,57624,57624,57624,57624,57624,57624,57624,57624,57624,57624,57624,57624,57624,57624,57624,57624,57624,57624,57624,57624,57624,57624,57624,57624,57624,57624,57624,57624,57624,57624,57624,57624,57624,57624,57624,57624,57624,57624,57624,57624,57624,57624,57624,57624,57624,57624,57624,57624,57624,57624,57624,57624,57624,57624,57624,57624,57624,57624,57624,57624,57624,57624,57624,57624,57624,57624,57624,57624,57629,57624,57624,57624,57624,57624,57624,57624,57624,57624,57624,57624,57624,57624,57624,57624,57624,57624,57624,57624,57624,57624,57624,57624,57624,57624,57624,57624,57624,57624,57624,57624,57624,57624,57624,57624,57624,57624,57624,57624,57624,57624,57624,57624,57624,57624,57624,57624,57624,57624,57624,57624,57629,57624,57624,57624,57624,57624,57624,57624,57624,57624,57624,57624,57624,57624,57624,57624,57624,57624,57624,57624,57624,57624,57624,57624,57624,57624,57628,57624,57624,57624,57624,57624,57624,57624,57624,57624,57624,57624,57624,57624,57624,57624,57624,57624,57624,57624,57624,57624,57624,57624,57624,57624,57624,57624,57624,57624,57624,57624,57624,57624,57624,57624,57624,57624,57624,57624,57624,57624,57624,57624,57624,57624,57624,57624,57624,57624,57624,57624,57624,57624,57624,57624,57624,57624,57624,57624,57624,57624,57624,57624,57624,57624,57624,57624,57624,57624,57624,57624,57624,57624,57624,57624,57624,57624,57624,
57624,57624,57624,57624,57624,57624,57624,57624,57624,57624,57624,57624,57624,57624,57624,57624,57624,57624,57624,57624,57624,57624,57624,57624,57624,57624,57624,57624,57624,57627,57624,57624,57624,57624,57624,57624,57624,57624,57624,57624,57624,57624,57624,57624,57624,57624,57624,57624,57624,57624,57624,57624,57624,57624,57624,57624,57624,57624,57624,57624,57624,57624,57624,57624,57624,57624,57624,57624,57624,57624,57624,57624,57624,57624,57624,57624,57624,57624,57624,57624,57624,57624,57624,57624,57624,57624,57624,57624,57624,57626,57624,57624,57624,57624,57624,57624,57624,57624,57624,57624,57624,57624,57624,57624,57624,57624,57624,57624,57624,57624,57624,57624,57624,57624,57624,57624,57624,57624,57624,57624,57624,57624,57624,57624,57624,57624,57624,57624,57624,57624,57624,57624,57624,57624,57624,57624,57624,57624,57624,57624,57624,57624,57624,57624,57624,57624,57624,57624,57624,57624,57624,57624,57624,57624,57624,57624,57624,57624,57624,57624,57624,57624,57624,57624,57624,57624,57624,57624,57624,57624,57624,57624,57624,57624,57624,57624,57624,57628,57624,57624,57624,57624,57624,57624,57624,57624,57624,57624,57624,57624,57624,57624,57624,57624,57624,57624,57624,57624,57624,57624,57624,57624,57624,57624,57624,57624,57624,57624,57624,57624,57624,57624,57624,57624,57624,57624,57624,57624,57624,57624,57624,57624,57624,57624,57624,57624,57624,57624,57624,57624,57624,57624,57624,57624,57624,57624,57624,57624,57624,57624,
57624,57624,57624,57624,57624,57624,57624,57624,57624,57624,57624,57624,57624,57624,57624,57624,57624,57624,57624,57624,57624,57624,57624,57624,57624,57624,57624,57624,57624,57624,57624,57624,57624,57624,57625,57624,57624,57624,57624,57624,57624,57624,57624,57624,57624,57624,57624,57624,57624,57624,57624,57624,57624,57624,57624,57624,57624,57624,57624,57624,57624,57624,57624,57624,57624,57624,57624,57624,57624,57624,57624,57624,57624,57624,57624,57624,57624,57624,57624,57624,57624,57624,57624,57624,57624,57624,57624,57624,57624,57624,57624,57624,57624,57624,57624,57624,57624,57624,57624,57624,57624,57624,57624,57624,57624,57624,57624,57624,57624,57624,57624,57624,57624,57624,57624,57624,57624,57624,57624,57624,57624,57624,57624,57624,57624,57624,57624,57624,57624,57624,57624,57624,57624,57624,57624,57624,57624,57624,57624,57624,57624,57624,57624,57624,57624,57624,57624,57624,57624,57624,57624,57624,57624,57624,57624,57624,57624,57624,57624,57624,57624,57624,57624,57624,57624,57624,57624,57624,57624,57624,57624,57624,57624,57624,57624,57624,57624,57624,57624,57624,57624,57624,57624,57624,57624,57624,57624,57624,57624,57624,57624,57624,57624,57624,57624,57624,57624,57624,57624,57624,57624,57624,57624,57624,57624,57624,57624,57624,57624,57624,57624,57624,57624,57624,57626,57624,57624,57624,57624,57624,57625,57624,57624,57624,57628,57624,57624,57624,57624,57624,57624,57624,57624,57624,57624,57624,57624,57624,57624,57624,
57624,57624,57624,57624,57624,57624,57624,57624,57624,57624,57624,57624,57624,57624,57624,57624,57624,57624,57624,57624,57624,57624,57624,57624,57624,57624,57624,57624,57624,57624,57624,57624,57624,57624,57624,57624,57624,57624,57624,57624,57624,57624,57624,57624,57624,57624,57624,57624,57624,57624,57624,57624,57624,57624,57624,57624,57624,57624,57624,57624,57624,57624,57624,57624,57624,57624,57624,57624,57624,57624,57624,57624,57624,57624,57624,57624,57624,57624,57624,57624,57624,57624,57624,57624,57624,57624,57624,57624,57624,57624,57624,57624,57624,57624,57624,57624,57624,57624,57624,57624,57624,57624,57624,57626,57624,57624,57624,57624,57624,57624,57624,57624,57624,57624,57627,57624,57624,57624,57624,57624,57624,57624,57624,57624,57624,57624,57624,57624,57624,57624,57624,57624,57624,57624,57624,57624,57624,57624,57624,57624,57624,57624,57624,57624,57624,57624,57624,57624,57624,57624,57624,57624,57624,57624,57624,57624,57624,57624,57624,57624,57624,57624,57624,57624,57624,57624,57624,57624,57624,57624,57624,57624,57624,57624,57624,57624,57624,57624,57624,57624,57624,57624,57624,57624,57624,57624,57624,57624,57624,57624,57624,57624,57624,57624,57624,57624,57624,57624,57624,57624,57624,57624,57624,57624,57624,57624,57624,57624,57626,57624,57624,57624,57624,57624,57624,57624,57624,57624,57624,57624,57624,57624,57624,57624,57624,57624,57624,57624,57624,57624,57624,57624,57624,57624,57624,57624,57624,57624,57624,57624,
57624,57624,57624,57624,57624,57624,57624,57624,57624,57624,57624,57624,57624,57629,57624,57624,57624,57624,57624,57624,57624,57624,57624,57624,57624,57624,57624,57624,57624,57624,57624,57624,57624,57624,57624,57624,57624,57624,57624,57624,57624,57624,57624,57624,57624,57624,57624,57624,57624,57624,57624,57624,57624,57624,57624,57624,57624,57624,57624,57624,57624,57624,57624,57624,57624,57624,57624,57624,57624,57624,57624,57624,57624,57624,57624,57625,57624,57624,57624,57624,57624,57624,57624,57624,57624,57624,57624,57624,57624,57624,57624,57624,57624,57624,57624,57624,57624,57624,57624,57624,57624,57624,57624,57624,57624,57624,57624,57624,57624,57624,57624,57624,57624,57624,57624,57624,57624,57624,57624,57624,57624,57624,57624,57624,57624,57624,57624,57624,57624,57624,57624,57624,57624,57624,57624,57624,57624,57624,57624,57624,57624,57624,57624,57624,57624,57624,57624,57624,57624,57624,57624,57624,57624,57624,57624,57624,57624,57624,57624,57624,57624,57624,57624,57624,57624,57624,57624,57624,57624,57624,57624,57624,57624,57624,57624,57624,57624,57624,57624,57624,57624,57624,57624,57624,57624,57624,57624,57624,57624,57624,57624,57624,57624,57624,57624,57624,57624,57624,57624,57624,57624,57624,57624,57624,57624,57624,57624,57624,57624,57624,57624,57624,57624,57624,57624,57624,57624,57624,57624,57624,57624,57624,57624,57624,57624,57624,57624,57624,57624,57624,57624,57624,57624,57624,57624,57624,57624,57624,57624,57624,
57624,57624,57624,57624,57624,57624,57624,57624,57624,57624,57624,57624,57624,57624,57624,57624,57624,57624,57624,57624,57624,57624,57624,57624,57624,57624,57624,57624,57624,57624,57624,57624,57624,57624,57624,57624,57624,57624,57624,57624,57624,57624,57624,57624,57624,57624,57624,57624,57624,57624,57629,57624,57624,57624,57624,57624,57624,57624,57624,57624,57624,57624,57624,57624,57624,57624,57624,57624,57624,57624,57624,57624,57624,57624,57624,57624,57624,57624,57624,57624,57624,57624,57624,57624,57624,57624,57624,57625,57624,57624,57624,57624,57624,57624,57624,57624,57624,57624,57624,57624,57624,57624,57624,57624,57624,57624,57624,57624,57624,57624,57624,57624,57624,57624,57624,57624,57624,57624,57624,57624,57624,57624,57624,57624,57624,57624,57624,57624,57624,57624,57624,57624,57624,57624,57624,57624,57624,57624,57624,57624,57624,57624,57624,57624,57624,57624,57624,57624,57624,57624,57624,57624,57624,57624,57624,57624,57624,57624,57624,57624,57624,57624,57624,57624,57625,57624,57624,57624,57624,57624,57624,57624,57624,57624,57624,57624,57624,57624,57624,57624,57624,57624,57624,57624,57624,57624,57624,57624,57624,57624,57624,57624,57624,57624,57624,57624,57624,57624,57624,57624,57624,57624,57624,57624,57624,57624,57624,57624,57624,57624,57624,57624,57624,57624,57624,57624,57624,57624,57624,57624,57624,57624,57624,57624,57624,57624,57624,57624,57624,57624,57624,57624,57624,57624,57624,57624,57624,57624,57624,57624,
57624,57624,57624,57624,57624,57624,57624,57624,57624,57624,57624,57624,57624,57624,57624,57624,57624,57624,57624,57624,57624,57624,57624,57624,57624,57624,57628,57624,57624,57624,57624,57624,57624,57624,57624,57624,57624,57624,57624,57624,57624,57624,57624,57624,57624,57624,57624,57624,57624,57624,57624,57624,57624,57624,57624,57624,57624,57624,57624,57624,57624,57624,57624,57624,57624,57624,57624,57624,57624,57624,57624,57624,57624,57624,57624,57624,57624,57624,57624,57624,57624,57624,57624,57624,57624,57624,57624,57624,57624,57624,57624,57624,57624,57624,57624,57624,57624,57624,57624,57624,57624,57624,57624,57624,57624,57624,57624,57624,57624,57624,57624,57624,57624,57624,57624,57624,57624,57624,57624,57624,57624,57625,57624,57624,57624,57624,57624,57624,57624,57624,57624,57624,57624,57624,57624,57624,57624,57624,57624,57624,57624,57624,57624,57624,57624,57624,57624,57624,57624,57624,57624,57624,57624,57624,57624,57624,57624,57624,57624,57624,57624,57624,57624,57624,57624,57624,57624,57624,57624,57624,57624,57624,57624,57624,57624,57624,57624,57624,57624,57624,57624,57624,57624,57624,57624,57624,57624,57624,57624,57624,57624,57624,57624,57624,57624,57624,57624,57624,57624,57624,57624,57624,57624,57624,57624,57624,57624,57624,57624,57624,57624,57624,57624,57624,57624,57624,57624,57624,57624,57624,57624,57624,57624,57624,57624,57624,57624,57624,57624,57624,57624,57624,57624,57624,57624,57624,57624,57624,57624,57624,
57624,57624,57624,57624,57624,57624,57624,57624,57624,57624,57624,57624,57624,57624,57624,57624,57624,57624,57624,57624,57624,57624,57624,57624,57624,57624,57624,57624,57624,57624,57624,57624,57624,57624,57624,57624,57624,57624,57624,57624,57624,57624,57624,57624,57624,57624,57624,57624,57624,57624,57624,57624,57624,57624,57624,57624,57624,57624,57624,57624,57624,57624,57624,57624,57624,57624,57624,57624,57624,57624,57624,57624,57624,57624,57624,57624,57624,57624,57624,57624,57624,57624,57624,57624,57624,57624,57624,57624,57624,57624,57624,57624,57624,57624,57624,57624,57624,57624,57624,57624,57624,57624,57624,57624,57624,57624,57624,57624,57624,57626,57624,57624,57624,57624,57624,57624,57624,57624,57624,57624,57624,57624,57624,57624,57624,57624,57624,57624,57624,57624,57624,57624,57624,57624,57624,57624,57624,57624,57624,57624,57624,57624,57624,57624,57624,57624,57624,57624,57624,57624,57624,57624,57624,57624,57624,57624,57624,57624,57624,57624,57624,57624,57624,57624,57624,57624,57624,57624,57624,57624,57624,57624,57624,57624,57624,57624,57624,57624,57624,57624,57624,57624,57624,57624,57624,57624,57624,57624,57624,57624,57624,57624,57624,57624,57624,57624,57624,57624,57624,57624,57624,57624,57624,57624,57624,57624,57624,57624,57624,57624,57624,57624,57624,57624,57624,57624,57624,57624,57624,57624,57624,57624,57624,57624,57624,57624,57624,57624,57624,57624,57624,57624,57624,57624,57624,57624,57624,57624,57624,57624,
57624,57624,57624,57624,57624,57624,57624,57624,57624,57624,57624,57624,57624,57624,57624,57624,57624,57624,57624,57624,57624,57624,57624,57624,57624,57624,57624,57624,57624,57624,57624,57624,57624,57624,57624,57624,57624,57624,57624,57624,57624,57624,57624,57624,57624,57624,57624,57624,57624,57624,57624,57624,57624,57624,57624,57624,57624,57624,57624,57624,57624,57624,57624,57624,57624,57624,57624,57624,57624,57624,57624,57624,57624,57624,57624,57624,57624,57624,57624,57624,57624,57624,57624,57624,57624,57624,57624,57624,57624,57624,57624,57624,57624,57624,57624,57624,57624,57624,57624,57624,57624,57624,57624,57624,57624,57624,57624,57624,57624,57624,57624,57624,57624,57624,57624,57624,57624,57624,57624,57624,57624,57624,57624,57624,57624,57624,57624,57624,57624,57624,57624,57624,57624,57624,57624,57624,57624,57624,57624,57624,57624,57624,57624,57624,57624,57624,57624,57624,57624,57624,57624,57624,57624,57624,57624,57624,57624,57624,57624,57624,57624,57624,57624,57624,57624,57624,57624,57624,57624,57624,57624,57624,57624,57624,57624,57624,57624,57624,57624,57624,57624,57624,57624,57624,57624,57624,57624,57624,57624,57624,57624,57624,57624,57624,57624,57624,57624,57624,57624,57624,57624,57624,57624,57624,57624,57624,57624,57628,57624,57624,57624,57624,57624,57624,57624,57624,57624,57624,57624,57624,57624,57624,57624,57624,57624,57624,57624,57624,57624,57624,57624,57624,57624,57624,57624,57624,57624,57624,57624,57624,
57624,57624,57624,57624,57624,57627,57624,57624,57624,57624,57624,57624,57624,57624,57624,57624,57624,57624,57624,57624,57624,57624,57624,57624,57624,57624,57624,57624,57624,57624,57624,57624,57624,57624,57624,57624,57624,57624,57624,57624,57624,57624,57624,57624,57624,57624,57624,57624,57624,57624,57624,57624,57624,57624,57624,57624,57624,57624,57624,57624,57624,57624,57624,57624,57624,57624,57624,57624,57624,57624,57624,57624,57624,57624,57624,57624,57624,57624,57624,57624,57624,57624,57624,57624,57624,57624,57624,57624,57624,57624,57624,57624,57624,57624,57624,57624,57624,57624,57624,57624,57624,57624,57624,57624,57624,57624,57624,57624,57624,57624,57624,57624,57624,57624,57624,57624,57624,57624,57624,57624,57624,57624,57624,57624,57624,57624,57624,57624,57624,57624,57624,57624,57624,57624,57624,57624,57624,57624,57624,57624,57624,57624,57624,57624,57624,57624,57624,57624,57624,57624,57624,57624,57624,57624,57624,57624,57624,57624,57624,57624,57624,57624,57624,57624,57624,57624,57624,57624,57624,57624,57624,57624,57624,57624,57624,57624,57624,57624,57624,57624,57624,57624,57624,57624,57624,57624,57624,57624,57624,57624,57624,57624,57624,57624,57624,57624,57624,57624,57624,57624,57624,57624,57624,57624,57624,57624,57624,57624,57624,57624,57624,57624,57624,57624,57624,57624,57624,57624,57624,57624,57625,57624,57624,57624,57624,57624,57624,57624,57624,57624,57624,57624,57624,57624,57624,57624,57624,57624,57624,57624,
57624,57624,57624,57624,57624,57624,57624,57624,57624,57624,57624,57624,57624,57624,57624,57624,57624,57624,57624,57624,57624,57624,57624,57624,57624,57624,57624,57624,57624,57624,57624,57624,57624,57624,57624,57624,57624,57624,57624,57624,57624,57624,57624,57624,57624,57624,57624,57624,57624,57624,57624,57624,57624,57624,57624,57624,57624,57624,57624,57624,57624,57624,57624,57624,57624,57624,57624,57624,57624,57624,57624,57624,57624,57624,57624,57624,57624,57624,57628,57624,57624,57624,57624,57624,57624,57624,57624,57624,57624,57624,57624,57624,57624,57624,57624,57624,57624,57624,57624,57624,57624,57624,57624,57624,57624,57624,57624,57624,57624,57624,57624,57624,57624,57624,57624,57624,57624,57624,57624,57624,57624,57624,57624,57624,57624,57624,57624,57624,57624,57624,57624,57624,57624,57624,57624,57624,57624,57624,57624,57624,57624,57624,57624,57624,57624,57624,57624,57624,57624,57624,57624,57624,57625,57624,57624,57624,57624,57624,57624,57624,57624,57624,57624,57624,57624,57624,57624,57624,57624,57624,57624,57624,57624,57624,57624,57624,57624,57624,57624,57624,57624,57624,57624,57624,57624,57624,57624,57624,57624,57624,57624,57624,57624,57624,57624,57624,57624,57624,57624,57624,57624,57624,57624,57624,57624,57624,57624,57624,57624,57624,57624,57624,57624,57624,57624,57624,57624,57624,57624,57624,57624,57624,57624,57624,57624,57624,57624,57624,57624,57624,57624,57624,57624,57624,57624,57624,57624,57624,57624,57624,
57624,57624,57624,57624,57624,57624,57624,57624,57624,57624,57624,57624,57624,57624,57624,57624,57624,57624,57624,57624,57624,57624,57624,57624,57624,57624,57624,57624,57624,57624,57624,57624,57624,57624,57624,57624,57624,57624,57624,57624,57624,57624,57624,57624,57624,57624,57624,57624,57624,57624,57624,57624,57624,57624,57624,57624,57624,57624,57624,57624,57624,57624,57624,57624,57624,57624,57624,57624,57624,57624,57624,57624,57624,57624,57624,57624,57624,57624,57624,57624,57624,57624,57624,57624,57624,57624,57624,57624,57624,57624,57624,57624,57624,57624,57624,57624,57624,57624,57624,57624,57624,57624,57624,57624,57624,57624,57624,57624,57624,57624,57624,57624,57624,57624,57624,57624,57624,57624,57624,57624,57624,57624,57624,57624,57624,57624,57624,57624,57624,57624,57624,57624,57624,57624,57624,57624,57624,57624,57624,57624,57624,57624,57624,57624,57624,57627,57624,57624,57624,57624,57624,57624,57624,57624,57624,57624,57627,57624,57624,57624,57624,57624,57624,57624,57624,57624,57624,57624,57624,57624,57624,57624,57624,57624,57624,57624,57624,57624,57624,57624,57626,57624,57624,57624,57624,57624,57624,57624,57624,57624,57624,57624,57624,57624,57624,57624,57624,57624,57624,57624,57624,57624,57624,57624,57624,57624,57624,57624,57624,57624,57624,57624,57624,57624,57624,57624,57624,57624,57624,57624,57624,57624,57624,57624,57624,57624,57624,57624,57624,57624,57624,57624,57624,57624,57624,57624,57624,57624,57624,57624,
57624,57624,57624,57624,57624,57624,57624,57624,57624,57624,57624,57624,57624,57624,57624,57624,57624,57624,57624,57624,57624,57624,57624,57624,57624,57624,57624,57624,57624,57624,57624,57624,57624,57624,57624,57624,57624,57624,57627,57624,57624,57624,57624,57624,57624,57624,57624,57624,57624,57624,57624,57624,57624,57624,57624,57624,57624,57624,57624,57624,57624,57624,57624,57624,57624,57624,57624,57624,57624,57624,57624,57624,57624,57624,57624,57624,57624,57624,57624,57624,57624,57624,57624,57624,57624,57624,57624,57624,57624,57624,57624,57624,57624,57624,57624,57624,57624,57624,57624,57624,57624,57624,57624,57624,57624,57624,57624,57624,57624,57624,57624,57624,57624,57624,57624,57624,57624,57624,57624,57624,57624,57624,57624,57624,57624,57624,57624,57624,57624,57624,57624,57624,57624,57624,57624,57624,57624,57624,57624,57624,57624,57624,57624,57624,57624,57628,57624,57624,57624,57624,57624,57624,57624,57624,57624,57624,57624,57624,57624,57624,57624,57624,57624,57624,57624,57624,57624,57624,57624,57624,57624,57624,57624,57624,57624,57624,57624,57624,57624,57624,57624,57624,57624,57624,57624,57624,57624,57624,57624,57624,57624,57624,57624,57624,57624,57624,57624,57624,57624,57624,57624,57624,57624,57624,57624,57624,57624,57624,57624,57624,57624,57624,57624,57624,57624,57624,57624,57624,57624,57624,57624,57624,57624,57624,57624,57624,57624,57624,57624,57624,57624,57624,57624,57624,57624,57624,57624,57624,57624,57624,
57624,57624,57624,57624,57624,57624,57624,57624,57624,57624,57624,57624,57626,57624,57624,57624,57624,57624,57624,57624,57624,57624,57624,57624,57624,57624,57624,57624,57624,57624,57624,57624,57624,57624,57624,57624,57624,57624,57624,57624,57624,57624,57624,57624,57624,57624,57624,57624,57624,57624,57625,57624,57624,57624,57624,57624,57624,57624,57624,57624,57624,57624,57624,57624,57624,57624,57624,57624,57624,57624,57624,57624,57624,57624,57624,57624,57624,57624,57624,57624,57624,57624,57624,57624,57624,57624,57624,57624,57624,57624,57624,57624,57624,57624,57624,57624,57624,57624,57624,57624,57624,57624,57624,57624,57624,57624,57624,57624,57624,57624,57624,57624,57624,57624,57624,57624,57624,57624,57624,57624,57624,57624,57624,57624,57624,57624,57624,57624,57624,57624,57624,57624,57624,57624,57624,57624,57624,57624,57624,57624,57624,57624,57624,57624,57624,57624,57624,57624,57624,57624,57624,57624,57624,57624,57624,57624,57624,57624,57624,57624,57624,57624,57624,57624,57624,57624,57624,57624,57624,57624,57624,57624,57624,57624,57624,57624,57624,57624,57624,57624,57624,57624,57624,57624,57624,57624,57624,57624,57624,57624,57624,57624,57624,57624,57624,57624,57624,57624,57624,57624,57624,57624,57624,57624,57624,57624,57624,57624,57624,57624,57624,57624,57624,57624,57624,57624,57624,57624,57624,57624,57624,57624,57624,57624,57624,57624,57624,57624,57624,57624,57624,57624,57624,57624,57624,57624,57624,57624,57624,57624,
57624,57624,57624,57624,57624,57624,57624,57624,57624,57624,57624,57624,57624,57624,57624,57624,57624,57624,57624,57624,57624,57624,57624,57624,57624,57624,57624,57624,57624,57624,57624,57624,57624,57624,57624,57624,57624,57624,57624,57624,57624,57624,57624,57624,57624,57624,57624,57624,57624,57624,57624,57624,57624,57624,57624,57624,57624,57624,57624,57624,57624,57624,57624,57624,57624,57624,57624,57624,57624,57624,57624,57624,57624,57624,57624,57624,57624,57624,57624,57624,57624,57624,57624,57624,57624,57624,57624,57624,57624,57624,57624,57624,57624,57624,57624,57624,57624,57624,57624,57624,57624,57624,57624,57624,57624,57624,57624,57624,57624,57624,57624,57624,57624,57624,57624,57624,57624,57624,57624,57624,57624,57624,57624,57624,57624,57624,57624,57624,57624,57624,57624,57624,57624,57624,57624,57624,57624,57624,57624,57624,57624,57624,57624,57624,57624,57624,57624,57624,57624,57624,57624,57624,57624,57624,57624,57624,57624,57624,57624,57624,57624,57624,57624,57624,57624,57624,57624,57624,57624,57624,57624,57624,57624,57624,57624,57624,57624,57624,57624,57624,57624,57624,57624,57624,57624,57624,57624,57624,57624,57624,57624,57624,57624,57624,57624,57629,57624,57624,57624,57624,57624,57624,57624,57624,57624,57624,57624,57624,57624,57624,57624,57627,57624,57624,57624,57624,57624,57624,57624,57624,57624,57624,57624,57624,57624,57624,57624,57624,57624,57624,57624,57624,57624,57624,57624,57624,57624,57624,57624,57624,
57624,57624,57624,57624,57624,57624,57624,57624,57624,57624,57624,57624,57624,57624,57624,57624,57624,57624,57624,57624,57624,57624,57624,57624,57624,57624,57624,57624,57624,57624,57624,57624,57624,57624,57624,57624,57624,57624,57624,57624,57624,57624,57624,57624,57624,57624,57624,57624,57624,57624,57624,57624,57624,57624,57624,57624,57624,57624,57624,57624,57624,57624,57624,57624,57624,57624,57624,57624,57624,57624,57624,57624,57624,57624,57624,57624,57624,57624,57624,57624,57624,57624,57624,57624,57624,57624,57624,57624,57624,57624,57624,57624,57624,57624,57624,57624,57624,57624,57624,57624,57624,57624,57624,57624,57624,57624,57624,57624,57624,57624,57624,57624,57624,57624,57624,57624,57624,57624,57624,57624,57624,57624,57624,57624,57624,57624,57624,57624,57624,57624,57624,57624,57624,57624,57624,57624,57624,57624,57624,57624,57624,57624,57624,57624,57624,57624,57624,57624,57624,57624,57624,57624,57624,57624,57624,57624,57624,57624,57624,57624,57624,57624,57624,57624,57624,57624,57624,57624,57624,57624,57624,57624,57624,57624,57624,57624,57624,57624,57624,57624,57624,57624,57624,57624,57624,57624,57624,57624,57624,57624,57624,57624,57624,57624,57624,57624,57624,57624,57624,57624,57624,57624,57624,57624,57624,57624,57624,57624,57624,57624,57624,57624,57624,57624,57624,57624,57624,57624,57624,57624,57624,57624,57624,57624,57624,57624,57624,57624,57624,57624,57624,57628,57624,57624,57624,57624,57624,57624,57624,57624,
57624,57626,57624,57624,57624,57624,57624,57624,57624,57624,57624,57624,57624,57624,57624,57624,57624,57624,57624,57624,57624,57624,57624,57624,57624,57624,57624,57624,57624,57624,57624,57624,57624,57624,57624,57624,57624,57624,57624,57624,57624,57624,57624,57624,57624,57624,57624,57626,57624,57624,57624,57624,57624,57624,57624,57624,57624,57624,57624,57624,57624,57624,57624,57624,57624,57624,57624,57624,57624,57624,57624,57624,57624,57624,57624,57624,57624,57624,57624,57624,57624,57624,57624,57624,57624,57624,57624,57624,57624,57624,57624,57624,57624,57624,57629,57624,57624,57624,57624,57624,57624,57624,57624,57624,57624,57624,57624,57624,57624,57624,57624,57624,57624,57624,57624,57624,57624,57624,57624,57624,57624,57624,57624,57624,57624,57624,57624,57624,57624,57624,57624,57624,57624,57624,57624,57624,57624,57624,57624,57624,57624,57624,57624,57624,57624,57624,57624,57624,57624,57624,57624,57624,57624,57624,57624,57624,57624,57624,57624,57624,57624,57624,57624,57624,57624,57624,57624,57624,57624,57624,57624,57624,57624,57624,57624,57624,57624,57624,57624,57624,57624,57624,57624,57624,57624,57624,57624,57624,57624,57624,57624,57624,57624,57624,57624,57624,57624,57624,57624,57624,57624,57624,57624,57624,57624,57624,57624,57624,57624,57624,57624,57624,57624,57624,57624,57624,57624,57624,57624,57624,57624,57624,57624,57624,57624,57624,57624,57624,57624,57624,57624,57624,57624,57624,57624,57624,57624,57624,57624,57624,
57624,57624,57624,57624,57624,57624,57624,57624,57624,57624,57624,57624,57624,57624,57624,57624,57624,57624,57624,57624,57624,57624,57624,57624,57624,57624,57624,57624,57624,57624,57624,57624,57624,57624,57624,57624,57624,57624,57624,57624,57624,57624,57624,57624,57624,57624,57624,57624,57624,57624,57624,57624,57624,57624,57624,57624,57624,57624,57624,57624,57624,57624,57624,57624,57624,57624,57624,57624,57624,57624,57624,57624,57624,57624,57624,57624,57624,57624,57624,57624,57624,57624,57624,57624,57624,57624,57624,57624,57624,57624,57624,57626,57624,57624,57624,57624,57624,57624,57624,57624,57624,57624,57624,57624,57624,57624,57624,57624,57624,57624,57624,57624,57624,57624,57624,57624,57624,57624,57624,57624,57624,57624,57624,57624,57624,57624,57624,57624,57624,57624,57624,57624,57624,57624,57624,57624,57624,57624,57624,57624,57624,57624,57624,57624,57624,57624,57624,57624,57624,57624,57624,57624,57624,57624,57624,57624,57624,57624,57624,57624,57624,57624,57624,57624,57624,57624,57624,57624,57624,57624,57624,57624,57624,57624,57624,57624,57624,57624,57624,57624,57624,57624,57624,57624,57624,57624,57624,57624,57624,57624,57624,57624,57624,57624,57624,57624,57624,57624,57624,57624,57624,57624,57624,57624,57624,57624,57624,57624,57624,57624,57624,57624,57624,57624,57624,57624,57624,57624,57624,57624,57624,57624,57624,57624,57624,57624,57624,57624,57624,57624,57624,57624,57624,57624,57624,57624,57624,57624,57624,57624,
57624,57624,57624,57624,57624,57624,57624,57624,57624,57624,57624,57624,57624,57624,57624,57624,57624,57624,57624,57624,57624,57624,57624,57624,57624,57628,57624,57624,57624,57624,57624,57624,57624,57624,57624,57624,57624,57624,57624,57624,57624,57624,57624,57624,57624,57624,57624,57624,57624,57624,57624,57624,57624,57624,57624,57624,57624,57624,57624,57624,57624,57624,57624,57624,57624,57624,57624,57624,57624,57624,57624,57624,57624,57624,57624,57669,57669,57670,57671,57669,57669,57670,57669,57669,57670,57670,57670,57669,57669,57624,57624,57624,57624,57624,57624,57624,57624,57624,57624,57624,57624,57624,57624,57624,57624,57624,57624,57624,57624,57624,57624,57624,57624,57624,57624,57624,57624,57624,57624,57624,57624,57624,57624,57624,57624,57624,57624,57624,57624,57624,57624,57624,57624,57624,57624,57624,57624,57624,57624,57624,57624,57624,57624,57624,57624,57624,57624,57624,57624,57624,57624,57624,57624,57624,57624,57624,57624,57624,57624,57624,57624,57624,57624,57624,57624,57624,57624,57624,57624,57624,57624,57624,57624,57624,57624,57624,57624,57624,57624,57624,57624,57624,57624,57624,57624,57624,57624,57629,57624,57624,57624,57624,57629,57624,57624,57624,57624,57624,57624,57624,57624,57624,57624,57624,57624,57624,57624,57624,57624,57624,57624,57624,57624,57624,57624,57624,57624,57624,57624,57624,57624,57624,57624,57624,57624,57624,57624,57624,57624,57624,57624,57624,57624,57624,57624,57624,57624,57624,57624,57624,
57624,57624,57624,57624,57624,57624,57624,57624,57624,57624,57624,57624,57624,57624,57624,57624,57624,57624,57624,57624,57624,57624,57624,57624,57624,57624,57624,57624,57624,57624,57624,57624,57624,57624,57624,57624,57624,57624,57624,57624,57624,57624,57624,57624,57624,57624,57624,57624,57624,57624,57624,57624,57624,57624,57624,57624,57624,57624,57624,57624,57624,57624,57624,57624,57624,57624,57624,57624,57624,57624,57624,57624,57624,57624,57624,57670,57669,57670,57671,57670,57669,57669,57671,57669,57669,57669,57669,57670,57670,57624,57624,57624,57624,57624,57624,57624,57624,57624,57624,57624,57624,57624,57624,57624,57624,57624,57624,57624,57624,57624,57624,57624,57624,57624,57624,57624,57624,57624,57624,57624,57624,57624,57624,57624,57624,57624,57624,57624,57624,57624,57624,57624,57624,57624,57624,57624,57624,57624,57624,57624,57624,57624,57624,57624,57624,57624,57624,57624,57624,57624,57624,57624,57624,57624,57624,57624,57624,57624,57624,57624,57624,57624,57624,57624,57624,57624,57624,57624,57624,57624,57624,57624,57624,57624,57624,57624,57624,57624,57624,57624,57624,57624,57624,57624,57627,57624,57624,57624,57624,57624,57624,57624,57624,57624,57624,57624,57624,57624,57624,57624,57624,57624,57624,57624,57624,57624,57624,57624,57624,57624,57624,57624,57624,57624,57624,57624,57624,57624,57624,57624,57624,57624,57624,57624,57624,57624,57624,57624,57624,57624,57624,57624,57624,57624,57624,57629,57624,57624,57624,57624,
57624,57624,57624,57624,57624,57624,57624,57624,57624,57624,57624,57624,57624,57624,57624,57624,57624,57624,57624,57624,57624,57624,57624,57624,57624,57624,57624,57624,57624,57624,57624,57624,57624,57624,57624,57624,57624,57624,57624,57624,57624,57624,57624,57624,57624,57624,57624,57624,57624,57624,57624,57624,57624,57624,57624,57624,57624,57624,57624,57624,57624,57624,57624,57624,57624,57624,57624,57624,57624,57624,57624,57624,57624,57624,57624,57669,57669,57669,57669,57669,57669,57670,57669,57669,57669,57669,57670,57669,57669,57669,57670,57669,57669,57669,57669,57671,57670,57671,57670,57670,57669,57669,57671,57670,57669,57671,57671,57669,57669,57669,57624,57624,57624,57624,57624,57624,57624,57624,57624,57624,57624,57624,57624,57624,57624,57624,57624,57624,57624,57624,57624,57624,57624,57624,57624,57624,57624,57624,57624,57624,57624,57624,57624,57624,57624,57624,57624,57624,57624,57624,57624,57624,57624,57624,57624,57624,57624,57624,57624,57624,57624,57624,57624,57624,57624,57624,57624,57624,57624,57624,57624,57624,57624,57624,57624,57624,57624,57624,57624,57624,57624,57624,57624,57624,57624,57624,57624,57624,57624,57624,57624,57624,57624,57624,57624,57624,57624,57624,57624,57624,57624,57624,57624,57624,57624,57624,57624,57624,57624,57624,57624,57624,57624,57624,57624,57624,57624,57624,57624,57624,57624,57624,57624,57624,57624,57624,57624,57624,57624,57624,57624,57624,57624,57624,57624,57624,57624,57624,57624,57624,
57624,57624,57624,57624,57628,57624,57624,57624,57624,57624,57624,57624,57624,57624,57624,57624,57624,57624,57624,57624,57624,57624,57624,57624,57624,57624,57624,57624,57624,57624,57624,57624,57624,57624,57624,57624,57624,57624,57624,57624,57624,57624,57624,57624,57624,57624,57624,57624,57624,57624,57624,57624,57624,57624,57624,57624,57624,57624,57624,57624,57624,57624,57624,57624,57624,57624,57624,57624,57624,57624,57624,57624,57624,57624,57624,57669,57669,57670,57669,57669,57669,57670,57669,57669,57669,57670,57670,57670,57669,57669,57670,57670,57669,57671,57669,57670,57671,57670,57669,57669,57670,57671,57670,57670,57669,57670,57670,57669,57670,57669,57624,57624,57624,57624,57624,57624,57624,57624,57624,57624,57624,57624,57624,57624,57624,57624,57624,57624,57624,57624,57624,57624,57624,57624,57624,57624,57624,57624,57624,57624,57624,57624,57624,57624,57624,57624,57624,57624,57624,57624,57624,57624,57624,57624,57624,57624,57624,57624,57624,57624,57624,57624,57624,57624,57624,57624,57624,57624,57624,57624,57629,57624,57624,57624,57624,57624,57624,57624,57624,57624,57624,57624,57624,57624,57624,57624,57624,57624,57624,57624,57624,57624,57624,57624,57624,57624,57624,57624,57624,57624,57624,57624,57624,57624,57624,57624,57624,57624,57624,57624,57624,57624,57624,57624,57624,57624,57624,57624,57624,57624,57624,57624,57624,57624,57624,57624,57624,57624,57624,57624,57624,57624,57624,57624,57624,57624,57624,57624,57624,57624,
57624,57624,57624,57624,57624,57624,57624,57624,57624,57624,57624,57624,57624,57624,57624,57624,57625,57624,57624,57624,57624,57624,57624,57624,57624,57624,57624,57624,57624,57624,57624,57624,57624,57624,57624,57624,57624,57624,57624,57628,57624,57624,57628,57624,57624,57624,57624,57624,57624,57624,57624,57624,57624,57624,57624,57624,57624,57624,57624,57624,57624,57624,57624,57624,57624,57624,57624,57624,57624,57624,57624,57624,57624,57624,57624,57671,57669,57670,57671,57669,57670,57670,57669,57669,57669,57670,57670,57669,57669,57669,57669,57669,57669,57669,57670,57670,57669,57670,57669,57669,57670,57669,57669,57669,57669,57669,57670,57671,57670,57669,57624,57624,57624,57624,57624,57624,57627,57624,57624,57624,57624,57624,57624,57624,57624,57624,57624,57624,57624,57624,57624,57624,57624,57624,57624,57624,57624,57624,57624,57624,57624,57624,57624,57624,57624,57624,57624,57624,57624,57624,57624,57624,57624,57624,57624,57624,57624,57624,57624,57624,57624,57624,57624,57624,57624,57624,57624,57624,57624,57624,57624,57624,57624,57624,57624,57624,57624,57624,57624,57624,57624,57624,57624,57624,57624,57624,57624,57624,57624,57624,57624,57624,57624,57624,57624,57624,57624,57624,57624,57624,57624,57624,57624,57624,57624,57624,57624,57624,57624,57624,57624,57624,57624,57624,57624,57624,57624,57624,57624,57624,57624,57624,57624,57624,57624,57624,57624,57624,57624,57624,57624,57624,57624,57624,57624,57624,57624,57624,57624,57624,
57624,57624,57624,57624,57624,57624,57624,57624,57624,57624,57624,57624,57624,57624,57624,57624,57624,57624,57624,57624,57624,57624,57629,57624,57624,57624,57624,57624,57624,57624,57624,57624,57624,57624,57624,57624,57624,57624,57624,57624,57624,57624,57624,57624,57624,57624,57624,57624,57624,57624,57624,57624,57624,57624,57624,57624,57624,57624,57624,57624,57624,57624,57624,57624,57624,57624,57624,57624,57624,57624,57624,57624,57624,57624,57624,57670,57669,57669,57670,57670,57669,57671,57670,57669,57670,57669,57671,57669,57669,57669,57670,57670,57669,57669,57669,57669,57669,57670,57669,57671,57670,57671,57669,57671,57670,57670,57671,57670,57670,57669,57624,57624,57624,57626,57624,57624,57624,57624,57624,57624,57624,57624,57624,57624,57624,57624,57624,57624,57624,57624,57624,57624,57624,57624,57624,57624,57624,57624,57624,57624,57624,57624,57624,57624,57624,57624,57624,57624,57624,57624,57624,57624,57624,57624,57624,57624,57624,57624,57624,57624,57624,57624,57624,57624,57624,57624,57624,57624,57624,57624,57624,57624,57624,57624,57624,57624,57624,57624,57624,57624,57624,57624,57624,57624,57624,57624,57624,57624,57624,57624,57624,57624,57624,57624,57624,57624,57624,57624,57624,57624,57624,57624,57624,57624,57624,57624,57624,57624,57624,57624,57624,57624,57624,57624,57624,57624,57624,57624,57624,57624,57624,57624,57624,57624,57624,57624,57624,57624,57624,57624,57624,57624,57624,57624,57624,57624,57624,57624,57624,57624,
57624,57624,57625,57624,57624,57624,57624,57624,57624,57624,57624,57624,57624,57624,57624,57624,57624,57624,57624,57624,57624,57624,57624,57624,57624,57624,57624,57624,57624,57624,57624,57624,57624,57624,57624,57624,57624,57624,57624,57624,57624,57624,57624,57624,57624,57624,57624,57624,57624,57624,57624,57624,57624,57624,57624,57624,57624,57624,57624,57624,57624,57624,57624,57624,57624,57624,57624,57626,57624,57624,57624,57624,57624,57624,57624,57669,57669,57671,57669,57669,57669,57670,57671,57669,57670,57670,57669,57670,57669,57669,57670,57670,57669,57670,57669,57670,57669,57669,57670,57670,57670,57670,57670,57669,57670,57670,57669,57669,57669,57669,57624,57624,57624,57624,57624,57624,57624,57624,57624,57624,57624,57624,57624,57624,57624,57624,57624,57624,57624,57624,57624,57624,57624,57624,57624,57624,57624,57624,57624,57624,57624,57624,57624,57624,57624,57624,57624,57624,57624,57624,57624,57624,57624,57624,57624,57624,57624,57624,57624,57624,57624,57624,57624,57624,57624,57624,57624,57624,57624,57624,57624,57624,57624,57624,57624,57624,57624,57624,57624,57624,57624,57624,57624,57624,57624,57624,57624,57624,57624,57624,57624,57624,57624,57624,57624,57624,57624,57624,57624,57624,57624,57624,57624,57624,57624,57624,57624,57624,57624,57624,57624,57624,57624,57624,57624,57624,57624,57628,57624,57624,57624,57624,57624,57624,57624,57624,57624,57624,57624,57624,57624,57624,57624,57624,57624,57624,57624,57624,57624,57624,
57624,57624,57624,57624,57624,57624,57624,57624,57624,57624,57624,57624,57624,57624,57624,57625,57624,57624,57624,57624,57624,57624,57624,57624,57624,57624,57624,57624,57624,57624,57624,57624,57624,57624,57624,57624,57624,57624,57624,57624,57624,57624,57624,57624,57624,57624,57624,57624,57624,57624,57624,57624,57624,57624,57624,57624,57624,57624,57624,57624,57624,57624,57624,57624,57624,57624,57624,57624,57624,57624,57624,57624,57624,57624,57624,57669,57669,57669,57669,57670,57669,57669,57669,57670,57669,57669,57669,57670,57671,57669,57670,57670,57669,57669,57669,57670,57671,57669,57671,57671,57669,57669,57670,57669,57669,57670,57669,57669,57671,57670,57624,57624,57624,57624,57624,57624,57624,57624,57624,57624,57624,57624,57624,57624,57624,57624,57624,57624,57624,57624,57624,57624,57624,57624,57624,57624,57624,57624,57624,57624,57624,57624,57624,57624,57624,57624,57624,57624,57624,57624,57624,57624,57624,57624,57624,57624,57624,57624,57624,57624,57624,57624,57624,57624,57624,57624,57624,57624,57624,57624,57624,57624,57624,57624,57624,57624,57624,57624,57624,57624,57624,57624,57624,57624,57624,57624,57624,57624,57624,57624,57624,57624,57624,57624,57624,57624,57624,57624,57624,57624,57624,57624,57624,57624,57624,57624,57624,57624,57624,57624,57624,57624,57624,57624,57624,57624,57624,57624,57624,57624,57624,57624,57624,57624,57624,57624,57624,57624,57624,57624,57624,57624,57624,57624,57624,57624,57624,57624,57624,57624,
57624,57627,57624,57624,57624,57624,57624,57624,57624,57624,57624,57624,57624,57624,57624,57624,57624,57624,57624,57624,57624,57624,57624,57624,57624,57624,57624,57624,57624,57624,57624,57624,57624,57624,57624,57624,57624,57624,57624,57624,57624,57624,57624,57624,57624,57624,57624,57624,57624,57624,57624,57624,57624,57624,57624,57624,57624,57624,57624,57624,57624,57624,57624,57624,57624,57624,57624,57624,57624,57624,57624,57624,57624,57624,57624,57671,57669,57669,57669,57670,57670,57671,57669,57669,57669,57670,57669,57670,57670,57670,57671,57671,57669,57670,57669,57669,57669,57670,57670,57670,57669,57670,57670,57669,57669,57669,57669,57670,57670,57670,57624,57624,57624,57624,57624,57624,57624,57624,57624,57624,57624,57624,57624,57624,57624,57624,57624,57624,57624,57624,57624,57624,57624,57624,57624,57624,57624,57624,57624,57625,57624,57624,57624,57624,57628,57624,57624,57624,57624,57624,57624,57624,57624,57624,57624,57624,57624,57624,57624,57624,57624,57624,57624,57624,57624,57624,57624,57624,57624,57624,57624,57624,57624,57624,57624,57624,57624,57624,57624,57624,57624,57624,57624,57624,57624,57624,57624,57624,57624,57624,57624,57624,57624,57624,57624,57624,57624,57624,57624,57624,57624,57624,57624,57624,57624,57624,57624,57624,57624,57624,57624,57624,57624,57624,57624,57624,57624,57624,57624,57624,57624,57624,57624,57624,57624,57624,57624,57624,57624,57624,57624,57624,57624,57624,57624,57624,57624,57624,57624,57624,
57624,57624,57624,57624,57624,57624,57624,57624,57624,57624,57624,57624,57624,57624,57624,57624,57624,57624,57624,57624,57624,57624,57624,57624,57624,57624,57629,57624,57624,57624,57624,57624,57624,57624,57624,57624,57624,57624,57624,57624,57624,57624,57624,57624,57624,57624,57624,57624,57624,57624,57624,57624,57624,57624,57624,57624,57624,57624,57624,57624,57624,57624,57624,57624,57624,57624,57624,57624,57624,57624,57624,57624,57624,57624,57624,57669,57670,57669,57670,57670,57670,57671,57669,57670,57670,57669,57669,57669,57670,57670,57670,57669,57671,57670,57669,57669,57669,57670,57670,57669,57669,57671,57671,57670,57671,57670,57669,57669,57669,57669,57624,57624,57626,57624,57624,57624,57624,57624,57624,57624,57624,57624,57624,57624,57624,57624,57624,57624,57624,57624,57624,57624,57624,57624,57624,57624,57624,57624,57624,57624,57624,57624,57624,57624,57624,57624,57624,57624,57624,57624,57624,57624,57624,57624,57624,57624,57624,57624,57624,57624,57624,57624,57624,57624,57624,57624,57624,57624,57624,57624,57624,57624,57624,57624,57624,57624,57624,57624,57624,57624,57624,57624,57624,57624,57624,57624,57624,57624,57624,57624,57624,57624,57624,57624,57624,57624,57624,57624,57624,57624,57624,57624,57624,57624,57624,57624,57624,57624,57624,57624,57624,57624,57624,57624,57624,57624,57624,57624,57624,57624,57624,57624,57624,57624,57624,57624,57624,57624,57624,57624,57624,57624,57624,57624,57624,57624,57624,57624,57624,57624,
57624,57624,57624,57624,57624,57624,57624,57624,57624,57624,57624,57624,57624,57624,57624,57624,57624,57624,57624,57624,57624,57624,57624,57624,57624,57624,57624,57624,57624,57624,57624,57624,57624,57624,57624,57624,57624,57624,57624,57624,57624,57624,57624,57624,57624,57624,57624,57624,57624,57624,57624,57624,57624,57624,57624,57624,57624,57624,57624,57624,57624,57624,57624,57624,57624,57624,57624,57624,57624,57624,57624,57624,57624,57624,57624,57669,57670,57671,57669,57669,57671,57669,57671,57670,57670,57669,57669,57669,57669,57671,57669,57669,57669,57669,57669,57671,57671,57671,57669,57669,57669,57671,57670,57669,57670,57669,57671,57670,57669,57671,57624,57624,57624,57624,57624,57624,57624,57624,57624,57624,57624,57624,57624,57624,57624,57624,57624,57624,57624,57624,57624,57624,57624,57624,57624,57624,57624,57624,57624,57624,57624,57624,57624,57624,57624,57624,57624,57624,57624,57624,57624,57624,57624,57624,57624,57624,57624,57624,57624,57624,57624,57624,57624,57624,57624,57624,57624,57624,57624,57624,57624,57625,57624,57624,57624,57624,57624,57624,57624,57624,57624,57624,57624,57624,57624,57624,57624,57624,57624,57624,57624,57624,57624,57624,57624,57624,57624,57624,57624,57624,57624,57624,57624,57624,57624,57624,57624,57624,57624,57624,57624,57624,57624,57624,57624,57624,57624,57624,57624,57624,57624,57624,57624,57624,57624,57624,57624,57624,57624,57624,57624,57624,57624,57624,57624,57624,57624,57624,57624,57624,
57624,57624,57624,57624,57624,57624,57624,57624,57624,57624,57624,57624,57624,57624,57624,57624,57624,57624,57624,57624,57624,57624,57624,57624,57624,57624,57624,57624,57624,57624,57624,57624,57624,57624,57624,57624,57624,57624,57624,57624,57624,57624,57624,57624,57624,57624,57624,57624,57624,57624,57624,57624,57624,57624,57624,57624,57624,57624,57624,57624,57624,57624,57624,57624,57624,57624,57624,57624,57624,57624,57624,57624,57624,57624,57624,57670,57669,57670,57669,57670,57669,57669,57669,57671,57669,57669,57670,57671,57670,57670,57669,57669,57670,57669,57670,57670,57670,57670,57670,57671,57670,57669,57670,57669,57669,57669,57669,57670,57669,57671,57624,57624,57624,57624,57624,57624,57624,57624,57624,57624,57624,57624,57624,57624,57624,57624,57624,57624,57624,57624,57624,57624,57624,57624,57624,57624,57624,57624,57624,57624,57624,57624,57624,57624,57624,57624,57624,57624,57624,57624,57624,57624,57624,57624,57624,57624,57624,57624,57624,57624,57624,57624,57624,57624,57624,57624,57624,57624,57624,57624,57624,57624,57624,57624,57624,57629,57624,57624,57624,57624,57624,57624,57624,57624,57624,57624,57624,57624,57624,57624,57624,57624,57624,57624,57624,57624,57624,57624,57624,57624,57624,57624,57624,57624,57624,57624,57624,57624,57624,57624,57624,57624,57624,57624,57624,57624,57624,57624,57624,57624,57624,57624,57624,57624,57624,57624,57624,57624,57624,57624,57624,57624,57624,57624,57624,57624,57624,57624,57624,57624,
57624,57624,57624,57624,57624,57624,57624,57624,57624,57624,57624,57624,57624,57624,57624,57624,57624,57624,57624,57624,57624,57624,57624,57624,57624,57624,57624,57624,57624,57624,57624,57624,57624,57624,57624,57624,57624,57624,57624,57624,57624,57624,57624,57624,57624,57624,57624,57624,57624,57624,57624,57626,57624,57624,57624,57624,57624,57624,57624,57624,57624,57624,57624,57624,57624,57624,57624,57624,57624,57624,57624,57624,57624,57624,57624,57671,57670,57669,57669,57670,57669,57669,57669,57671,57671,57669,57669,57670,57669,57669,57669,57669,57671,57669,57670,57671,57669,57669,57669,57669,57670,57671,57670,57670,57670,57669,57669,57670,57670,57670,57624,57624,57624,57624,57624,57627,57624,57624,57624,57624,57624,57624,57624,57624,57624,57624,57624,57624,57624,57624,57624,57624,57627,57624,57624,57624,57624,57624,57624,57624,57624,57624,57624,57624,57624,57624,57624,57624,57624,57624,57624,57624,57624,57624,57624,57624,57624,57624,57624,57624,57624,57624,57624,57624,57624,57624,57624,57624,57624,57624,57624,57624,57624,57624,57624,57624,57624,57624,57624,57624,57624,57624,57624,57624,57624,57624,57624,57624,57624,57624,57624,57624,57624,57624,57624,57624,57624,57624,57624,57624,57624,57624,57624,57624,57624,57624,57624,57624,57624,57624,57624,57624,57624,57624,57624,57624,57624,57624,57624,57624,57624,57624,57624,57624,57624,57624,57624,57624,57624,57624,57624,57624,57624,57624,57624,57624,57624,57624,57624,57624,
57624,57624,57624,57624,57624,57624,57624,57624,57624,57624,57624,57624,57624,57624,57626,57624,57624,57624,57624,57624,57624,57624,57624,57624,57624,57624,57624,57624,57624,57624,57624,57624,57624,57624,57624,57624,57624,57624,57628,57624,57624,57624,57624,57624,57624,57624,57624,57624,57624,57624,57624,57624,57624,57624,57624,57624,57624,57624,57624,57624,57624,57624,57624,57624,57624,57624,57624,57624,57624,57624,57624,57624,57624,57624,57624,57669,57670,57669,57669,57669,57670,57669,57669,57671,57669,57669,57670,57669,57671,57669,57670,57669,57669,57671,57671,57669,57670,57669,57669,57671,57671,57669,57670,57670,57670,57670,57670,57669,57669,57670,57624,57624,57624,57624,57624,57624,57624,57624,57624,57624,57624,57624,57624,57624,57624,57624,57624,57624,57624,57624,57624,57624,57624,57624,57624,57624,57624,57624,57624,57624,57624,57624,57624,57624,57624,57624,57624,57624,57624,57624,57624,57624,57624,57624,57624,57624,57624,57624,57624,57624,57624,57624,57624,57624,57624,57624,57624,57624,57624,57624,57624,57624,57624,57624,57624,57624,57624,57624,57624,57624,57624,57624,57624,57624,57624,57624,57624,57624,57624,57624,57624,57624,57624,57624,57624,57624,57624,57624,57624,57624,57624,57624,57624,57624,57624,57624,57624,57624,57624,57624,57624,57624,57624,57624,57624,57624,57624,57624,57624,57624,57624,57624,57624,57624,57624,57624,57624,57624,57624,57624,57624,57624,57624,57624,57624,57624,57624,57624,57624,57624,
57624,57624,57624,57624,57624,57624,57624,57624,57624,57624,57624,57624,57624,57624,57624,57624,57624,57624,57624,57624,57624,57624,57624,57624,57624,57624,57624,57624,57624,57624,57624,57624,57624,57624,57624,57624,57624,57624,57624,57624,57624,57624,57624,57624,57624,57624,57624,57624,57624,57624,57624,57624,57624,57624,57624,57624,57624,57624,57624,57624,57624,57624,57624,57624,57624,57624,57624,57624,57624,57624,57624,57624,57624,57624,57624,57669,57669,57670,57669,57670,57670,57669,57671,57670,57669,57670,57670,57669,57671,57671,57669,57670,57669,57669,57669,57671,57670,57669,57669,57670,57669,57671,57669,57669,57670,57671,57669,57671,57670,57669,57669,57624,57624,57624,57624,57624,57624,57624,57624,57624,57625,57624,57624,57624,57624,57624,57624,57624,57624,57624,57624,57624,57624,57624,57624,57624,57624,57624,57624,57624,57624,57624,57624,57624,57624,57624,57624,57624,57624,57624,57624,57624,57624,57624,57624,57624,57624,57624,57624,57624,57624,57624,57624,57624,57624,57624,57624,57624,57624,57624,57624,57624,57624,57624,57624,57624,57624,57624,57624,57624,57624,57624,57624,57628,57624,57624,57624,57624,57624,57624,57624,57624,57624,57624,57624,57624,57624,57624,57624,57624,57624,57624,57625,57624,57624,57624,57624,57624,57624,57624,57624,57624,57624,57624,57624,57624,57624,57624,57624,57624,57624,57624,57624,57624,57624,57624,57624,57624,57624,57624,57624,57624,57624,57624,57624,57624,57624,57628,57624,57624,
57624,57624,57624,57624,57624,57624,57624,57624,57624,57624,57624,57624,57624,57624,57624,57624,57624,57624,57624,57624,57624,57624,57624,57624,57624,57624,57624,57624,57624,57624,57624,57624,57624,57624,57624,57624,57624,57624,57624,57624,57624,57624,57624,57624,57624,57624,57624,57624,57624,57624,57624,57624,57624,57624,57624,57624,57624,57624,57624,57624,57624,57624,57624,57624,57624,57624,57624,57624,57624,57624,57624,57624,57624,57624,57624,57669,57670,57669,57671,57670,57671,57669,57669,57670,57670,57669,57671,57669,57669,57669,57670,57669,57669,57671,57670,57670,57669,57669,57671,57669,57669,57670,57669,57670,57670,57669,57669,57671,57670,57669,57669,57624,57624,57624,57624,57624,57624,57624,57624,57624,57624,57624,57624,57624,57624,57624,57624,57624,57624,57624,57624,57624,57624,57624,57624,57624,57624,57624,57624,57624,57624,57624,57624,57624,57624,57624,57624,57624,57624,57624,57624,57624,57624,57624,57624,57624,57624,57624,57624,57624,57624,57624,57624,57624,57624,57624,57624,57624,57624,57624,57624,57624,57624,57624,57624,57624,57624,57624,57624,57624,57624,57624,57624,57624,57624,57624,57624,57624,57624,57624,57624,57624,57624,57624,57624,57624,57624,57624,57624,57624,57624,57624,57624,57624,57624,57624,57624,57624,57624,57624,57624,57624,57624,57624,57624,57624,57624,57624,57624,57624,57624,57624,57624,57624,57624,57624,57624,57624,57624,57624,57624,57624,57624,57624,57624,57624,57624,57624,57624,57624,
57624,57624,57624,57624,57624,57624,57624,57624,57624,57624,57624,57624,57624,57624,57624,57624,57624,57624,57624,57624,57624,57624,57624,57624,57624,57624,57624,57624,57624,57624,57624,57624,57624,57624,57624,57624,57624,57624,57624,57624,57624,57624,57624,57624,57624,57624,57624,57624,57624,57624,57624,57624,57624,57624,57624,57624,57624,57624,57624,57624,57624,57624,57624,57624,57624,57624,57624,57624,57624,57624,57624,57624,57624,57624,57624,57670,57670,57669,57671,57669,57669,57670,57669,57670,57669,57669,57669,57669,57669,57671,57670,57670,57670,57669,57671,57669,57670,57669,57669,57670,57670,57670,57671,57669,57669,57670,57669,57669,57671,57670,57669,57624,57624,57624,57624,57624,57624,57624,57624,57624,57624,57624,57624,57624,57628,57624,57624,57624,57624,57624,57624,57624,57624,57624,57624,57624,57624,57624,57624,57624,57624,57624,57624,57624,57624,57624,57624,57624,57624,57624,57624,57624,57624,57624,57624,57624,57624,57624,57624,57624,57624,57624,57624,57624,57624,57624,57624,57624,57624,57624,57624,57624,57624,57624,57624,57624,57624,57624,57624,57624,57624,57624,57624,57624,57624,57624,57624,57624,57624,57624,57624,57624,57624,57624,57624,57624,57624,57624,57624,57624,57624,57624,57624,57624,57624,57624,57624,57624,57624,57624,57624,57624,57624,57624,57624,57624,57624,57624,57624,57624,57624,57624,57624,57624,57624,57624,57624,57624,57624,57624,57624,57624,57624,57624,57624,57624,57624,57624,57624,57624,
57624,57624,57624,57624,57624,57624,57624,57624,57624,57624,57624,57624,57624,57624,57624,57624,57624,57624,57624,57624,57624,57624,57624,57624,57624,57624,57624,57624,57624,57624,57624,57624,57624,57624,57624,57624,57624,57624,57624,57624,57624,57624,57624,57624,57624,57624,57624,57624,57624,57629,57624,57624,57624,57624,57624,57624,57624,57624,57624,57624,57624,57624,57624,57624,57624,57624,57624,57624,57624,57624,57624,57624,57624,57624,57624,57670,57669,57670,57669,57669,57669,57670,57670,57669,57671,57669,57669,57669,57669,57669,57669,57670,57669,57669,57669,57669,57670,57669,57670,57671,57670,57671,57669,57669,57670,57669,57669,57671,57669,57669,57670,57624,57624,57624,57624,57624,57624,57624,57624,57624,57624,57624,57624,57624,57624,57624,57624,57624,57624,57624,57624,57624,57624,57624,57624,57624,57624,57624,57624,57624,57624,57624,57624,57624,57624,57624,57624,57624,57624,57624,57624,57624,57624,57624,57624,57624,57624,57624,57624,57624,57624,57624,57624,57624,57624,57624,57624,57624,57624,57624,57624,57624,57624,57624,57624,57624,57624,57624,57624,57624,57624,57624,57624,57624,57624,57624,57624,57624,57624,57624,57624,57624,57624,57624,57624,57624,57624,57624,57624,57624,57624,57624,57624,57624,57624,57624,57624,57624,57624,57624,57624,57624,57624,57624,57624,57624,57624,57624,57624,57624,57624,57624,57624,57624,57624,57624,57624,57624,57624,57624,57624,57624,57624,57624,57624,57624,57624,57624,57624,57624,
57624,57624,57624,57624,57624,57624,57624,57624,57624,57624,57627,57624,57624,57624,57624,57624,57624,57624,57624,57624,57624,57624,57624,57624,57624,57624,57624,57624,57624,57624,57624,57624,57624,57624,57624,57624,57624,57624,57624,57624,57624,57624,57624,57624,57624,57624,57624,57624,57624,57624,57627,57624,57624,57624,57624,57624,57624,57624,57624,57624,57624,57624,57624,57624,57624,57624,57624,57624,57624,57624,57624,57624,57624,57624,57624,57670,57669,57670,57669,57671,57670,57670,57670,57669,57669,57670,57670,57669,57669,57669,57671,57670,57670,57671,57671,57669,57669,57669,57670,57669,57670,57669,57670,57670,57669,57669,57669,57669,57670,57671,57670,57624,57624,57624,57624,57624,57624,57624,57624,57624,57624,57624,57624,57624,57624,57624,57624,57624,57624,57624,57624,57624,57624,57624,57624,57624,57624,57627,57624,57624,57624,57624,57624,57624,57624,57624,57624,57624,57624,57624,57624,57624,57625,57624,57624,57624,57624,57624,57624,57624,57624,57624,57624,57624,57624,57624,57624,57624,57624,57624,57624,57624,57624,57624,57624,57624,57624,57624,57624,57624,57624,57624,57624,57624,57624,57624,57624,57624,57624,57624,57624,57624,57624,57624,57624,57624,57624,57624,57624,57624,57624,57624,57624,57624,57624,57624,57624,57624,57624,57624,57624,57624,57624,57624,57624,57624,57624,57624,57624,57624,57624,57624,57628,57624,57628,57624,57624,57624,57624,57624,57624,57624,57624,57624,57624,57624,57624,57624,57624,57624,
57624,57624,57624,57624,57624,57624,57624,57624,57624,57624,57624,57624,57624,57624,57624,57624,57624,57624,57624,57624,57626,57624,57624,57624,57624,57624,57624,57624,57624,57624,57624,57624,57624,57624,57624,57624,57624,57624,57624,57624,57624,57624,57624,57624,57624,57624,57624,57624,57624,57624,57624,57624,57624,57624,57624,57624,57624,57624,57624,57624,57624,57624,57624,57624,57624,57624,57624,57624,57624,57624,57624,57624,57624,57624,57624,57670,57670,57669,57670,57669,57669,57671,57671,57669,57670,57670,57669,57670,57670,57669,57669,57670,57671,57670,57669,57669,57669,57671,57670,57670,57669,57671,57669,57669,57669,57669,57671,57671,57670,57669,57670,57624,57624,57624,57624,57624,57624,57624,57624,57624,57624,57624,57624,57624,57624,57624,57624,57624,57624,57624,57624,57624,57624,57624,57624,57624,57624,57624,57624,57624,57624,57624,57624,57624,57624,57624,57624,57624,57624,57624,57624,57624,57624,57624,57624,57624,57624,57624,57624,57624,57624,57624,57624,57624,57624,57626,57624,57624,57624,57624,57624,57624,57624,57624,57624,57624,57624,57624,57624,57624,57624,57624,57624,57624,57624,57624,57624,57624,57624,57624,57624,57624,57624,57624,57624,57624,57624,57624,57624,57624,57624,57624,57624,57624,57624,57624,57624,57624,57624,57624,57624,57624,57624,57624,57624,57624,57624,57624,57624,57624,57624,57624,57624,57624,57624,57624,57624,57624,57624,57624,57624,57624,57624,57624,57624,57624,57624,57624,57624,57624,
57624,57624,57624,57624,57624,57624,57624,57624,57624,57624,57624,57624,57624,57624,57624,57624,57624,57624,57624,57624,57624,57624,57624,57624,57624,57624,57624,57624,57624,57624,57624,57624,57624,57624,57624,57624,57624,57624,57624,57624,57624,57624,57624,57624,57624,57624,57624,57624,57624,57624,57624,57624,57624,57624,57624,57624,57624,57624,57624,57624,57624,57624,57624,57624,57624,57624,57624,57624,57624,57624,57624,57624,57624,57624,57624,57671,57671,57670,57669,57670,57670,57671,57671,57670,57669,57669,57671,57669,57669,57669,57669,57670,57669,57670,57670,57669,57671,57670,57669,57670,57670,57669,57670,57671,57669,57671,57670,57671,57669,57669,57670,57625,57624,57624,57624,57624,57624,57624,57624,57624,57624,57624,57624,57624,57626,57624,57624,57624,57624,57624,57624,57624,57624,57624,57624,57624,57624,57624,57624,57624,57624,57624,57624,57624,57624,57624,57624,57624,57624,57624,57624,57624,57624,57624,57624,57624,57624,57624,57624,57624,57624,57624,57624,57624,57624,57624,57624,57624,57624,57624,57624,57624,57624,57624,57624,57624,57624,57624,57624,57624,57624,57624,57624,57624,57624,57624,57624,57624,57624,57624,57624,57624,57624,57624,57624,57624,57624,57624,57624,57624,57624,57624,57624,57624,57624,57624,57624,57624,57624,57624,57624,57624,57624,57624,57624,57624,57624,57624,57624,57624,57624,57624,57624,57624,57624,57624,57624,57624,57624,57624,57624,57624,57624,57624,57624,57624,57624,57624,57624,57624,
57624,57624,57624,57624,57624,57624,57624,57624,57624,57624,57624,57624,57624,57624,57624,57624,57624,57624,57624,57624,57624,57624,57624,57624,57629,57624,57629,57624,57624,57624,57624,57624,57624,57624,57624,57624,57624,57624,57624,57624,57624,57624,57624,57624,57624,57624,57624,57624,57624,57624,57624,57624,57624,57624,57624,57624,57624,57624,57624,57624,57624,57624,57624,57624,57624,57624,57624,57626,57624,57624,57624,57624,57624,57624,57624,57670,57669,57669,57671,57670,57669,57669,57669,57669,57669,57669,57671,57671,57671,57670,57670,57669,57670,57670,57669,57670,57669,57671,57669,57669,57669,57669,57670,57670,57669,57669,57669,57669,57669,57669,57669,57624,57624,57624,57624,57624,57624,57624,57624,57624,57624,57624,57624,57624,57624,57624,57624,57624,57624,57624,57624,57624,57624,57624,57624,57624,57624,57624,57624,57624,57624,57624,57624,57624,57624,57624,57624,57624,57624,57624,57624,57624,57624,57624,57624,57624,57624,57624,57624,57624,57624,57624,57624,57624,57624,57624,57624,57624,57624,57624,57624,57624,57624,57624,57624,57624,57624,57624,57624,57624,57624,57624,57624,57624,57624,57624,57624,57624,57624,57624,57624,57624,57624,57624,57624,57624,57624,57624,57624,57624,57624,57624,57624,57624,57624,57624,57624,57624,57624,57624,57624,57624,57624,57624,57624,57624,57624,57624,57624,57624,57624,57624,57624,57624,57624,57624,57624,57624,57624,57624,57624,57624,57624,57624,57624,57624,57624,57624,57624,57624,
57624,57624,57624,57624,57624,57624,57624,57624,57624,57624,57624,57624,57624,57624,57624,57624,57624,57624,57624,57624,57624,57624,57624,57624,57624,57624,57624,57624,57624,57624,57624,57624,57624,57624,57624,57624,57624,57624,57624,57624,57624,57624,57624,57624,57624,57624,57624,57624,57624,57624,57624,57624,57624,57624,57624,57624,57624,57624,57624,57624,57624,57624,57624,57624,57624,57624,57624,57624,57624,57624,57624,57624,57624,57624,57624,57669,57670,57671,57669,57669,57669,57669,57669,57669,57670,57669,57670,57670,57669,57670,57670,57670,57670,57671,57669,57669,57670,57670,57669,57670,57669,57670,57670,57670,57670,57669,57670,57670,57670,57671,57669,57624,57624,57624,57624,57624,57624,57624,57624,57624,57624,57624,57624,57624,57624,57624,57624,57624,57624,57624,57624,57624,57624,57624,57624,57624,57624,57624,57624,57624,57624,57624,57624,57624,57624,57624,57624,57624,57624,57624,57624,57624,57624,57624,57624,57624,57624,57624,57624,57624,57624,57624,57624,57624,57624,57624,57624,57624,57624,57624,57624,57624,57624,57624,57624,57624,57624,57624,57624,57624,57624,57624,57624,57624,57624,57624,57624,57624,57624,57624,57624,57624,57624,57624,57624,57624,57624,57624,57624,57624,57624,57624,57624,57624,57624,57624,57624,57624,57624,57624,57624,57624,57624,57624,57624,57624,57624,57624,57624,57624,57624,57624,57624,57624,57624,57624,57628,57624,57624,57624,57624,57624,57624,57624,57624,57624,57624,57624,57624,57624,
57624,57624,57624,57624,57624,57624,57624,57624,57624,57624,57624,57624,57624,57624,57624,57624,57624,57624,57624,57624,57624,57624,57624,57624,57624,57624,57624,57624,57624,57624,57624,57624,57624,57624,57624,57624,57624,57624,57624,57624,57624,57624,57624,57624,57624,57624,57624,57624,57624,57624,57624,57624,57624,57624,57624,57624,57624,57624,57624,57624,57624,57624,57624,57624,57624,57624,57624,57624,57624,57624,57624,57624,57624,57624,57624,57669,57670,57670,57669,57669,57670,57671,57669,57669,57670,57669,57669,57669,57670,57669,57671,57669,57671,57669,57670,57671,57669,57669,57669,57669,57669,57669,57669,57671,57670,57671,57671,57670,57671,57669,57670,57624,57624,57624,57624,57624,57624,57624,57624,57624,57624,57624,57624,57624,57624,57624,57624,57624,57624,57624,57624,57624,57624,57624,57624,57624,57624,57624,57624,57624,57624,57624,57624,57628,57624,57624,57624,57624,57624,57624,57624,57624,57624,57624,57624,57624,57624,57624,57624,57624,57624,57624,57624,57624,57624,57624,57624,57624,57624,57624,57624,57624,57624,57624,57624,57624,57624,57624,57624,57624,57624,57624,57624,57624,57624,57624,57624,57624,57624,57624,57624,57624,57624,57624,57624,57624,57624,57624,57624,57624,57624,57624,57624,57624,57624,57626,57624,57624,57624,57624,57624,57624,57624,57624,57624,57624,57624,57624,57624,57624,57624,57624,57624,57624,57624,57624,57624,57624,57624,57624,57624,57624,57624,57624,57624,57624,57624,57624,57624,57624,
57624,57624,57624,57624,57624,57624,57624,57624,57624,57624,57624,57624,57624,57624,57624,57624,57624,57624,57624,57624,57624,57624,57624,57624,57624,57624,57624,57624,57624,57624,57624,57624,57624,57624,57624,57624,57624,57624,57624,57624,57624,57624,57624,57624,57624,57624,57624,57624,57624,57624,57624,57624,57624,57624,57624,57624,57624,57624,57624,57624,57624,57624,57624,57624,57624,57624,57624,57624,57624,57624,57624,57624,57624,57624,57624,57669,57671,57669,57670,57671,57670,57669,57670,57669,57669,57669,57670,57669,57670,57670,57669,57669,57669,57669,57670,57671,57669,57669,57670,57671,57670,57670,57670,57669,57670,57669,57671,57669,57670,57670,57669,57624,57624,57626,57624,57624,57624,57624,57624,57624,57624,57624,57624,57624,57624,57624,57624,57624,57624,57624,57624,57624,57624,57624,57624,57624,57624,57624,57624,57624,57624,57624,57624,57624,57624,57624,57624,57624,57624,57624,57624,57624,57624,57624,57624,57624,57624,57624,57624,57624,57624,57624,57625,57624,57624,57624,57624,57624,57624,57624,57624,57624,57624,57624,57624,57624,57624,57624,57624,57624,57624,57624,57624,57624,57624,57624,57624,57624,57624,57624,57624,57624,57624,57624,57624,57624,57624,57624,57624,57624,57624,57624,57624,57624,57624,57624,57624,57624,57624,57624,57624,57624,57624,57624,57624,57624,57624,57624,57624,57624,57624,57624,57624,57624,57624,57624,57624,57624,57624,57624,57624,57624,57624,57624,57624,57624,57624,57624,57624,57624,
57624,57624,57624,57624,57624,57624,57624,57624,57624,57624,57624,57624,57624,57624,57624,57624,57624,57624,57624,57624,57624,57624,57624,57624,57624,57624,57624,57624,57624,57624,57624,57624,57624,57624,57624,57624,57624,57624,57624,57624,57624,57624,57624,57624,57624,57624,57624,57624,57624,57624,57624,57624,57624,57624,57624,57624,57624,57624,57624,57624,57624,57624,57624,57624,57624,57624,57624,57624,57624,57624,57624,57624,57624,57624,57624,57670,57671,57671,57670,57669,57670,57670,57669,57669,57670,57671,57670,57670,57669,57671,57669,57669,57670,57670,57669,57669,57669,57669,57669,57670,57670,57670,57669,57670,57671,57669,57669,57669,57670,57670,57669,57624,57624,57624,57624,57624,57624,57624,57624,57624,57624,57624,57624,57624,57624,57624,57624,57624,57624,57624,57624,57624,57624,57624,57624,57624,57624,57624,57624,57624,57624,57624,57624,57624,57624,57624,57624,57624,57624,57624,57624,57624,57624,57624,57624,57624,57624,57624,57624,57624,57624,57624,57624,57624,57624,57624,57624,57624,57624,57624,57624,57624,57624,57624,57624,57626,57624,57624,57624,57624,57624,57624,57624,57624,57624,57624,57624,57624,57624,57624,57624,57624,57624,57624,57624,57624,57624,57624,57624,57624,57624,57624,57624,57624,57624,57624,57624,57624,57624,57624,57624,57624,57624,57624,57624,57624,57624,57624,57624,57624,57624,57624,57624,57624,57624,57624,57624,57624,57624,57624,57624,57624,57624,57624,57624,57624,57624,57624,57624,57624,
57624,57624,57624,57624,57624,57624,57624,57624,57624,57624,57624,57624,57624,57624,57624,57624,57625,57624,57624,57624,57624,57624,57624,57624,57624,57624,57624,57624,57624,57624,57624,57624,57624,57624,57624,57624,57624,57624,57624,57624,57624,57624,57624,57624,57624,57624,57624,57624,57624,57624,57624,57624,57624,57624,57624,57624,57624,57624,57624,57624,57624,57624,57624,57624,57624,57624,57624,57624,57624,57624,57624,57624,57624,57624,57624,57624,57624,57624,57624,57624,57624,57624,57624,57624,57624,57624,57624,57624,57624,57624,57624,57624,57624,57624,57624,57624,57624,57624,57624,57624,57624,57624,57624,57624,57627,57624,57624,57624,57624,57624,57624,57624,57624,57624,57624,57624,57624,57624,57624,57624,57624,57624,57624,57624,57624,57624,57624,57624,57624,57624,57624,57624,57624,57624,57624,57624,57624,57624,57624,57624,57624,57624,57624,57624,57624,57624,57624,57624,57624,57624,57624,57624,57624,57624,57624,57624,57624,57624,57624,57624,57624,57624,57624,57624,57624,57624,57624,57624,57626,57624,57624,57624,57624,57624,57624,57624,57624,57624,57624,57624,57624,57624,57624,57624,57624,57624,57624,57624,57624,57624,57624,57624,57624,57624,57624,57624,57624,57624,57624,57624,57624,57624,57624,57624,57624,57624,57624,57624,57624,57624,57624,57624,57624,57624,57624,57624,57624,57624,57624,57624,57624,57624,57624,57624,57624,57624,57624,57624,57624,57624,57624,57624,57624,57626,57624,57624,57624,57624,57624,57624,
57624,57624,57624,57625,57624,57624,57624,57624,57624,57624,57624,57624,57624,57624,57624,57624,57624,57624,57624,57624,57624,57624,57624,57624,57624,57624,57624,57624,57624,57624,57624,57624,57624,57624,57624,57624,57624,57624,57624,57624,57624,57624,57624,57624,57624,57624,57624,57624,57624,57624,57624,57624,57624,57624,57624,57624,57624,57624,57624,57624,57624,57624,57624,57624,57624,57624,57624,57624,57624,57624,57624,57624,57624,57624,57624,57624,57624,57624,57624,57624,57624,57624,57624,57624,57624,57624,57624,57624,57624,57624,57624,57624,57624,57624,57624,57624,57624,57624,57624,57624,57624,57624,57624,57624,57624,57624,57624,57624,57627,57624,57624,57624,57615,57608,57608,57608,57608,57608,57608,57608,57608,57608,57608,57608,57608,57608,57616,57624,57624,57624,57624,57624,57624,57624,57624,57624,57624,57624,57624,57624,57624,57624,57624,57624,57624,57624,57624,57624,57624,57624,57624,57624,57624,57624,57624,57624,57624,57627,57624,57624,57624,57624,57624,57624,57624,57624,57624,57624,57624,57626,57624,57624,57624,57624,57624,57624,57624,57624,57624,57624,57624,57624,57624,57624,57624,57624,57624,57624,57624,57624,57624,57624,57624,57624,57624,57624,57624,57624,57624,57624,57624,57624,57624,57624,57624,57624,57624,57624,57624,57624,57624,57624,57624,57624,57624,57624,57624,57624,57624,57624,57624,57624,57624,57624,57624,57624,57624,57624,57624,57624,57624,57624,57624,57624,57624,57624,57624,57624,57624,57624,
57624,57624,57624,57624,57624,57624,57624,57624,57624,57624,57624,57624,57624,57624,57624,57624,57624,57624,57624,57624,57624,57624,57624,57624,57624,57624,57624,57624,57624,57624,57624,57624,57624,57624,57624,57624,57624,57624,57624,57624,57624,57624,57624,57624,57624,57624,57624,57624,57624,57624,57624,57624,57624,57624,57624,57624,57624,57624,57624,57624,57624,57624,57624,57624,57624,57624,57624,57624,57624,57624,57624,57624,57624,57625,57624,57624,57624,57624,57624,57624,57624,57624,57624,57624,57624,57624,57624,57624,57624,57624,57624,57624,57624,57624,57624,57624,57624,57624,57624,57624,57624,57624,57624,57625,57624,57624,57624,57624,57624,57624,57624,57624,57613,57606,57606,57606,57606,57606,57606,57606,57606,57606,57606,57606,57606,57606,57614,57624,57624,57624,57624,57624,57624,57624,57624,57624,57624,57624,57624,57624,57624,57624,57624,57624,57624,57624,57624,57624,57624,57624,57624,57624,57624,57624,57624,57624,57624,57624,57624,57624,57627,57624,57624,57624,57624,57624,57624,57624,57624,57624,57624,57624,57624,57624,57624,57624,57624,57624,57624,57624,57624,57624,57624,57624,57624,57624,57624,57624,57624,57624,57624,57624,57624,57624,57624,57624,57624,57624,57624,57624,57624,57624,57624,57624,57624,57624,57624,57624,57624,57624,57624,57624,57624,57624,57624,57624,57624,57624,57624,57624,57624,57624,57624,57624,57624,57624,57624,57624,57624,57624,57624,57624,57624,57624,57624,57624,57624,57624,57624,57624,
57624,57624,57624,57624,57624,57624,57624,57624,57624,57624,57624,57624,57624,57624,57624,57624,57624,57624,57624,57624,57624,57624,57624,57624,57624,57624,57624,57624,57624,57624,57624,57624,57624,57624,57624,57624,57624,57624,57624,57624,57624,57624,57624,57624,57624,57624,57624,57624,57624,57624,57624,57624,57624,57624,57624,57624,57624,57624,57624,57624,57624,57624,57624,57624,57624,57624,57624,57624,57624,57624,57624,57624,57624,57624,57624,57624,57624,57624,57624,57624,57624,57624,57624,57624,57624,57624,57624,57624,57624,57624,57624,57624,57624,57624,57624,57627,57624,57624,57624,57624,57624,57624,57624,57624,57624,57624,57624,57624,57624,57624,57624,57624,57613,57606,57606,57606,57606,57606,57606,57606,57606,57606,57606,57606,57606,57606,57614,57624,57624,57624,57624,57624,57624,57624,57624,57624,57624,57624,57624,57624,57624,57624,57624,57624,57624,57624,57624,57624,57624,57624,57624,57624,57624,57624,57624,57624,57624,57624,57624,57624,57624,57624,57624,57624,57624,57624,57624,57624,57624,57624,57624,57624,57624,57624,57624,57624,57624,57624,57624,57624,57624,57624,57624,57624,57624,57624,57624,57624,57624,57624,57624,57624,57624,57624,57624,57624,57624,57624,57624,57624,57624,57624,57624,57624,57624,57624,57624,57624,57624,57624,57624,57624,57624,57624,57624,57624,57624,57624,57624,57624,57624,57624,57624,57624,57624,57624,57624,57624,57624,57624,57624,57624,57624,57624,57624,57624,57624,57624,57624,57624,
57624,57624,57624,57624,57624,57624,57624,57624,57624,57629,57624,57624,57624,57624,57624,57624,57624,57624,57624,57624,57624,57624,57624,57624,57624,57624,57624,57624,57624,57624,57624,57624,57624,57624,57624,57624,57624,57624,57624,57624,57624,57624,57624,57624,57624,57624,57624,57624,57624,57624,57624,57624,57624,57624,57624,57624,57624,57624,57624,57624,57624,57624,57624,57624,57624,57624,57624,57624,57624,57624,57624,57624,57624,57624,57624,57624,57624,57624,57624,57624,57624,57624,57624,57624,57624,57624,57624,57624,57624,57624,57624,57624,57624,57624,57624,57624,57624,57624,57624,57624,57624,57624,57624,57624,57624,57624,57624,57624,57624,57624,57624,57624,57613,57606,57606,57606,57606,57606,57606,57606,57606,57606,57606,57606,57606,57606,57614,57624,57624,57624,57624,57624,57624,57624,57624,57624,57624,57624,57624,57624,57624,57624,57624,57624,57624,57624,57624,57624,57624,57624,57624,57624,57624,57624,57624,57624,57626,57624,57624,57624,57624,57624,57624,57624,57624,57624,57624,57624,57624,57624,57669,57670,57671,57669,57670,57669,57670,57670,57671,57669,57671,57669,57669,57670,57670,57669,57671,57670,57669,57669,57670,57670,57670,57671,57671,57671,57669,57669,57670,57670,57624,57624,57624,57624,57624,57624,57624,57624,57624,57624,57624,57624,57624,57624,57624,57624,57624,57624,57624,57624,57624,57624,57624,57624,57624,57624,57624,57624,57624,57624,57624,57624,57624,57624,57624,57624,57624,57624,57626,57624,
57624,57624,57624,57624,57624,57624,57624,57624,57624,57624,57624,57624,57624,57624,57624,57624,57624,57624,57624,57624,57624,57624,57624,57624,57624,57624,57624,57624,57624,57624,57624,57624,57624,57624,57624,57624,57624,57624,57624,57624,57624,57624,57624,57624,57624,57624,57624,57624,57624,57624,57624,57624,57624,57624,57624,57624,57624,57624,57624,57624,57624,57624,57624,57624,57624,57624,57624,57624,57624,57624,57624,57624,57624,57624,57624,57624,57624,57624,57624,57624,57624,57624,57624,57624,57624,57624,57624,57624,57624,57624,57624,57624,57624,57624,57624,57624,57624,57624,57624,57624,57624,57624,57624,57624,57624,57624,57624,57624,57624,57624,57624,57624,57613,57606,57606,57606,57606,57606,57606,57606,57606,57606,57606,57606,57606,57606,57614,57624,57624,57624,57624,57624,57624,57624,57624,57624,57624,57624,57624,57624,57624,57624,57624,57624,57624,57624,57624,57624,57624,57624,57624,57624,57624,57624,57624,57624,57624,57624,57624,57624,57624,57624,57624,57624,57624,57624,57624,57624,57624,57624,57670,57670,57670,57671,57670,57671,57670,57669,57670,57670,57669,57671,57669,57669,57670,57670,57671,57669,57670,57670,57670,57671,57669,57670,57669,57670,57669,57669,57670,57670,57624,57624,57624,57624,57624,57624,57624,57624,57624,57624,57624,57624,57624,57624,57624,57624,57624,57624,57624,57624,57624,57624,57624,57624,57624,57624,57624,57624,57624,57624,57624,57624,57624,57624,57624,57624,57624,57624,57624,57624,
57624,57624,57624,57624,57624,57624,57624,57624,57624,57624,57624,57624,57624,57624,57624,57624,57624,57624,57624,57624,57624,57624,57624,57624,57624,57624,57624,57624,57624,57624,57624,57624,57624,57624,57624,57624,57624,57624,57624,57624,57624,57624,57624,57624,57624,57624,57624,57624,57624,57624,57624,57624,57624,57624,57624,57624,57624,57624,57624,57624,57624,57624,57624,57624,57624,57624,57624,57624,57624,57624,57624,57624,57624,57624,57624,57624,57624,57624,57624,57624,57624,57624,57624,57624,57624,57624,57624,57624,57624,57624,57624,57624,57624,57624,57624,57624,57628,57624,57624,57624,57624,57624,57624,57624,57624,57624,57624,57624,57624,57624,57624,57624,57613,57606,57606,57606,57606,57606,57606,57606,57606,57606,57606,57606,57606,57606,57614,57624,57624,57624,57624,57624,57624,57624,57624,57624,57624,57624,57624,57624,57624,57624,57624,57624,57624,57624,57624,57624,57624,57624,57624,57624,57624,57624,57624,57624,57624,57627,57624,57624,57624,57624,57624,57624,57624,57624,57624,57624,57624,57624,57670,57670,57669,57671,57670,57670,57669,57669,57670,57670,57670,57671,57669,57669,57671,57669,57669,57669,57671,57670,57670,57670,57669,57670,57671,57669,57669,57669,57670,57669,57624,57624,57624,57624,57624,57624,57624,57624,57624,57624,57624,57624,57624,57624,57624,57624,57624,57624,57624,57624,57624,57624,57624,57624,57624,57624,57624,57624,57624,57624,57624,57624,57624,57624,57624,57624,57624,57624,57624,57624,
57624,57624,57624,57624,57624,57624,57624,57624,57624,57624,57624,57624,57624,57624,57624,57624,57624,57624,57624,57624,57624,57624,57624,57624,57624,57624,57624,57624,57624,57624,57624,57624,57624,57624,57624,57624,57624,57629,57624,57624,57624,57624,57624,57626,57624,57624,57629,57624,57624,57624,57624,57624,57624,57624,57624,57624,57624,57624,57624,57624,57624,57624,57624,57624,57624,57624,57624,57624,57624,57624,57624,57624,57624,57624,57624,57670,57671,57669,57669,57671,57670,57669,57671,57670,57670,57671,57670,57670,57671,57669,57671,57670,57669,57670,57669,57670,57670,57671,57669,57624,57624,57624,57624,57624,57624,57624,57624,57624,57624,57624,57624,57624,57613,57606,57606,57606,57606,57606,57606,57606,57606,57606,57606,57606,57606,57606,57614,57624,57624,57624,57624,57624,57624,57624,57624,57624,57624,57624,57624,57624,57624,57624,57624,57624,57624,57624,57624,57624,57624,57624,57624,57624,57624,57624,57624,57624,57624,57624,57624,57624,57624,57624,57624,57624,57624,57624,57624,57624,57624,57624,57670,57669,57670,57669,57671,57669,57670,57671,57670,57671,57669,57670,57670,57671,57669,57671,57670,57669,57669,57671,57671,57669,57671,57669,57670,57671,57669,57669,57671,57669,57624,57624,57624,57624,57624,57624,57624,57624,57624,57629,57624,57624,57624,57624,57624,57624,57624,57624,57624,57624,57624,57624,57624,57624,57624,57624,57624,57624,57624,57624,57624,57624,57624,57624,57624,57624,57624,57624,57624,57624,
57624,57624,57624,57624,57624,57624,57624,57624,57624,57624,57624,57624,57624,57624,57624,57624,57624,57624,57624,57624,57624,57624,57624,57624,57624,57624,57624,57624,57624,57624,57624,57624,57624,57624,57624,57624,57624,57624,57624,57624,57624,57624,57624,57624,57624,57624,57624,57624,57624,57625,57624,57624,57624,57624,57624,57624,57624,57624,57624,57624,57624,57624,57624,57624,57624,57624,57624,57624,57624,57624,57624,57624,57624,57627,57624,57670,57671,57669,57669,57670,57671,57670,57671,57670,57670,57670,57669,57671,57670,57670,57670,57670,57670,57669,57669,57670,57671,57669,57670,57624,57624,57624,57624,57624,57624,57624,57627,57624,57624,57624,57624,57624,57613,57606,57606,57606,57606,57606,57606,57606,57606,57606,57606,57606,57606,57606,57614,57624,57624,57624,57624,57624,57624,57624,57624,57624,57624,57624,57624,57624,57624,57624,57624,57624,57624,57624,57624,57624,57624,57624,57624,57624,57624,57624,57624,57624,57624,57624,57624,57624,57624,57624,57624,57624,57624,57624,57624,57624,57624,57624,57669,57670,57669,57671,57670,57670,57669,57670,57671,57669,57669,57669,57670,57670,57671,57670,57669,57671,57670,57669,57670,57669,57670,57670,57670,57671,57669,57669,57669,57670,57624,57624,57624,57624,57624,57624,57624,57624,57624,57624,57624,57624,57624,57624,57624,57624,57624,57624,57624,57624,57624,57624,57624,57624,57624,57624,57624,57624,57624,57624,57624,57624,57624,57624,57624,57624,57624,57624,57624,57624,
57624,57624,57624,57624,57624,57624,57624,57624,57624,57624,57624,57624,57624,57624,57624,57624,57624,57624,57624,57624,57624,57624,57624,57624,57624,57624,57624,57624,57624,57624,57624,57624,57624,57624,57624,57624,57624,57624,57624,57624,57624,57624,57624,57624,57624,57624,57624,57624,57624,57624,57624,57624,57624,57624,57624,57624,57624,57624,57624,57624,57624,57624,57624,57624,57624,57624,57624,57624,57624,57624,57624,57624,57624,57624,57624,57669,57670,57670,57669,57669,57669,57671,57671,57670,57671,57670,57671,57671,57669,57671,57669,57671,57669,57670,57669,57670,57670,57670,57670,57624,57624,57624,57624,57624,57624,57624,57624,57624,57624,57624,57624,57624,57613,57606,57606,57606,57606,57606,57606,57606,57606,57606,57606,57606,57606,57606,57614,57624,57624,57624,57624,57624,57624,57624,57624,57624,57624,57624,57624,57624,57624,57624,57624,57624,57624,57624,57624,57624,57624,57624,57624,57624,57624,57624,57624,57624,57624,57624,57624,57624,57624,57624,57624,57624,57629,57624,57625,57624,57624,57624,57671,57671,57671,57671,57671,57670,57671,57671,57670,57669,57670,57669,57670,57671,57671,57670,57671,57669,57669,57670,57670,57671,57671,57669,57669,57670,57670,57669,57671,57671,57624,57624,57624,57624,57624,57624,57624,57624,57624,57624,57624,57624,57624,57624,57624,57624,57624,57624,57624,57624,57624,57624,57624,57624,57624,57624,57624,57624,57624,57624,57624,57624,57624,57624,57624,57624,57624,57624,57624,57624,
57624,57624,57624,57624,57624,57624,57624,57624,57624,57624,57624,57624,57624,57624,57624,57624,57624,57624,57624,57624,57624,57624,57624,57624,57624,57624,57624,57624,57624,57624,57624,57624,57624,57624,57624,57624,57624,57624,57624,57624,57624,57624,57624,57624,57624,57624,57624,57624,57624,57624,57624,57624,57624,57624,57624,57624,57624,57624,57624,57624,57624,57624,57624,57624,57624,57624,57624,57624,57624,57624,57624,57624,57624,57624,57624,57670,57669,57670,57671,57670,57671,57670,57670,57670,57670,57671,57669,57670,57669,57669,57670,57670,57670,57669,57671,57671,57669,57669,57670,57624,57624,57624,57624,57624,57624,57624,57624,57624,57624,57624,57624,57624,57613,57606,57606,57606,57606,57606,57606,57606,57606,57606,57606,57606,57606,57606,57614,57624,57624,57624,57624,57624,57624,57624,57624,57624,57624,57624,57624,57624,57624,57624,57624,57624,57625,57624,57624,57624,57624,57624,57624,57624,57624,57624,57624,57624,57624,57624,57624,57624,57624,57624,57624,57624,57624,57629,57624,57624,57624,57624,57671,57669,57670,57671,57669,57670,57669,57669,57671,57671,57671,57670,57669,57671,57670,57669,57671,57669,57670,57670,57669,57669,57670,57669,57669,57669,57671,57670,57669,57671,57624,57624,57624,57624,57624,57624,57624,57624,57624,57624,57624,57624,57624,57629,57624,57624,57624,57624,57624,57624,57624,57624,57624,57624,57624,57624,57624,57624,57624,57624,57624,57624,57624,57624,57624,57624,57624,57624,57624,57624,
57624,57624,57624,57624,57624,57624,57624,57624,57624,57624,57624,57624,57624,57624,57624,57624,57624,57624,57624,57624,57624,57624,57624,57624,57624,57624,57624,57624,57624,57624,57624,57624,57624,57624,57624,57624,57624,57624,57624,57624,57624,57624,57624,57624,57624,57624,57624,57624,57624,57624,57624,57624,57624,57624,57624,57624,57624,57624,57624,57624,57624,57624,57624,57624,57624,57624,57624,57624,57624,57624,57624,57624,57624,57624,57624,57669,57670,57669,57671,57669,57671,57671,57670,57670,57671,57671,57671,57671,57671,57670,57671,57671,57669,57669,57670,57671,57669,57671,57670,57624,57624,57624,57624,57624,57624,57624,57624,57624,57624,57629,57624,57624,57617,57611,57611,57611,57611,57611,57612,57606,57610,57611,57611,57611,57611,57611,57618,57624,57624,57624,57624,57624,57624,57624,57624,57624,57624,57624,57624,57624,57624,57624,57624,57624,57624,57624,57624,57624,57624,57624,57624,57624,57624,57624,57624,57624,57624,57624,57624,57624,57624,57624,57624,57624,57624,57624,57624,57624,57624,57624,57669,57669,57670,57670,57669,57669,57669,57670,57669,57670,57669,57670,57669,57669,57669,57671,57670,57670,57669,57669,57671,57669,57670,57669,57671,57671,57669,57671,57671,57670,57624,57624,57624,57624,57624,57624,57624,57624,57624,57624,57624,57624,57624,57624,57624,57624,57624,57624,57624,57624,57624,57624,57624,57624,57624,57624,57624,57624,57624,57624,57624,57624,57624,57624,57624,57624,57624,57624,57624,57624,
57624,57624,57624,57624,57624,57624,57624,57624,57624,57624,57624,57624,57624,57624,57624,57624,57624,57624,57624,57624,57624,57624,57624,57624,57624,57624,57624,57624,57624,57624,57624,57624,57624,57624,57624,57624,57624,57624,57624,57624,57624,57624,57624,57624,57624,57624,57628,57624,57624,57624,57624,57624,57624,57624,57624,57624,57624,57624,57624,57624,57624,57624,57624,57624,57624,57624,57624,57624,57624,57624,57624,57624,57624,57624,57624,57669,57671,57669,57670,57670,57669,57670,57671,57670,57670,57670,57669,57669,57670,57669,57669,57669,57670,57671,57669,57669,57671,57669,57670,57624,57624,57624,57624,57624,57624,57624,57624,57624,57624,57629,57624,57624,57624,57624,57624,57624,57624,57624,57613,57606,57614,57624,57624,57624,57624,57624,57624,57624,57624,57624,57624,57624,57624,57624,57624,57624,57624,57624,57624,57624,57624,57624,57624,57624,57624,57624,57624,57624,57624,57624,57624,57624,57624,57624,57624,57624,57624,57624,57624,57624,57624,57624,57624,57624,57624,57624,57624,57624,57624,57624,57671,57669,57669,57670,57669,57669,57669,57671,57669,57669,57669,57670,57670,57669,57670,57670,57671,57669,57670,57669,57670,57669,57671,57670,57670,57670,57669,57669,57671,57669,57624,57624,57624,57624,57624,57624,57624,57624,57624,57624,57624,57624,57624,57624,57624,57624,57624,57624,57624,57624,57624,57624,57624,57624,57624,57624,57624,57624,57624,57624,57624,57624,57624,57624,57624,57624,57624,57624,57624,57624,
57624,57624,57624,57624,57624,57624,57624,57624,57624,57624,57624,57624,57624,57624,57624,57624,57624,57627,57624,57624,57624,57624,57624,57624,57624,57624,57624,57624,57624,57624,57624,57624,57624,57624,57624,57624,57624,57624,57624,57624,57624,57624,57624,57624,57624,57624,57624,57624,57624,57624,57626,57624,57624,57624,57624,57624,57624,57624,57624,57624,57624,57624,57670,57671,57669,57669,57669,57670,57669,57669,57669,57670,57669,57670,57670,57669,57670,57670,57670,57670,57670,57670,57671,57670,57669,57670,57671,57669,57671,57671,57671,57669,57669,57669,57671,57671,57671,57669,57670,57624,57624,57624,57624,57624,57624,57624,57624,57624,57624,57624,57624,57624,57624,57624,57624,57624,57624,57624,57613,57606,57614,57624,57624,57624,57624,57624,57624,57628,57624,57624,57624,57624,57624,57624,57624,57624,57624,57624,57624,57624,57624,57624,57624,57624,57624,57624,57624,57624,57624,57624,57624,57624,57624,57624,57624,57624,57624,57624,57624,57624,57624,57624,57624,57624,57624,57624,57624,57624,57624,57624,57669,57670,57670,57671,57669,57669,57671,57669,57670,57671,57670,57671,57670,57669,57669,57670,57669,57671,57670,57671,57669,57671,57671,57669,57670,57669,57670,57671,57669,57669,57624,57624,57624,57624,57624,57624,57624,57624,57624,57624,57624,57624,57624,57624,57624,57624,57624,57624,57624,57624,57624,57624,57624,57624,57624,57624,57624,57624,57624,57624,57624,57624,57624,57624,57624,57624,57624,57624,57624,57624,
57624,57624,57624,57624,57624,57624,57624,57624,57624,57624,57624,57624,57624,57624,57624,57624,57624,57624,57624,57624,57624,57624,57624,57624,57624,57624,57624,57624,57624,57624,57624,57624,57624,57624,57624,57624,57624,57624,57624,57624,57624,57624,57624,57624,57624,57624,57624,57624,57624,57624,57624,57624,57624,57624,57624,57624,57624,57624,57624,57624,57624,57624,57670,57670,57671,57669,57669,57669,57669,57669,57669,57669,57670,57670,57669,57670,57670,57670,57671,57670,57669,57671,57670,57671,57670,57669,57670,57671,57671,57669,57669,57669,57669,57670,57670,57671,57669,57670,57670,57624,57624,57624,57624,57624,57624,57624,57624,57624,57624,57624,57624,57624,57624,57624,57624,57624,57624,57624,57613,57606,57614,57624,57624,57624,57624,57624,57624,57624,57624,57624,57624,57624,57624,57624,57624,57624,57624,57624,57624,57624,57624,57624,57624,57624,57624,57624,57625,57624,57624,57624,57624,57624,57624,57624,57624,57624,57624,57624,57624,57624,57624,57624,57624,57624,57624,57624,57624,57624,57624,57624,57670,57669,57669,57669,57671,57670,57669,57669,57669,57670,57669,57670,57671,57670,57669,57669,57669,57671,57670,57670,57671,57669,57670,57671,57671,57670,57670,57670,57670,57670,57624,57624,57624,57624,57624,57625,57624,57624,57624,57624,57624,57624,57624,57624,57624,57624,57624,57624,57624,57624,57624,57624,57624,57624,57624,57624,57624,57624,57624,57624,57624,57624,57624,57624,57624,57624,57624,57624,57624,57624,
57624,57624,57624,57624,57624,57624,57624,57624,57624,57624,57624,57624,57624,57624,57624,57624,57624,57624,57624,57624,57624,57624,57624,57624,57624,57624,57624,57624,57624,57624,57624,57624,57624,57624,57624,57624,57624,57624,57624,57624,57624,57624,57624,57624,57624,57624,57624,57624,57624,57624,57624,57624,57629,57624,57624,57624,57624,57624,57624,57624,57624,57624,57669,57671,57670,57669,57669,57670,57669,57671,57669,57671,57670,57669,57671,57671,57669,57670,57670,57671,57669,57670,57671,57670,57671,57671,57671,57671,57669,57671,57671,57671,57671,57670,57670,57669,57671,57671,57669,57624,57624,57624,57624,57624,57624,57624,57624,57624,57624,57624,57624,57624,57624,57624,57624,57624,57624,57624,57613,57606,57614,57624,57624,57624,57624,57624,57628,57624,57624,57624,57624,57624,57624,57624,57624,57624,57624,57624,57624,57624,57624,57624,57624,57624,57624,57624,57624,57624,57624,57624,57624,57624,57624,57624,57624,57624,57624,57624,57624,57624,57624,57624,57624,57624,57624,57624,57624,57624,57624,57624,57670,57669,57669,57669,57669,57669,57670,57669,57670,57670,57670,57669,57671,57670,57671,57670,57671,57669,57670,57671,57669,57671,57670,57670,57669,57670,57669,57670,57670,57670,57624,57624,57624,57624,57624,57624,57624,57624,57624,57624,57624,57624,57624,57624,57624,57624,57624,57624,57624,57627,57624,57624,57624,57624,57624,57624,57624,57624,57624,57624,57624,57624,57624,57624,57624,57624,57624,57624,57624,57624,
57624,57624,57624,57624,57624,57624,57624,57624,57624,57624,57624,57624,57624,57624,57624,57624,57624,57624,57624,57624,57624,57624,57624,57624,57624,57624,57624,57624,57624,57624,57624,57624,57624,57624,57624,57624,57624,57624,57624,57624,57624,57624,57624,57624,57624,57624,57624,57624,57624,57624,57624,57624,57624,57626,57624,57624,57624,57624,57624,57624,57624,57624,57669,57669,57669,57671,57671,57671,57670,57670,57671,57671,57670,57669,57669,57670,57671,57670,57670,57671,57671,57671,57671,57670,57670,57671,57670,57671,57671,57670,57669,57669,57670,57669,57670,57669,57669,57669,57670,57624,57624,57624,57624,57624,57624,57624,57624,57624,57624,57624,57624,57624,57624,57624,57624,57624,57624,57624,57613,57606,57614,57624,57624,57624,57624,57624,57624,57624,57624,57624,57624,57624,57624,57624,57624,57624,57624,57624,57624,57624,57624,57624,57624,57624,57624,57624,57624,57624,57624,57624,57624,57624,57624,57624,57624,57624,57624,57624,57624,57624,57624,57624,57624,57624,57624,57624,57624,57624,57624,57624,57670,57669,57671,57670,57671,57670,57669,57669,57670,57670,57670,57669,57671,57670,57670,57670,57670,57671,57671,57669,57670,57669,57671,57669,57671,57669,57669,57670,57671,57671,57624,57624,57624,57624,57624,57624,57624,57624,57624,57624,57624,57624,57624,57624,57624,57624,57624,57624,57624,57624,57624,57624,57624,57624,57624,57624,57624,57624,57624,57624,57624,57624,57624,57624,57624,57624,57624,57624,57624,57624,
57624,57627,57624,57624,57624,57624,57624,57624,57624,57624,57624,57624,57624,57624,57624,57624,57624,57624,57624,57624,57624,57624,57624,57624,57624,57624,57624,57624,57624,57624,57624,57624,57624,57624,57624,57624,57624,57624,57624,57624,57624,57624,57624,57624,57624,57624,57624,57624,57624,57624,57624,57624,57624,57624,57624,57624,57624,57624,57624,57624,57624,57624,57669,57669,57669,57670,57670,57669,57670,57669,57670,57669,57669,57671,57671,57670,57669,57671,57671,57670,57671,57669,57669,57670,57671,57669,57669,57669,57670,57671,57670,57670,57671,57669,57671,57671,57670,57671,57669,57624,57624,57624,57624,57624,57624,57624,57624,57624,57624,57624,57624,57624,57624,57627,57624,57624,57624,57624,57613,57606,57614,57624,57624,57624,57624,57624,57624,57624,57624,57624,57624,57624,57624,57624,57624,57624,57624,57624,57624,57624,57624,57624,57624,57624,57624,57624,57624,57624,57624,57624,57624,57624,57624,57624,57624,57624,57624,57624,57624,57624,57624,57624,57624,57624,57624,57624,57624,57624,57624,57624,57624,57624,57624,57624,57624,57624,57624,57624,57624,57624,57624,57624,57624,57624,57624,57670,57670,57669,57669,57669,57670,57670,57671,57669,57671,57670,57669,57671,57669,57670,57624,57624,57624,57624,57624,57624,57624,57624,57624,57624,57624,57624,57624,57624,57624,57624,57624,57624,57624,57624,57624,57624,57624,57624,57624,57624,57624,57624,57624,57624,57624,57624,57624,57624,57624,57624,57624,57624,57624,57624,
57624,57624,57624,57624,57624,57624,57624,57624,57624,57624,57624,57624,57624,57624,57624,57624,57624,57624,57624,57624,57624,57624,57624,57624,57624,57624,57624,57624,57624,57624,57624,57624,57624,57624,57624,57624,57624,57624,57624,57624,57624,57624,57624,57624,57624,57624,57624,57624,57624,57624,57624,57624,57624,57624,57624,57624,57624,57624,57624,57624,57624,57624,57671,57671,57669,57671,57670,57670,57669,57669,57669,57669,57669,57671,57669,57670,57670,57669,57670,57671,57671,57669,57669,57669,57669,57670,57671,57671,57670,57670,57670,57669,57671,57671,57671,57669,57670,57671,57669,57624,57624,57624,57624,57624,57624,57624,57624,57624,57624,57624,57624,57624,57624,57624,57624,57624,57624,57624,57613,57606,57614,57624,57624,57624,57624,57624,57624,57624,57624,57624,57624,57624,57624,57624,57624,57624,57624,57624,57624,57624,57624,57624,57624,57624,57624,57624,57624,57624,57624,57624,57624,57624,57624,57624,57624,57624,57624,57624,57624,57624,57624,57624,57624,57624,57624,57624,57624,57624,57624,57624,57624,57624,57624,57624,57624,57624,57624,57624,57625,57624,57624,57624,57624,57624,57624,57671,57669,57671,57671,57671,57671,57671,57669,57670,57669,57671,57671,57670,57671,57669,57624,57624,57624,57624,57627,57624,57624,57624,57624,57624,57624,57624,57624,57624,57624,57624,57624,57624,57624,57624,57624,57624,57624,57626,57624,57624,57624,57624,57624,57624,57624,57624,57624,57624,57624,57624,57624,57624,57624,57624,
57624,57624,57624,57624,57624,57624,57624,57624,57624,57624,57624,57624,57624,57624,57624,57624,57624,57624,57624,57624,57624,57624,57624,57624,57624,57624,57624,57624,57624,57624,57624,57624,57624,57624,57624,57624,57624,57624,57624,57624,57624,57624,57624,57624,57624,57624,57624,57624,57624,57624,57624,57624,57624,57624,57624,57624,57624,57624,57624,57624,57624,57624,57669,57669,57670,57669,57670,57669,57669,57670,57670,57670,57670,57670,57669,57670,57671,57669,57669,57670,57670,57669,57671,57670,57669,57670,57671,57670,57669,57671,57669,57671,57671,57670,57669,57669,57670,57669,57670,57624,57624,57624,57624,57624,57624,57624,57624,57624,57624,57624,57624,57624,57624,57624,57624,57624,57624,57624,57613,57606,57614,57624,57624,57624,57624,57624,57624,57624,57624,57624,57624,57624,57624,57624,57624,57624,57624,57624,57624,57624,57624,57624,57624,57624,57624,57624,57624,57624,57624,57624,57624,57624,57624,57624,57624,57624,57624,57624,57624,57624,57624,57624,57624,57624,57624,57624,57624,57624,57629,57624,57624,57624,57624,57624,57624,57624,57624,57624,57624,57624,57624,57624,57624,57624,57624,57669,57671,57669,57669,57669,57669,57671,57671,57670,57669,57671,57671,57671,57669,57670,57624,57624,57624,57624,57624,57624,57624,57624,57624,57624,57624,57624,57624,57624,57624,57624,57624,57624,57624,57624,57624,57624,57624,57624,57624,57624,57624,57624,57624,57624,57624,57624,57624,57624,57624,57624,57624,57624,57629,57624,
57624,57626,57624,57624,57624,57624,57624,57624,57624,57624,57624,57624,57624,57624,57624,57624,57624,57624,57624,57624,57624,57624,57624,57626,57624,57624,57624,57624,57624,57624,57624,57624,57624,57624,57624,57624,57624,57624,57624,57624,57624,57624,57624,57624,57624,57624,57624,57624,57624,57624,57624,57624,57624,57624,57624,57624,57624,57624,57624,57624,57624,57624,57624,57624,57624,57624,57624,57624,57624,57624,57624,57624,57624,57624,57624,57624,57624,57624,57624,57624,57624,57624,57624,57624,57624,57624,57624,57624,57615,57608,57608,57608,57608,57608,57608,57608,57608,57608,57608,57608,57608,57608,57608,57608,57608,57608,57608,57608,57608,57608,57608,57608,57608,57608,57608,57608,57608,57608,57609,57606,57607,57608,57608,57608,57608,57608,57608,57608,57608,57608,57608,57608,57608,57608,57608,57608,57608,57608,57608,57608,57608,57608,57608,57608,57608,57608,57608,57608,57608,57608,57608,57608,57608,57608,57608,57608,57608,57608,57608,57608,57608,57608,57608,57608,57608,57608,57608,57608,57608,57608,57608,57608,57608,57608,57608,57608,57608,57608,57608,57608,57608,57608,57608,57608,57616,57671,57670,57671,57669,57671,57670,57669,57670,57670,57671,57669,57669,57669,57671,57670,57624,57624,57624,57624,57624,57624,57624,57624,57624,57624,57624,57624,57624,57624,57624,57624,57624,57624,57624,57624,57624,57624,57624,57624,57624,57624,57624,57624,57624,57624,57624,57624,57624,57624,57624,57624,57624,57624,57624,57624,
57624,57624,57627,57624,57624,57624,57624,57624,57624,57624,57624,57624,57624,57624,57624,57624,57624,57624,57624,57624,57624,57624,57624,57624,57624,57624,57624,57624,57624,57624,57624,57624,57624,57624,57624,57624,57624,57624,57624,57624,57624,57624,57624,57624,57624,57624,57624,57624,57624,57624,57624,57624,57624,57624,57624,57624,57624,57624,57624,57624,57624,57624,57624,57624,57624,57624,57624,57624,57624,57624,57624,57624,57624,57624,57624,57624,57624,57624,57624,57624,57624,57624,57624,57624,57624,57624,57624,57624,57613,57606,57606,57606,57606,57606,57606,57606,57606,57606,57606,57606,57606,57606,57606,57606,57606,57606,57606,57606,57606,57606,57606,57606,57606,57606,57606,57606,57606,57606,57606,57606,57606,57606,57606,57606,57606,57606,57606,57606,57606,57606,57606,57606,57606,57606,57606,57606,57606,57606,57606,57606,57606,57606,57606,57606,57606,57606,57606,57606,57606,57606,57606,57606,57606,57606,57606,57606,57606,57606,57606,57606,57606,57606,57606,57606,57606,57606,57606,57606,57606,57606,57606,57606,57606,57606,57606,57606,57606,57606,57606,57606,57606,57606,57606,57606,57614,57669,57670,57670,57671,57669,57670,57669,57670,57669,57669,57669,57670,57669,57671,57671,57624,57624,57624,57624,57624,57624,57624,57624,57624,57624,57624,57624,57624,57624,57624,57624,57624,57624,57624,57624,57624,57624,57624,57624,57624,57624,57624,57624,57624,57624,57624,57624,57624,57624,57624,57624,57624,57624,57624,57624,
57624,57624,57624,57624,57624,57624,57624,57624,57624,57624,57624,57624,57624,57624,57624,57624,57624,57624,57624,57624,57624,57624,57624,57624,57624,57624,57624,57624,57624,57624,57624,57624,57624,57624,57624,57624,57624,57624,57624,57624,57624,57624,57624,57624,57624,57624,57624,57624,57624,57624,57624,57624,57624,57624,57624,57624,57624,57624,57624,57624,57624,57624,57624,57624,57624,57624,57624,57624,57624,57624,57624,57624,57624,57624,57624,57624,57624,57624,57624,57624,57624,57624,57624,57624,57624,57624,57624,57624,57617,57611,57611,57611,57611,57611,57611,57611,57611,57611,57611,57611,57611,57611,57611,57611,57611,57611,57611,57611,57611,57611,57611,57611,57611,57611,57611,57611,57611,57611,57611,57611,57611,57611,57611,57611,57611,57611,57611,57611,57611,57611,57611,57611,57611,57611,57611,57611,57611,57611,57611,57611,57611,57611,57611,57611,57611,57611,57611,57611,57611,57611,57611,57611,57611,57611,57611,57611,57611,57611,57611,57611,57611,57611,57611,57611,57611,57611,57611,57611,57611,57611,57611,57611,57611,57611,57611,57611,57611,57611,57611,57611,57611,57611,57611,57611,57618,57670,57670,57671,57669,57671,57670,57669,57671,57670,57669,57669,57669,57669,57670,57669,57624,57624,57624,57624,57624,57624,57624,57624,57624,57624,57624,57624,57624,57624,57624,57624,57624,57624,57624,57624,57624,57624,57624,57624,57624,57624,57624,57624,57624,57624,57624,57624,57624,57624,57624,57624,57624,57624,57624,57624,
57624,57624,57624,57624,57624,57624,57624,57624,57624,57624,57624,57624,57624,57624,57624,57624,57624,57624,57624,57624,57624,57624,57625,57624,57624,57624,57624,57624,57624,57624,57624,57624,57624,57624,57624,57624,57624,57624,57624,57624,57624,57624,57624,57624,57624,57624,57624,57624,57624,57624,57624,57624,57624,57624,57624,57624,57624,57624,57624,57624,57624,57624,57624,57624,57624,57624,57624,57624,57624,57624,57624,57624,57624,57624,57624,57624,57624,57624,57624,57624,57624,57624,57624,57624,57624,57624,57624,57624,57624,57624,57624,57624,57624,57624,57624,57624,57624,57624,57624,57624,57624,57624,57624,57624,57624,57624,57624,57624,57624,57624,57624,57624,57624,57624,57624,57624,57624,57624,57624,57624,57624,57624,57624,57624,57624,57624,57624,57624,57624,57624,57624,57624,57624,57624,57624,57624,57624,57624,57624,57624,57624,57624,57624,57624,57624,57624,57624,57624,57624,57624,57624,57624,57624,57624,57624,57624,57624,57624,57624,57624,57624,57624,57624,57624,57624,57624,57624,57624,57624,57624,57624,57624,57624,57624,57624,57624,57624,57624,57624,57624,57624,57624,57624,57624,57624,57671,57670,57669,57671,57669,57671,57670,57670,57670,57670,57671,57670,57670,57670,57670,57624,57624,57624,57624,57624,57624,57624,57624,57624,57624,57624,57624,57624,57624,57624,57624,57624,57624,57624,57624,57624,57624,57624,57624,57624,57624,57624,57624,57624,57624,57624,57624,57624,57624,57624,57624,57624,57624,57624,57624,
57624,57624,57624,57624,57624,57624,57624,57624,57624,57624,57624,57624,57624,57624,57624,57624,57624,57624,57624,57624,57624,57624,57624,57624,57624,57624,57624,57624,57624,57624,57624,57624,57624,57624,57624,57624,57624,57624,57624,57624,57624,57624,57624,57624,57624,57624,57624,57624,57624,57624,57624,57624,57624,57624,57624,57624,57624,57624,57624,57624,57624,57624,57624,57624,57624,57624,57624,57624,57624,57624,57624,57624,57624,57624,57624,57624,57624,57624,57624,57624,57624,57624,57624,57624,57624,57624,57624,57624,57624,57624,57624,57624,57624,57624,57624,57624,57624,57624,57624,57624,57624,57624,57624,57624,57624,57624,57624,57624,57624,57624,57624,57624,57624,57624,57624,57624,57624,57624,57624,57624,57624,57624,57624,57624,57624,57624,57624,57624,57624,57624,57624,57624,57624,57624,57624,57624,57624,57624,57624,57624,57624,57624,57624,57624,57624,57624,57624,57624,57624,57624,57624,57624,57624,57624,57624,57624,57624,57624,57624,57624,57624,57624,57624,57624,57624,57624,57624,57624,57624,57624,57624,57624,57624,57624,57624,57624,57624,57624,57624,57624,57624,57624,57624,57624,57624,57670,57669,57670,57669,57669,57670,57670,57671,57671,57669,57671,57669,57670,57671,57670,57624,57624,57624,57624,57624,57624,57624,57624,57624,57624,57624,57624,57624,57624,57624,57624,57624,57624,57624,57624,57624,57624,57624,57624,57624,57624,57624,57624,57624,57624,57624,57624,57624,57624,57624,57624,57624,57624,57624,57624,
57624,57624,57624,57624,57624,57624,57624,57624,57624,57624,57624,57624,57624,57624,57624,57624,57624,57624,57624,57624,57624,57624,57624,57624,57624,57624,57624,57624,57624,57624,57624,57624,57624,57624,57624,57624,57624,57624,57624,57624,57624,57624,57624,57624,57624,57624,57624,57624,57624,57624,57624,57624,57624,57624,57624,57624,57624,57624,57624,57624,57624,57624,57624,57624,57624,57624,57624,57624,57624,57624,57624,57624,57624,57624,57624,57624,57624,57624,57624,57624,57624,57624,57624,57624,57624,57624,57624,57624,57624,57624,57624,57624,57624,57624,57624,57624,57624,57624,57624,57624,57624,57624,57624,57624,57624,57624,57624,57624,57624,57624,57624,57624,57624,57624,57628,57624,57624,57624,57624,57624,57624,57624,57624,57624,57624,57628,57624,57624,57624,57624,57624,57624,57624,57624,57624,57624,57624,57624,57624,57624,57624,57624,57624,57624,57624,57624,57624,57624,57624,57624,57624,57624,57624,57624,57624,57624,57624,57624,57629,57624,57624,57624,57624,57624,57624,57624,57624,57624,57624,57624,57624,57624,57624,57624,57624,57624,57624,57624,57624,57624,57624,57624,57624,57624,57624,57671,57670,57671,57671,57670,57669,57671,57669,57669,57669,57669,57671,57669,57670,57670,57624,57624,57624,57624,57624,57624,57624,57624,57624,57624,57624,57624,57624,57624,57624,57624,57624,57624,57624,57625,57624,57624,57624,57624,57624,57624,57624,57624,57624,57624,57624,57624,57624,57624,57624,57624,57624,57624,57624,57624,
57624,57624,57624,57624,57624,57624,57624,57624,57624,57624,57624,57624,57624,57624,57624,57627,57624,57624,57624,57624,57624,57624,57624,57624,57624,57624,57624,57624,57624,57624,57624,57624,57624,57624,57624,57624,57626,57624,57624,57624,57624,57624,57624,57624,57624,57624,57624,57624,57624,57624,57624,57624,57624,57624,57624,57624,57624,57624,57624,57624,57624,57624,57624,57624,57624,57624,57624,57624,57624,57624,57624,57624,57624,57624,57624,57624,57624,57624,57624,57624,57624,57624,57624,57624,57624,57624,57624,57624,57624,57624,57624,57624,57624,57624,57624,57624,57624,57624,57624,57624,57624,57624,57624,57624,57624,57624,57624,57624,57624,57624,57624,57624,57624,57624,57624,57624,57624,57624,57624,57624,57624,57624,57624,57624,57624,57624,57624,57624,57624,57624,57624,57624,57624,57624,57624,57624,57624,57624,57624,57624,57624,57624,57625,57624,57624,57624,57624,57624,57624,57624,57624,57624,57624,57624,57624,57624,57624,57624,57624,57624,57624,57624,57624,57624,57624,57624,57624,57624,57624,57624,57624,57624,57624,57624,57624,57624,57624,57624,57624,57624,57624,57624,57624,57624,57624,57624,57624,57624,57624,57624,57624,57624,57624,57624,57624,57624,57624,57624,57624,57624,57624,57624,57624,57624,57624,57624,57624,57624,57624,57624,57624,57624,57624,57624,57624,57624,57624,57624,57624,57624,57624,57624,57624,57624,57624,57624,57624,57624,57624,57624,57624,57624,57624,57624,57624,57624,57624,57624,57624,57624,
57624,57624,57624,57624,57625,57624,57628,57624,57624,57624,57624,57624,57626,57624,57624,57624,57624,57624,57624,57624,57624,57624,57624,57624,57624,57624,57624,57624,57624,57624,57624,57624,57624,57624,57624,57624,57624,57624,57624,57624,57624,57624,57624,57624,57624,57624,57624,57624,57624,57624,57624,57624,57624,57624,57624,57624,57624,57624,57624,57624,57624,57624,57624,57624,57624,57624,57624,57624,57624,57624,57624,57624,57624,57624,57624,57624,57624,57624,57624,57624,57624,57624,57624,57624,57624,57624,57624,57624,57624,57624,57624,57624,57624,57624,57624,57624,57624,57624,57624,57624,57624,57624,57624,57624,57624,57624,57624,57624,57624,57624,57624,57624,57624,57624,57624,57624,57624,57624,57624,57624,57624,57624,57624,57624,57624,57624,57624,57624,57624,57624,57624,57624,57624,57624,57624,57624,57624,57624,57624,57624,57624,57624,57624,57626,57624,57624,57624,57624,57624,57624,57624,57624,57624,57624,57624,57624,57624,57624,57624,57624,57624,57624,57624,57624,57624,57624,57624,57624,57624,57624,57624,57624,57624,57624,57624,57624,57624,57624,57624,57624,57624,57624,57624,57624,57624,57624,57624,57624,57624,57624,57624,57624,57624,57624,57624,57624,57624,57624,57624,57624,57624,57624,57624,57624,57624,57624,57624,57624,57624,57624,57624,57624,57624,57624,57624,57624,57624,57624,57624,57624,57624,57624,57624,57624,57624,57624,57624,57624,57624,57624,57624,57624,57624,57624,57624,57624,57624,57624,57624,57624,
57624,57624,57624,57624,57624,57624,57624,57624,57624,57624,57624,57629,57624,57624,57624,57624,57624,57624,57624,57624,57624,57624,57624,57624,57624,57624,57624,57624,57624,57624,57624,57624,57624,57624,57624,57624,57624,57624,57624,57624,57624,57624,57624,57624,57624,57624,57624,57624,57624,57624,57624,57624,57624,57624,57624,57624,57624,57624,57624,57624,57624,57624,57624,57624,57624,57624,57624,57624,57624,57624,57624,57626,57624,57624,57624,57624,57624,57624,57624,57624,57629,57624,57624,57624,57624,57624,57624,57624,57624,57624,57624,57624,57624,57624,57624,57624,57624,57624,57624,57624,57624,57624,57624,57624,57624,57624,57624,57624,57624,57624,57624,57624,57624,57624,57624,57624,57624,57624,57624,57624,57624,57624,57624,57624,57625,57624,57624,57624,57624,57624,57624,57624,57624,57624,57624,57624,57624,57624,57624,57624,57624,57624,57624,57624,57624,57624,57624,57624,57624,57624,57624,57624,57624,57624,57624,57624,57624,57624,57624,57624,57624,57624,57624,57624,57624,57624,57624,57624,57624,57624,57624,57624,57624,57624,57624,57624,57624,57624,57624,57624,57624,57624,57624,57624,57624,57624,57624,57624,57624,57624,57624,57624,57624,57624,57624,57624,57624,57624,57624,57624,57624,57624,57624,57624,57624,57624,57624,57624,57624,57624,57624,57624,57624,57624,57624,57624,57624,57624,57624,57624,57624,57624,57624,57624,57624,57624,57624,57624,57624,57624,57624,57624,57624,57624,57624,57624,57624,57624,57624,57624,
57624,57624,57624,57624,57624,57624,57624,57624,57624,57624,57624,57624,57624,57624,57624,57624,57624,57624,57624,57624,57624,57624,57624,57624,57624,57624,57624,57624,57624,57624,57624,57624,57624,57624,57624,57624,57624,57624,57624,57624,57624,57624,57624,57624,57624,57624,57624,57624,57624,57624,57624,57624,57624,57624,57624,57624,57624,57624,57624,57624,57624,57624,57624,57624,57624,57624,57624,57624,57624,57624,57624,57624,57624,57624,57624,57624,57624,57624,57624,57624,57624,57624,57624,57624,57624,57624,57624,57624,57624,57624,57624,57624,57624,57624,57624,57624,57624,57624,57624,57624,57624,57624,57624,57624,57624,57624,57624,57624,57624,57624,57624,57624,57624,57624,57624,57624,57624,57624,57624,57624,57624,57624,57624,57624,57624,57624,57624,57624,57624,57624,57624,57624,57624,57624,57624,57624,57624,57624,57624,57624,57624,57624,57624,57624,57624,57624,57624,57624,57624,57624,57624,57624,57624,57624,57624,57624,57624,57624,57624,57624,57624,57624,57624,57624,57624,57624,57624,57624,57624,57624,57624,57624,57624,57624,57624,57624,57624,57624,57624,57624,57624,57624,57624,57624,57624,57624,57624,57624,57624,57624,57624,57624,57624,57624,57624,57624,57624,57624,57624,57624,57624,57624,57624,57624,57624,57624,57624,57624,57624,57624,57624,57624,57624,57624,57624,57624,57624,57624,57624,57624,57624,57624,57624,57624,57624,57624,57624,57624,57624,57624,57624,57624,57624,57624,57624,57624,57624,57624,57624,57624,
57624,57624,57624,57624,57624,57624,57624,57624,57624,57624,57624,57624,57624,57624,57624,57624,57624,57624,57624,57624,57624,57624,57624,57624,57624,57624,57624,57624,57624,57624,57624,57624,57624,57624,57624,57629,57624,57624,57624,57624,57624,57624,57625,57624,57624,57624,57624,57624,57624,57624,57624,57624,57624,57624,57624,57624,57624,57624,57624,57624,57624,57624,57624,57624,57624,57624,57624,57624,57624,57624,57624,57624,57624,57624,57624,57624,57624,57624,57624,57624,57624,57624,57624,57624,57624,57624,57624,57624,57624,57624,57624,57624,57624,57624,57624,57624,57624,57624,57624,57624,57624,57624,57624,57624,57624,57624,57624,57624,57624,57624,57624,57624,57624,57624,57624,57624,57624,57624,57624,57624,57624,57624,57624,57624,57624,57624,57624,57624,57624,57624,57624,57624,57624,57624,57624,57624,57624,57624,57624,57629,57624,57624,57624,57624,57624,57624,57624,57624,57624,57624,57624,57624,57624,57624,57624,57624,57624,57624,57624,57624,57624,57624,57624,57624,57624,57624,57624,57624,57624,57624,57624,57624,57624,57624,57624,57624,57624,57624,57624,57624,57624,57624,57624,57624,57624,57624,57624,57624,57624,57624,57624,57624,57624,57624,57624,57624,57624,57624,57624,57624,57624,57624,57624,57624,57624,57624,57624,57624,57624,57624,57624,57624,57624,57624,57628,57624,57624,57624,57624,57624,57624,57624,57624,57624,57624,57624,57624,57624,57624,57624,57624,57624,57624,57624,57624,57624,57624,57624,57624,57624,
57624,57624,57624,57624,57624,57624,57624,57624,57624,57624,57624,57624,57624,57624,57624,57624,57624,57624,57624,57624,57624,57624,57624,57624,57624,57624,57624,57624,57624,57624,57624,57624,57624,57624,57624,57624,57624,57624,57624,57624,57624,57624,57624,57624,57624,57624,57624,57624,57624,57624,57624,57624,57624,57624,57624,57624,57624,57624,57624,57624,57624,57624,57624,57624,57624,57624,57624,57624,57624,57624,57624,57624,57624,57624,57624,57624,57624,57624,57624,57624,57624,57624,57624,57624,57624,57624,57624,57624,57624,57624,57624,57624,57624,57624,57624,57624,57624,57624,57624,57624,57624,57624,57624,57624,57624,57624,57624,57624,57624,57624,57624,57624,57624,57624,57624,57624,57624,57624,57624,57624,57624,57624,57624,57624,57624,57624,57624,57624,57624,57624,57624,57624,57624,57624,57624,57624,57624,57624,57624,57624,57624,57624,57624,57624,57624,57624,57624,57624,57624,57624,57624,57624,57624,57624,57624,57624,57624,57624,57624,57624,57624,57624,57624,57624,57624,57624,57624,57624,57624,57624,57624,57624,57624,57624,57624,57624,57624,57624,57624,57624,57624,57624,57624,57624,57624,57624,57624,57624,57624,57624,57624,57624,57624,57624,57624,57624,57624,57624,57624,57624,57624,57624,57624,57624,57624,57624,57624,57624,57624,57624,57624,57624,57624,57624,57624,57624,57624,57624,57624,57624,57624,57624,57624,57624,57624,57624,57624,57624,57624,57624,57624,57624,57624,57624,57624,57624,57624,57624,57624,57624,
57624,57624,57624,57624,57624,57624,57624,57624,57624,57624,57624,57624,57624,57624,57624,57624,57624,57624,57624,57624,57624,57624,57624,57624,57624,57624,57624,57624,57624,57624,57624,57624,57624,57624,57624,57624,57624,57624,57624,57624,57624,57624,57624,57624,57624,57624,57624,57624,57624,57624,57624,57624,57624,57624,57624,57624,57624,57624,57624,57624,57624,57624,57624,57624,57624,57624,57624,57624,57624,57624,57624,57624,57624,57624,57624,57624,57624,57624,57624,57624,57624,57624,57624,57624,57624,57624,57624,57624,57624,57624,57624,57624,57624,57624,57624,57624,57624,57624,57624,57624,57624,57624,57624,57624,57624,57624,57624,57624,57624,57624,57624,57624,57624,57624,57624,57624,57626,57624,57624,57624,57624,57624,57624,57624,57624,57624,57624,57624,57624,57624,57624,57624,57624,57624,57624,57624,57624,57624,57624,57624,57624,57624,57624,57624,57624,57624,57624,57624,57624,57624,57624,57624,57624,57624,57624,57624,57624,57624,57624,57624,57624,57624,57624,57624,57624,57624,57624,57624,57624,57624,57624,57624,57624,57624,57624,57624,57624,57624,57624,57624,57624,57624,57624,57624,57624,57624,57624,57624,57624,57624,57624,57624,57624,57624,57624,57624,57624,57624,57624,57624,57624,57624,57624,57624,57624,57624,57624,57624,57624,57624,57624,57628,57624,57624,57624,57624,57624,57624,57624,57624,57624,57624,57624,57624,57624,57624,57624,57624,57624,57624,57624,57624,57624,57624,57624,57624,57624,57624,57624,57624,
57624,57624,57624,57624,57624,57624,57624,57624,57624,57624,57624,57624,57624,57624,57624,57624,57624,57624,57624,57624,57624,57624,57624,57624,57624,57624,57624,57624,57624,57624,57624,57624,57624,57624,57624,57624,57624,57624,57624,57624,57624,57624,57624,57624,57624,57624,57624,57624,57624,57624,57624,57624,57624,57624,57624,57624,57624,57624,57624,57624,57624,57624,57624,57624,57624,57624,57624,57624,57624,57624,57624,57624,57624,57624,57624,57624,57624,57624,57624,57624,57624,57624,57624,57624,57624,57624,57624,57624,57624,57624,57624,57624,57624,57624,57624,57624,57624,57624,57624,57624,57624,57624,57624,57624,57624,57624,57624,57624,57624,57624,57624,57624,57624,57624,57624,57624,57624,57624,57624,57624,57624,57624,57624,57624,57624,57624,57624,57624,57624,57624,57624,57624,57624,57624,57625,57624,57624,57624,57624,57624,57624,57624,57624,57624,57624,57624,57624,57624,57624,57624,57624,57624,57624,57624,57624,57624,57624,57624,57624,57624,57624,57624,57624,57624,57624,57624,57624,57624,57624,57624,57624,57624,57624,57624,57624,57624,57624,57624,57624,57624,57624,57624,57624,57624,57624,57624,57624,57624,57624,57624,57624,57624,57624,57624,57624,57624,57624,57624,57624,57624,57624,57624,57624,57624,57624,57624,57624,57624,57624,57624,57624,57624,57624,57624,57624,57624,57624,57624,57624,57624,57624,57624,57624,57624,57624,57624,57624,57624,57624,57624,57624,57624,57624,57624,57624,57624,57624,57624,57624,57624,
57624,57624,57624,57624,57624,57624,57624,57624,57624,57624,57624,57624,57624,57624,57624,57624,57624,57624,57624,57624,57624,57624,57624,57624,57624,57624,57624,57624,57627,57624,57624,57624,57624,57624,57624,57624,57624,57624,57624,57624,57624,57624,57624,57624,57624,57624,57624,57624,57624,57624,57624,57624,57624,57624,57624,57624,57624,57624,57624,57624,57624,57624,57624,57624,57624,57624,57624,57624,57624,57624,57624,57624,57624,57624,57624,57624,57624,57624,57624,57624,57624,57624,57624,57624,57624,57624,57624,57624,57624,57624,57624,57624,57624,57624,57624,57624,57624,57624,57624,57624,57624,57624,57624,57624,57624,57624,57624,57624,57624,57624,57624,57624,57624,57624,57624,57624,57624,57624,57624,57624,57624,57624,57624,57624,57624,57624,57624,57624,57624,57624,57624,57624,57624,57624,57624,57624,57624,57627,57624,57624,57624,57624,57624,57624,57624,57624,57624,57624,57624,57624,57624,57624,57624,57624,57624,57624,57624,57624,57624,57624,57624,57624,57624,57624,57624,57624,57624,57624,57624,57624,57624,57624,57624,57624,57624,57624,57624,57624,57624,57624,57624,57624,57624,57624,57624,57624,57624,57624,57624,57624,57624,57624,57624,57624,57624,57624,57624,57624,57624,57624,57624,57624,57624,57624,57624,57624,57624,57624,57624,57624,57624,57624,57624,57624,57624,57624,57624,57624,57624,57624,57624,57624,57624,57624,57624,57624,57624,57624,57624,57624,57624,57624,57624,57624,57624,57624,57624,57624,57624,57624,
57624,57624,57624,57624,57624,57624,57624,57624,57624,57624,57624,57625,57624,57624,57624,57624,57624,57624,57624,57624,57624,57624,57624,57624,57624,57624,57627,57624,57624,57624,57624,57624,57624,57624,57624,57624,57624,57624,57624,57624,57624,57624,57624,57624,57624,57624,57624,57624,57624,57624,57624,57624,57624,57624,57624,57624,57624,57624,57624,57624,57624,57624,57624,57624,57624,57624,57624,57624,57624,57624,57624,57624,57628,57624,57624,57624,57624,57624,57624,57624,57624,57624,57624,57624,57624,57624,57624,57624,57624,57624,57624,57624,57624,57624,57624,57624,57624,57624,57624,57624,57624,57624,57624,57624,57624,57624,57624,57624,57624,57624,57624,57624,57624,57624,57624,57624,57624,57624,57624,57624,57624,57624,57624,57624,57624,57624,57624,57624,57624,57624,57624,57624,57624,57624,57624,57624,57624,57624,57624,57624,57624,57624,57624,57624,57624,57624,57624,57624,57624,57624,57624,57624,57624,57624,57624,57624,57624,57624,57624,57624,57624,57624,57624,57624,57624,57624,57624,57624,57624,57624,57624,57624,57624,57624,57624,57624,57624,57624,57624,57624,57624,57624,57624,57624,57624,57624,57624,57624,57624,57624,57624,57624,57624,57624,57624,57624,57624,57624,57624,57624,57624,57624,57624,57624,57624,57624,57624,57624,57624,57624,57624,57624,57624,57624,57624,57624,57624,57624,57624,57624,57624,57624,57624,57624,57624,57624,57624,57624,57624,57624,57624,57624,57624,57624,57624,57624,57624,57624,57624,57624,
57624,57624,57624,57624,57624,57624,57624,57624,57624,57624,57624,57624,57624,57624,57624,57624,57624,57624,57624,57624,57624,57624,57624,57624,57624,57624,57624,57624,57624,57624,57624,57627,57624,57624,57624,57624,57624,57624,57624,57624,57624,57624,57624,57624,57624,57624,57624,57624,57624,57624,57624,57624,57624,57624,57624,57624,57624,57624,57624,57624,57624,57624,57624,57624,57624,57624,57624,57624,57624,57624,57624,57624,57624,57624,57624,57624,57624,57624,57624,57624,57624,57624,57624,57624,57624,57624,57624,57624,57624,57624,57624,57624,57624,57624,57624,57624,57624,57624,57624,57624,57624,57624,57624,57624,57624,57624,57624,57624,57624,57624,57624,57624,57624,57624,57624,57624,57624,57624,57624,57624,57624,57624,57624,57624,57624,57624,57624,57624,57624,57624,57624,57624,57624,57624,57624,57624,57624,57624,57624,57624,57624,57624,57624,57624,57624,57624,57624,57624,57624,57624,57624,57624,57624,57624,57624,57624,57624,57624,57624,57624,57624,57624,57624,57624,57624,57624,57624,57624,57624,57624,57624,57624,57624,57624,57624,57624,57624,57624,57624,57624,57624,57624,57624,57624,57624,57624,57624,57624,57624,57624,57624,57624,57624,57624,57624,57624,57624,57624,57624,57624,57624,57624,57624,57624,57624,57624,57624,57624,57624,57624,57624,57624,57624,57624,57624,57624,57624,57624,57624,57624,57624,57624,57624,57624,57624,57624,57624,57624,57624,57624,57624,57624,57624,57624,57624,57624,57624,57624,57624,57624,
57624,57624,57624,57624,57624,57624,57624,57624,57628,57624,57624,57624,57624,57624,57624,57624,57625,57624,57624,57624,57624,57624,57624,57624,57624,57624,57624,57624,57624,57624,57624,57624,57624,57624,57624,57624,57624,57624,57624,57624,57624,57624,57624,57624,57624,57624,57624,57624,57624,57624,57624,57624,57624,57624,57624,57624,57624,57624,57624,57624,57624,57624,57624,57624,57624,57624,57624,57624,57624,57624,57624,57624,57624,57624,57624,57624,57624,57624,57624,57624,57624,57624,57624,57624,57624,57624,57624,57624,57624,57624,57624,57624,57624,57624,57624,57628,57624,57624,57624,57624,57624,57624,57624,57624,57624,57624,57624,57624,57624,57624,57625,57624,57624,57624,57624,57624,57624,57624,57624,57624,57624,57624,57624,57624,57624,57624,57624,57624,57624,57624,57624,57624,57624,57624,57624,57624,57624,57624,57624,57624,57624,57624,57624,57624,57624,57624,57624,57624,57624,57624,57624,57624,57624,57624,57624,57624,57624,57624,57624,57624,57624,57624,57624,57624,57624,57624,57624,57624,57624,57624,57624,57624,57624,57624,57624,57624,57624,57624,57624,57624,57624,57624,57624,57624,57624,57624,57624,57624,57624,57625,57624,57624,57624,57624,57624,57624,57624,57624,57624,57624,57624,57624,57624,57624,57624,57624,57624,57624,57624,57624,57624,57624,57624,57624,57624,57624,57624,57624,57624,57624,57624,57624,57624,57624,57624,57624,57624,57624,57624,57624,57624,57624,57624,57624,57624,57624,57624,57624,57624,57624,
57624,57624,57624,57624,57624,57624,57624,57624,57624,57624,57624,57624,57624,57624,57624,57624,57624,57624,57624,57624,57624,57624,57624,57624,57624,57624,57624,57624,57624,57624,57624,57624,57624,57624,57624,57624,57624,57624,57624,57629,57624,57624,57624,57624,57624,57624,57624,57624,57624,57624,57624,57624,57624,57624,57624,57624,57624,57624,57624,57624,57624,57624,57624,57624,57624,57624,57624,57624,57624,57624,57624,57624,57624,57624,57624,57624,57624,57624,57624,57624,57624,57624,57624,57624,57624,57624,57624,57624,57624,57624,57624,57624,57624,57624,57624,57624,57624,57624,57624,57624,57624,57624,57624,57624,57624,57624,57624,57624,57624,57624,57629,57624,57624,57624,57624,57624,57624,57624,57624,57624,57624,57624,57624,57624,57624,57624,57624,57624,57624,57624,57624,57624,57624,57624,57624,57624,57624,57624,57624,57624,57624,57624,57627,57624,57624,57624,57624,57624,57624,57624,57624,57624,57624,57624,57624,57624,57624,57624,57624,57624,57624,57624,57624,57624,57624,57624,57624,57624,57624,57624,57624,57624,57624,57624,57624,57624,57624,57624,57624,57624,57624,57624,57624,57624,57624,57624,57624,57624,57624,57624,57624,57624,57624,57624,57624,57624,57624,57624,57624,57624,57624,57624,57624,57624,57624,57626,57624,57624,57624,57624,57624,57624,57624,57624,57624,57624,57624,57624,57624,57624,57624,57624,57624,57624,57624,57624,57624,57624,57624,57624,57624,57624,57624,57624,57624,57624,57624,57624,57624,57624,
57624,57624,57624,57624,57624,57624,57624,57624,57624,57624,57624,57624,57624,57624,57624,57624,57624,57628,57624,57624,57624,57624,57624,57624,57624,57624,57624,57624,57624,57624,57625,57624,57624,57624,57624,57624,57625,57624,57624,57624,57624,57624,57624,57624,57624,57624,57624,57624,57624,57624,57624,57624,57624,57624,57624,57624,57624,57624,57624,57624,57624,57624,57624,57624,57624,57624,57624,57624,57624,57624,57624,57624,57624,57624,57624,57624,57624,57624,57624,57624,57624,57624,57624,57624,57624,57624,57624,57624,57624,57624,57624,57624,57624,57624,57624,57624,57624,57624,57624,57624,57624,57624,57624,57624,57624,57624,57624,57624,57624,57624,57624,57624,57624,57624,57624,57624,57624,57624,57624,57624,57624,57624,57624,57624,57624,57624,57624,57624,57624,57624,57624,57624,57624,57624,57624,57624,57624,57624,57624,57624,57624,57624,57624,57624,57624,57624,57624,57624,57624,57624,57624,57624,57624,57624,57624,57624,57624,57624,57624,57624,57627,57624,57624,57624,57624,57624,57624,57624,57624,57624,57624,57624,57624,57624,57624,57624,57624,57624,57624,57624,57624,57624,57624,57624,57624,57624,57624,57624,57624,57624,57624,57624,57624,57624,57624,57624,57624,57624,57624,57624,57624,57624,57624,57624,57624,57624,57624,57624,57624,57624,57624,57624,57624,57624,57624,57624,57624,57624,57624,57624,57624,57624,57624,57624,57624,57624,57624,57624,57624,57624,57624,57624,57624,57624,57624,57624,57624,57624,57624,57624,
57624,57624,57624,57624,57624,57624,57624,57624,57624,57624,57624,57624,57624,57624,57625,57624,57624,57624,57624,57624,57624,57624,57624,57624,57624,57624,57624,57624,57624,57624,57624,57624,57624,57624,57624,57624,57624,57624,57624,57624,57624,57624,57624,57624,57624,57624,57624,57624,57624,57624,57624,57624,57624,57624,57624,57628,57624,57624,57624,57624,57624,57624,57624,57624,57624,57624,57624,57624,57624,57624,57624,57624,57624,57624,57624,57624,57624,57624,57624,57624,57624,57624,57624,57624,57624,57624,57624,57624,57624,57624,57624,57624,57624,57624,57624,57624,57624,57624,57624,57624,57624,57624,57624,57624,57624,57624,57624,57624,57624,57624,57624,57624,57624,57624,57624,57624,57624,57624,57624,57624,57624,57624,57624,57624,57624,57624,57624,57624,57624,57624,57624,57624,57624,57624,57624,57624,57624,57624,57624,57624,57624,57624,57624,57624,57626,57624,57624,57624,57624,57624,57624,57624,57624,57624,57624,57624,57624,57624,57624,57624,57624,57624,57624,57624,57624,57624,57624,57624,57624,57624,57624,57624,57624,57624,57624,57624,57624,57624,57624,57624,57624,57624,57624,57624,57624,57624,57624,57624,57624,57624,57624,57624,57624,57624,57624,57624,57624,57624,57624,57624,57624,57624,57624,57624,57624,57624,57624,57624,57624,57624,57624,57624,57624,57624,57624,57624,57624,57624,57624,57624,57624,57624,57624,57624,57624,57624,57624,57624,57624,57624,57624,57624,57624,57624,57624,57624,57624,57624,57624,57624,
57624,57624,57624,57624,57624,57624,57624,57624,57624,57624,57624,57624,57624,57624,57624,57624,57624,57624,57624,57624,57624,57624,57624,57624,57624,57624,57624,57624,57624,57624,57624,57624,57624,57624,57624,57624,57624,57624,57624,57624,57624,57624,57624,57624,57624,57624,57624,57624,57624,57624,57624,57624,57624,57624,57624,57624,57624,57624,57624,57624,57624,57624,57624,57624,57624,57624,57624,57624,57624,57624,57624,57624,57624,57624,57624,57624,57624,57624,57624,57624,57624,57624,57624,57624,57624,57624,57624,57624,57624,57624,57624,57624,57624,57624,57624,57624,57624,57624,57624,57624,57624,57624,57624,57624,57624,57624,57624,57624,57624,57624,57624,57624,57624,57624,57624,57624,57624,57624,57624,57624,57624,57624,57624,57624,57624,57624,57624,57624,57624,57624,57624,57624,57624,57624,57624,57624,57624,57624,57624,57624,57624,57624,57624,57624,57624,57624,57624,57624,57624,57624,57624,57624,57624,57624,57624,57624,57624,57624,57624,57624,57624,57624,57624,57624,57624,57624,57624,57624,57624,57624,57624,57624,57624,57624,57624,57624,57624,57624,57624,57624,57624,57624,57624,57624,57624,57624,57624,57624,57624,57624,57624,57624,57624,57624,57629,57624,57624,57624,57624,57624,57624,57624,57624,57624,57624,57624,57624,57624,57624,57624,57624,57624,57624,57624,57624,57624,57624,57624,57624,57624,57624,57624,57624,57624,57624,57624,57624,57624,57624,57624,57624,57624,57624,57624,57624,57624,57624,57624,57624,57624,
57624,57624,57624,57624,57624,57624,57624,57624,57624,57624,57624,57624,57624,57624,57624,57624,57624,57624,57624,57624,57624,57624,57624,57624,57624,57624,57624,57624,57624,57624,57624,57624,57624,57624,57624,57624,57624,57624,57624,57624,57624,57624,57624,57624,57624,57624,57624,57624,57624,57624,57624,57624,57624,57624,57624,57624,57624,57624,57624,57624,57624,57624,57624,57624,57625,57624,57624,57624,57624,57624,57624,57624,57624,57624,57624,57624,57624,57624,57624,57624,57624,57624,57624,57624,57624,57625,57624,57624,57624,57624,57624,57624,57624,57624,57624,57624,57624,57624,57625,57624,57624,57624,57624,57624,57624,57624,57624,57624,57624,57624,57624,57624,57624,57624,57624,57624,57624,57624,57624,57624,57624,57624,57624,57624,57624,57624,57624,57624,57624,57624,57624,57624,57624,57624,57624,57624,57624,57624,57624,57624,57624,57624,57624,57624,57624,57624,57624,57624,57624,57624,57624,57624,57624,57624,57624,57624,57624,57624,57624,57624,57624,57624,57624,57624,57624,57624,57624,57624,57624,57624,57624,57624,57624,57624,57624,57624,57624,57624,57624,57624,57624,57624,57624,57624,57624,57624,57624,57624,57624,57624,57624,57624,57624,57624,57624,57624,57624,57624,57624,57624,57624,57624,57624,57624,57624,57624,57624,57624,57624,57624,57624,57624,57624,57624,57624,57624,57624,57624,57624,57624,57624,57624,57624,57624,57624,57624,57624,57624,57624,57624,57624,57624,57624,57624,57624,57624,57624,57624,57624,57624,
57624,57624,57624,57624,57624,57624,57624,57624,57624,57624,57624,57624,57624,57624,57624,57624,57624,57624,57624,57624,57624,57624,57624,57624,57624,57624,57624,57624,57624,57624,57624,57624,57624,57624,57624,57624,57624,57624,57624,57624,57624,57624,57624,57624,57624,57624,57624,57624,57624,57624,57624,57624,57624,57624,57624,57624,57624,57624,57624,57624,57624,57624,57624,57624,57624,57624,57624,57624,57624,57624,57624,57624,57624,57624,57624,57624,57624,57624,57624,57624,57624,57624,57624,57624,57624,57624,57624,57624,57624,57624,57624,57624,57624,57624,57624,57624,57624,57624,57624,57624,57624,57624,57624,57624,57624,57624,57624,57624,57624,57624,57624,57624,57624,57624,57624,57624,57624,57624,57624,57624,57624,57624,57624,57624,57624,57624,57624,57624,57624,57624,57624,57624,57624,57624,57624,57624,57624,57624,57624,57624,57624,57624,57624,57624,57624,57624,57624,57624,57624,57624,57624,57624,57624,57624,57624,57624,57624,57624,57624,57624,57624,57624,57624,57624,57624,57624,57624,57624,57624,57624,57624,57624,57624,57624,57624,57624,57624,57624,57624,57624,57624,57624,57624,57624,57624,57624,57624,57624,57624,57624,57624,57624,57624,57624,57624,57624,57624,57624,57626,57624,57624,57624,57624,57624,57624,57624,57624,57624,57624,57624,57624,57624,57624,57624,57624,57624,57624,57624,57624,57624,57624,57624,57624,57624,57624,57624,57624,57624,57624,57624,57624,57624,57624,57624,57624,57624,57624,57626,57624,57624,
57624,57624,57624,57624,57624,57624,57624,57624,57624,57624,57624,57624,57624,57624,57624,57624,57624,57624,57624,57624,57624,57624,57624,57624,57624,57624,57624,57624,57624,57624,57624,57624,57624,57624,57624,57624,57624,57624,57624,57624,57624,57624,57624,57624,57624,57624,57624,57624,57624,57624,57624,57624,57624,57624,57624,57624,57624,57624,57624,57624,57624,57624,57624,57624,57624,57624,57624,57624,57624,57624,57624,57624,57624,57624,57624,57624,57624,57624,57624,57624,57624,57624,57624,57624,57624,57624,57624,57624,57624,57624,57624,57624,57624,57624,57624,57624,57624,57624,57624,57624,57624,57624,57624,57624,57624,57624,57624,57624,57624,57624,57624,57624,57624,57624,57624,57624,57624,57624,57624,57624,57624,57624,57624,57624,57624,57624,57624,57624,57624,57624,57624,57624,57624,57624,57624,57624,57624,57624,57624,57624,57624,57624,57624,57624,57624,57624,57624,57624,57624,57624,57624,57624,57624,57624,57624,57624,57624,57624,57624,57624,57624,57624,57624,57624,57624,57624,57624,57624,57624,57624,57624,57624,57624,57624,57624,57624,57624,57624,57624,57624,57624,57624,57624,57624,57624,57624,57624,57624,57624,57624,57624,57624,57624,57624,57624,57624,57624,57624,57624,57624,57624,57624,57624,57624,57624,57624,57624,57624,57624,57624,57624,57624,57624,57624,57624,57624,57624,57624,57624,57624,57624,57624,57624,57624,57624,57624,57624,57624,57624,57624,57624,57624,57624,57624,57624,57624,57624,57624,57624,57624,
57624,57624,57624,57624,57624,57624,57624,57624,57624,57624,57624,57624,57624,57624,57624,57624,57624,57624,57624,57624,57624,57624,57624,57624,57624,57624,57624,57624,57624,57624,57624,57624,57624,57624,57624,57624,57624,57624,57624,57624,57624,57624,57624,57624,57624,57624,57624,57624,57624,57624,57624,57624,57624,57624,57624,57624,57624,57624,57624,57624,57624,57624,57624,57624,57624,57624,57624,57624,57624,57624,57624,57624,57624,57624,57624,57624,57624,57624,57624,57624,57624,57624,57624,57624,57624,57624,57624,57624,57624,57624,57624,57624,57624,57624,57624,57624,57624,57624,57624,57624,57624,57624,57624,57624,57624,57624,57624,57624,57624,57624,57624,57624,57624,57624,57624,57624,57624,57624,57624,57624,57624,57624,57624,57624,57624,57624,57624,57624,57624,57624,57624,57624,57624,57624,57624,57624,57624,57624,57624,57624,57624,57624,57624,57624,57624,57624,57624,57624,57624,57624,57624,57624,57624,57624,57624,57624,57624,57624,57624,57624,57624,57624,57624,57624,57624,57624,57624,57624,57624,57624,57624,57624,57624,57624,57624,57624,57624,57624,57624,57624,57624,57624,57624,57624,57624,57624,57624,57624,57624,57624,57624,57624,57624,57624,57624,57624,57624,57624,57624,57624,57624,57624,57624,57624,57624,57624,57624,57624,57624,57624,57624,57624,57624,57624,57624,57624,57624,57624,57624,57624,57624,57624,57624,57624,57624,57624,57624,57624,57624,57624,57624,57624,57624,57624,57624,57624,57624,57624,57624,57624,
57624,57624,57624,57624,57624,57624,57624,57624,57624,57624,57624,57624,57624,57624,57624,57624,57625,57624,57624,57624,57624,57624,57624,57624,57624,57624,57624,57624,57624,57624,57624,57624,57624,57624,57624,57624,57624,57624,57624,57624,57624,57624,57624,57624,57624,57624,57624,57624,57624,57624,57624,57624,57624,57624,57624,57624,57624,57624,57624,57624,57624,57624,57624,57624,57624,57624,57624,57624,57624,57624,57624,57624,57624,57624,57624,57624,57624,57624,57624,57624,57624,57624,57624,57624,57624,57624,57624,57624,57624,57624,57624,57624,57624,57624,57624,57624,57624,57624,57624,57624,57624,57624,57624,57624,57624,57624,57624,57624,57624,57624,57624,57624,57624,57624,57624,57624,57624,57624,57624,57624,57624,57624,57624,57624,57624,57624,57624,57624,57624,57627,57624,57624,57624,57624,57624,57624,57624,57624,57624,57624,57624,57624,57624,57624,57624,57624,57624,57624,57624,57624,57624,57624,57624,57624,57624,57624,57624,57624,57624,57624,57624,57624,57624,57624,57624,57624,57624,57624,57624,57624,57624,57624,57624,57624,57624,57624,57624,57624,57624,57624,57624,57624,57624,57624,57626,57624,57624,57624,57624,57624,57624,57624,57624,57624,57624,57624,57624,57624,57624,57624,57624,57624,57624,57624,57624,57624,57624,57624,57624,57624,57624,57624,57624,57624,57624,57624,57624,57624,57624,57624,57624,57624,57624,57624,57624,57624,57624,57624,57624,57624,57624,57624,57624,57624,57624,57624,57624,57624,57624,57624,
57624,57624,57624,57624,57624,57624,57624,57624,57624,57624,57624,57624,57624,57624,57624,57624,57624,57624,57624,57624,57624,57624,57624,57624,57624,57624,57624,57624,57624,57624,57624,57624,57624,57624,57624,57624,57624,57624,57624,57624,57624,57624,57624,57624,57624,57624,57624,57624,57624,57624,57624,57624,57624,57624,57624,57624,57624,57624,57624,57624,57624,57624,57624,57624,57624,57624,57624,57624,57624,57624,57624,57624,57624,57624,57624,57628,57624,57624,57624,57624,57624,57624,57624,57624,57624,57624,57624,57624,57624,57624,57624,57624,57624,57625,57624,57624,57624,57624,57624,57624,57624,57624,57624,57624,57624,57624,57624,57624,57624,57624,57624,57624,57624,57624,57624,57624,57624,57624,57624,57624,57624,57624,57624,57624,57624,57624,57624,57624,57624,57624,57624,57624,57624,57624,57624,57624,57624,57624,57624,57624,57624,57624,57624,57624,57624,57624,57624,57624,57624,57624,57624,57624,57624,57624,57624,57624,57624,57624,57624,57624,57624,57624,57624,57624,57624,57624,57624,57624,57624,57624,57624,57624,57624,57624,57624,57624,57624,57624,57624,57624,57624,57624,57624,57624,57624,57624,57624,57624,57624,57624,57624,57624,57624,57624,57624,57624,57624,57624,57624,57624,57624,57624,57624,57624,57624,57624,57624,57624,57624,57624,57624,57624,57624,57624,57624,57624,57624,57624,57624,57624,57624,57624,57624,57624,57624,57624,57624,57624,57624,57624,57624,57624,57624,57624,57624,57624,57624,57624,57624,57624,
57624,57624,57624,57624,57624,57624,57624,57624,57624,57624,57624,57624,57624,57624,57624,57624,57624,57624,57624,57624,57624,57624,57624,57624,57624,57624,57624,57624,57624,57624,57624,57624,57624,57624,57624,57624,57624,57624,57624,57624,57624,57624,57624,57624,57624,57624,57624,57624,57624,57624,57624,57624,57624,57624,57624,57624,57624,57624,57624,57624,57624,57624,57624,57624,57624,57624,57624,57624,57624,57624,57624,57624,57624,57624,57624,57624,57624,57624,57624,57624,57624,57624,57624,57624,57624,57624,57624,57624,57624,57624,57624,57624,57624,57624,57624,57624,57624,57624,57624,57624,57624,57624,57624,57624,57624,57624,57624,57624,57624,57624,57624,57624,57624,57624,57624,57624,57624,57624,57624,57624,57624,57624,57624,57624,57624,57624,57624,57624,57624,57624,57624,57624,57624,57624,57624,57624,57624,57624,57624,57624,57624,57624,57624,57624,57624,57624,57624,57624,57624,57624,57624,57624,57624,57624,57624,57628,57624,57624,57624,57624,57624,57624,57624,57624,57624,57624,57624,57624,57624,57624,57629,57624,57624,57624,57624,57624,57624,57624,57624,57624,57624,57624,57624,57624,57624,57624,57624,57624,57624,57624,57624,57624,57624,57624,57624,57624,57624,57624,57624,57624,57624,57624,57624,57624,57624,57624,57624,57624,57624,57624,57624,57624,57624,57624,57624,57624,57624,57624,57624,57624,57624,57624,57624,57624,57624,57624,57624,57624,57624,57624,57624,57624,57624,57624,57624,57624,57624,57624,57624,57624,
57624,57624,57624,57624,57624,57624,57624,57624,57624,57624,57624,57624,57624,57624,57624,57624,57624,57627,57624,57624,57624,57624,57624,57624,57624,57624,57624,57624,57624,57624,57624,57624,57624,57624,57624,57624,57624,57624,57624,57624,57624,57624,57624,57624,57624,57624,57624,57624,57624,57624,57624,57624,57624,57624,57624,57624,57624,57624,57624,57624,57624,57624,57624,57624,57624,57624,57624,57624,57624,57624,57624,57624,57624,57624,57624,57624,57624,57624,57624,57624,57624,57624,57624,57624,57624,57624,57624,57624,57624,57624,57624,57624,57624,57624,57624,57624,57624,57624,57624,57624,57624,57624,57624,57624,57624,57624,57624,57624,57624,57624,57624,57624,57624,57624,57624,57624,57624,57624,57624,57624,57624,57624,57624,57624,57624,57624,57624,57624,57624,57624,57624,57624,57624,57624,57624,57624,57624,57624,57624,57624,57624,57624,57624,57624,57624,57624,57624,57624,57624,57624,57624,57624,57624,57624,57624,57624,57624,57624,57624,57624,57624,57624,57624,57624,57624,57624,57624,57624,57624,57624,57624,57624,57624,57624,57624,57624,57624,57624,57624,57624,57624,57624,57624,57624,57624,57624,57624,57624,57624,57624,57624,57624,57624,57624,57624,57624,57624,57624,57624,57624,57624,57624,57624,57624,57624,57624,57624,57624,57624,57624,57624,57624,57624,57624,57624,57624,57624,57624,57624,57624,57624,57624,57624,57624,57624,57624,57624,57624,57624,57624,57624,57624,57624,57624,57626,57624,57624,57624,57624,57624,
57624,57624,57624,57624,57624,57624,57624,57624,57624,57624,57624,57624,57624,57624,57624,57624,57624,57624,57624,57624,57624,57624,57624,57624,57624,57624,57624,57624,57624,57624,57624,57624,57624,57624,57624,57624,57624,57624,57624,57624,57624,57624,57624,57624,57624,57624,57624,57624,57624,57624,57624,57624,57624,57624,57624,57624,57624,57624,57624,57624,57624,57624,57624,57624,57624,57624,57624,57624,57624,57624,57624,57624,57624,57624,57624,57624,57624,57624,57624,57624,57624,57624,57624,57624,57624,57624,57624,57624,57624,57624,57624,57624,57624,57624,57624,57624,57624,57624,57624,57624,57624,57624,57624,57624,57624,57624,57624,57624,57624,57629,57624,57624,57624,57624,57624,57624,57624,57624,57624,57624,57624,57624,57624,57624,57624,57624,57624,57624,57624,57624,57624,57624,57624,57624,57624,57624,57624,57624,57624,57624,57624,57624,57624,57624,57624,57624,57624,57624,57624,57624,57624,57624,57624,57624,57624,57624,57624,57624,57624,57624,57624,57624,57624,57624,57624,57624,57624,57624,57624,57624,57624,57624,57624,57624,57624,57624,57624,57624,57624,57624,57624,57624,57624,57624,57624,57624,57624,57624,57624,57624,57624,57624,57624,57624,57624,57624,57624,57624,57624,57624,57624,57624,57624,57624,57624,57624,57624,57624,57624,57624,57624,57624,57624,57624,57624,57624,57624,57624,57624,57624,57624,57624,57624,57624,57624,57624,57624,57624,57624,57624,57624,57624,57624,57624,57624,57624,57624,57624,57624,57624,
57624,57624,57624,57624,57624,57624,57624,57624,57624,57624,57624,57624,57624,57624,57624,57624,57624,57624,57624,57624,57624,57624,57624,57624,57624,57624,57624,57624,57624,57624,57624,57624,57624,57625,57624,57624,57624,57624,57624,57624,57624,57624,57624,57624,57624,57624,57624,57624,57624,57624,57624,57624,57624,57624,57624,57624,57624,57624,57624,57624,57624,57624,57624,57624,57624,57624,57624,57624,57624,57624,57624,57624,57624,57624,57624,57624,57624,57624,57624,57624,57624,57624,57624,57624,57624,57624,57624,57624,57624,57624,57624,57624,57624,57624,57624,57624,57624,57624,57624,57624,57624,57624,57624,57624,57624,57624,57624,57624,57624,57624,57624,57624,57624,57624,57624,57624,57624,57624,57624,57624,57624,57624,57624,57624,57624,57624,57624,57624,57624,57624,57624,57624,57624,57624,57624,57624,57624,57624,57624,57624,57624,57624,57624,57624,57624,57624,57624,57624,57624,57624,57624,57624,57624,57624,57624,57624,57624,57624,57624,57624,57624,57624,57624,57624,57624,57624,57624,57624,57624,57624,57624,57624,57624,57624,57624,57624,57624,57624,57624,57624,57624,57624,57624,57624,57624,57624,57624,57624,57624,57624,57624,57624,57624,57624,57624,57624,57624,57624,57624,57624,57624,57624,57624,57624,57624,57624,57624,57624,57624,57624,57624,57624,57624,57624,57624,57624,57624,57624,57624,57624,57624,57624,57624,57624,57624,57624,57624,57624,57624,57624,57624,57624,57624,57627,57624,57624,57624,57624,57624,57624,
57624,57624,57624,57624,57624,57624,57624,57624,57624,57624,57624,57624,57624,57624,57624,57624,57624,57624,57624,57624,57624,57624,57624,57624,57624,57624,57624,57624,57624,57624,57624,57624,57624,57624,57624,57624,57624,57624,57624,57624,57624,57624,57624,57624,57624,57624,57624,57624,57624,57624,57624,57624,57624,57624,57624,57624,57624,57624,57624,57624,57624,57624,57624,57624,57624,57624,57624,57624,57624,57624,57624,57624,57624,57624,57624,57624,57624,57624,57624,57624,57624,57624,57624,57624,57624,57624,57624,57624,57624,57624,57624,57624,57624,57624,57624,57624,57624,57624,57624,57624,57624,57624,57624,57624,57624,57624,57624,57624,57624,57624,57624,57624,57624,57624,57624,57624,57624,57624,57624,57624,57624,57624,57624,57624,57624,57624,57624,57624,57624,57624,57624,57624,57624,57624,57624,57624,57624,57624,57624,57624,57624,57624,57624,57624,57624,57624,57624,57624,57624,57624,57624,57624,57624,57624,57624,57624,57624,57624,57624,57624,57624,57624,57624,57624,57624,57624,57624,57624,57624,57624,57624,57624,57624,57624,57624,57624,57624,57624,57624,57624,57624,57624,57624,57624,57624,57624,57624,57624,57624,57624,57624,57624,57624,57624,57624,57624,57624,57624,57624,57624,57624,57624,57629,57624,57624,57624,57624,57624,57624,57624,57624,57624,57624,57624,57624,57624,57624,57624,57624,57624,57624,57624,57624,57624,57624,57624,57624,57624,57624,57624,57624,57624,57624,57624,57624,57624,57624,57624,57624,57624,
57624,57624,57624,57624,57624,57624,57624,57624,57624,57624,57624,57624,57624,57624,57624,57624,57624,57624,57624,57624,57624,57624,57624,57624,57624,57624,57624,57624,57624,57624,57624,57624,57624,57624,57624,57624,57624,57624,57624,57624,57624,57624,57624,57624,57624,57624,57624,57624,57624,57624,57624,57624,57624,57624,57624,57624,57624,57624,57624,57628,57624,57624,57624,57624,57624,57624,57624,57624,57624,57624,57624,57624,57624,57624,57624,57624,57624,57624,57624,57624,57624,57624,57624,57624,57624,57624,57624,57624,57624,57624,57624,57624,57624,57624,57624,57624,57624,57624,57624,57624,57624,57624,57624,57624,57624,57624,57624,57624,57624,57624,57624,57624,57624,57624,57624,57624,57624,57624,57624,57624,57624,57624,57624,57624,57624,57624,57624,57624,57624,57624,57624,57624,57624,57624,57624,57624,57624,57624,57624,57624,57624,57624,57624,57624,57624,57624,57624,57624,57624,57624,57624,57624,57624,57624,57624,57624,57624,57624,57624,57624,57624,57624,57624,57624,57624,57624,57624,57624,57624,57624,57624,57624,57624,57624,57624,57624,57624,57624,57624,57624,57624,57624,57624,57624,57624,57624,57624,57624,57624,57624,57624,57624,57624,57624,57624,57624,57624,57624,57624,57624,57624,57624,57624,57624,57624,57624,57624,57624,57624,57624,57624,57624,57624,57624,57624,57624,57624,57624,57624,57624,57624,57624,57624,57624,57624,57624,57624,57624,57624,57624,57624,57624,57624,57624,57624,57624,57624,57624,57624,57624,
57624,57624,57624,57624,57624,57624,57624,57624,57624,57624,57624,57624,57624,57624,57624,57624,57624,57624,57624,57624,57624,57624,57624,57624,57624,57624,57624,57624,57624,57624,57624,57624,57624,57624,57624,57624,57624,57624,57624,57624,57624,57624,57624,57624,57624,57624,57624,57624,57624,57624,57624,57624,57624,57624,57624,57624,57624,57624,57624,57624,57624,57624,57624,57624,57624,57624,57624,57624,57624,57624,57624,57624,57624,57624,57624,57624,57624,57624,57624,57624,57624,57624,57624,57624,57624,57624,57624,57624,57624,57624,57624,57624,57624,57624,57624,57624,57624,57624,57624,57624,57624,57624,57624,57624,57624,57624,57624,57624,57624,57624,57624,57624,57624,57624,57624,57624,57624,57624,57624,57624,57624,57624,57624,57624,57624,57624,57624,57624,57624,57624,57624,57624,57624,57624,57624,57624,57624,57624,57624,57624,57624,57624,57624,57624,57624,57624,57624,57624,57624,57624,57624,57624,57624,57624,57624,57624,57624,57624,57624,57624,57624,57624,57624,57624,57624,57624,57624,57624,57624,57624,57624,57624,57624,57624,57624,57624,57624,57624,57624,57624,57624,57624,57624,57624,57624,57624,57624,57624,57624,57624,57624,57624,57624,57624,57624,57624,57624,57624,57624,57624,57624,57624,57624,57624,57624,57624,57624,57624,57624,57624,57624,57624,57624,57624,57624,57624,57624,57624,57628,57624,57624,57624,57624,57624,57624,57624,57624,57624,57624,57624,57624,57624,57624,57624,57624,57624,57624,57624,57624,57624,
57624,57624,57624,57624,57624,57624,57624,57624,57624,57624,57624,57624,57624,57624,57624,57624,57624,57624,57624,57624,57624,57624,57624,57624,57624,57624,57624,57624,57624,57624,57624,57624,57624,57624,57624,57624,57624,57624,57624,57624,57624,57624,57624,57624,57624,57624,57624,57624,57624,57624,57624,57624,57624,57624,57624,57624,57624,57624,57624,57624,57624,57624,57624,57624,57624,57624,57624,57624,57624,57624,57624,57624,57624,57624,57624,57624,57624,57624,57624,57624,57624,57624,57624,57624,57624,57624,57624,57624,57624,57624,57624,57624,57624,57624,57624,57624,57624,57624,57624,57624,57624,57624,57624,57624,57624,57624,57624,57624,57624,57624,57624,57624,57624,57629,57624,57624,57624,57624,57624,57624,57624,57624,57624,57624,57624,57624,57624,57624,57624,57624,57624,57624,57624,57624,57624,57625,57624,57624,57624,57624,57624,57624,57624,57624,57624,57624,57624,57624,57624,57624,57624,57624,57628,57624,57624,57624,57624,57624,57624,57624,57624,57624,57624,57624,57624,57624,57624,57624,57624,57624,57624,57624,57624,57624,57624,57624,57624,57624,57624,57624,57624,57624,57624,57624,57624,57624,57624,57624,57624,57624,57624,57624,57624,57624,57624,57624,57624,57624,57624,57624,57624,57624,57624,57624,57624,57629,57624,57624,57624,57624,57624,57624,57624,57624,57624,57624,57624,57624,57624,57624,57624,57624,57624,57624,57624,57624,57624,57624,57624,57624,57624,57624,57624,57624,57624,57624,57624,57624,57624,57624,
57624,57624,57624,57624,57624,57624,57624,57624,57624,57624,57624,57624,57624,57624,57624,57624,57624,57624,57624,57624,57624,57624,57624,57624,57624,57624,57624,57624,57624,57624,57624,57624,57624,57624,57624,57624,57624,57624,57624,57624,57624,57624,57624,57624,57624,57624,57624,57624,57624,57624,57624,57624,57624,57624,57624,57624,57624,57624,57624,57624,57624,57624,57624,57624,57624,57624,57624,57624,57624,57624,57624,57624,57624,57624,57624,57624,57624,57624,57624,57624,57624,57624,57624,57624,57624,57624,57624,57624,57624,57624,57624,57624,57624,57624,57624,57624,57624,57624,57624,57624,57624,57624,57624,57624,57624,57624,57624,57624,57624,57624,57624,57624,57624,57624,57624,57624,57624,57624,57624,57624,57624,57624,57624,57624,57624,57624,57624,57624,57624,57624,57624,57624,57624,57624,57624,57624,57624,57624,57624,57624,57624,57624,57624,57624,57624,57624,57624,57624,57624,57624,57624,57624,57624,57624,57624,57624,57629,57624,57624,57624,57624,57624,57624,57624,57624,57624,57624,57624,57624,57624,57624,57624,57624,57624,57624,57624,57624,57624,57624,57624,57624,57624,57624,57624,57624,57624,57624,57624,57624,57624,57624,57624,57624,57624,57624,57624,57624,57624,57624,57624,57624,57624,57624,57624,57624,57624,57624,57624,57624,57624,57624,57624,57624,57624,57624,57625,57624,57624,57624,57624,57624,57624,57624,57624,57624,57624,57624,57624,57624,57624,57624,57624,57624,57624,57624,57625,57624,57624,57624,57624,
57624,57624,57624,57624,57624,57624,57624,57624,57624,57624,57624,57624,57624,57624,57624,57624,57624,57624,57624,57624,57624,57624,57624,57624,57624,57624,57624,57624,57624,57624,57624,57624,57624,57624,57624,57624,57624,57624,57624,57624,57624,57624,57624,57624,57624,57624,57624,57624,57624,57624,57624,57624,57624,57624,57624,57624,57624,57624,57624,57624,57624,57624,57624,57624,57624,57624,57624,57624,57624,57624,57624,57624,57624,57624,57624,57624,57624,57624,57624,57624,57624,57624,57624,57624,57624,57624,57624,57624,57624,57624,57624,57624,57624,57624,57624,57624,57624,57624,57624,57624,57624,57624,57624,57624,57624,57624,57624,57624,57624,57624,57624,57624,57624,57624,57624,57624,57624,57624,57624,57624,57624,57624,57624,57624,57624,57624,57624,57624,57624,57624,57624,57624,57624,57624,57624,57624,57624,57624,57624,57624,57624,57624,57624,57624,57624,57624,57624,57624,57624,57624,57624,57624,57624,57624,57624,57624,57624,57624,57624,57624,57624,57624,57624,57624,57624,57624,57624,57624,57624,57624,57624,57624,57624,57624,57624,57624,57624,57624,57624,57624,57624,57624,57624,57624,57624,57624,57624,57624,57624,57624,57624,57624,57624,57624,57624,57624,57624,57624,57624,57624,57624,57624,57624,57624,57624,57624,57624,57624,57624,57624,57624,57624,57624,57624,57624,57624,57624,57624,57624,57624,57624,57624,57624,57624,57624,57624,57624,57624,57624,57624,57624,57624,57624,57624,57624,57624,57624,57624,57624,57624,
57624,57624,57624,57624,57624,57624,57624,57624,57624,57624,57624,57624,57624,57624,57624,57624,57624,57624,57624,57624,57624,57624,57624,57624,57624,57624,57624,57624,57624,57624,57624,57624,57624,57624,57624,57624,57624,57624,57624,57624,57624,57624,57624,57624,57624,57624,57624,57624,57624,57624,57624,57624,57624,57624,57624,57624,57625,57624,57624,57624,57624,57624,57624,57624,57624,57624,57624,57624,57624,57624,57624,57624,57624,57624,57624,57624,57624,57624,57624,57624,57624,57624,57624,57624,57624,57624,57624,57624,57624,57624,57624,57624,57624,57624,57624,57624,57624,57627,57624,57624,57624,57624,57624,57624,57624,57624,57624,57624,57624,57624,57624,57624,57624,57624,57624,57624,57624,57624,57624,57624,57624,57624,57624,57624,57624,57624,57624,57624,57624,57624,57624,57624,57626,57624,57624,57624,57624,57624,57624,57624,57624,57624,57624,57624,57624,57624,57624,57624,57624,57624,57624,57624,57624,57624,57624,57624,57624,57624,57624,57624,57624,57624,57624,57624,57624,57624,57624,57624,57624,57624,57624,57624,57624,57624,57624,57624,57624,57624,57624,57624,57624,57624,57624,57624,57624,57624,57624,57624,57624,57624,57624,57624,57624,57624,57624,57624,57624,57624,57624,57624,57624,57624,57624,57624,57624,57624,57624,57624,57624,57624,57624,57624,57624,57624,57624,57624,57624,57624,57624,57624,57624,57624,57624,57624,57624,57624,57624,57624,57624,57624,57624,57624,57624,57624,57624,57624,57624,57624,57624,57629,
57624,57624,57624,57629,57624,57624,57624,57624,57624,57624,57624,57624,57624,57624,57624,57624,57624,57624,57624,57624,57624,57624,57624,57624,57624,57624,57624,57624,57624,57624,57624,57624,57624,57624,57624,57624,57624,57624,57624,57624,57624,57627,57624,57624,57624,57624,57624,57624,57624,57624,57624,57624,57624,57624,57624,57624,57624,57624,57624,57624,57624,57624,57624,57624,57624,57624,57624,57624,57624,57624,57624,57624,57624,57624,57624,57624,57624,57624,57624,57624,57624,57624,57624,57624,57624,57624,57624,57624,57624,57624,57624,57624,57624,57624,57624,57624,57624,57624,57624,57624,57624,57624,57624,57624,57624,57624,57624,57624,57624,57624,57624,57624,57624,57624,57624,57624,57624,57624,57624,57624,57624,57624,57624,57624,57624,57624,57624,57624,57624,57624,57624,57624,57624,57624,57624,57624,57624,57624,57624,57624,57624,57624,57624,57624,57624,57624,57624,57624,57624,57624,57624,57624,57624,57624,57624,57624,57624,57624,57624,57624,57624,57624,57624,57624,57624,57624,57624,57624,57624,57624,57624,57624,57624,57624,57624,57624,57624,57624,57624,57624,57624,57624,57624,57624,57624,57624,57624,57624,57624,57624,57624,57624,57624,57624,57624,57624,57624,57624,57624,57624,57624,57624,57624,57624,57624,57624,57624,57624,57624,57624,57624,57624,57624,57624,57624,57624,57624,57624,57624,57624,57624,57624,57624,57624,57624,57624,57624,57624,57624,57624,57624,57624,57624,57624,57624,57624,57624,57624,57624,57624,
57624,57624,57624,57624,57624,57624,57624,57624,57624,57624,57624,57624,57624,57624,57624,57624,57624,57624,57624,57624,57624,57624,57624,57624,57624,57624,57624,57624,57624,57624,57624,57624,57624,57624,57624,57624,57624,57624,57627,57624,57624,57624,57626,57624,57624,57624,57624,57624,57624,57624,57624,57624,57624,57624,57624,57624,57624,57624,57624,57624,57624,57624,57624,57624,57624,57624,57624,57624,57624,57624,57624,57624,57624,57624,57624,57624,57624,57624,57624,57624,57624,57624,57624,57624,57624,57624,57624,57624,57624,57624,57624,57624,57624,57624,57624,57624,57624,57624,57624,57624,57624,57624,57624,57624,57624,57624,57624,57624,57624,57624,57624,57624,57624,57624,57624,57624,57624,57624,57624,57624,57624,57624,57624,57624,57624,57624,57624,57624,57624,57624,57624,57624,57624,57624,57624,57624,57624,57624,57624,57624,57624,57624,57624,57624,57624,57624,57624,57624,57624,57625,57624,57624,57624,57624,57624,57624,57624,57624,57624,57624,57624,57624,57624,57624,57624,57624,57624,57624,57624,57624,57624,57624,57624,57624,57624,57624,57624,57624,57624,57624,57624,57624,57624,57624,57624,57624,57627,57624,57624,57624,57624,57624,57624,57624,57624,57624,57624,57624,57624,57624,57624,57624,57624,57624,57624,57624,57624,57624,57624,57624,57624,57624,57624,57624,57624,57624,57624,57624,57624,57624,57624,57624,57624,57624,57624,57624,57624,57624,57624,57624,57624,57624,57624,57624,57624,57624,57624,57624,57624,57624,
57624,57629,57624,57624,57624,57624,57624,57624,57624,57624,57624,57624,57624,57624,57624,57624,57624,57624,57624,57624,57624,57624,57624,57624,57624,57624,57624,57624,57624,57624,57624,57624,57624,57624,57624,57624,57624,57624,57624,57624,57624,57624,57624,57624,57624,57624,57624,57624,57624,57624,57624,57624,57624,57624,57624,57624,57624,57624,57624,57624,57624,57624,57624,57624,57624,57624,57624,57624,57624,57624,57624,57624,57624,57624,57624,57624,57624,57624,57624,57624,57624,57624,57624,57624,57624,57624,57624,57624,57624,57624,57624,57624,57624,57624,57624,57624,57624,57624,57624,57624,57624,57624,57624,57624,57624,57624,57624,57624,57624,57624,57624,57624,57624,57624,57624,57624,57624,57624,57624,57624,57624,57624,57624,57624,57624,57624,57624,57624,57624,57624,57624,57624,57624,57624,57624,57624,57624,57624,57624,57624,57624,57624,57624,57624,57624,57624,57624,57624,57624,57624,57624,57624,57624,57624,57624,57624,57624,57624,57624,57624,57624,57624,57624,57624,57624,57624,57624,57624,57624,57624,57624,57624,57624,57624,57624,57624,57624,57624,57624,57624,57624,57624,57624,57624,57624,57624,57624,57624,57624,57624,57624,57624,57624,57624,57624,57624,57624,57624,57624,57624,57624,57624,57624,57624,57624,57624,57625,57624,57624,57624,57624,57624,57624,57624,57624,57624,57624,57624,57624,57624,57624,57624,57624,57624,57624,57624,57624,57624,57624,57624,57624,57624,57624,57624,57624,57624,57624,57624,57624,57624,
57624,57624,57624,57624,57624,57624,57624,57624,57624,57624,57624,57624,57624,57624,57624,57624,57624,57624,57624,57624,57624,57624,57624,57624,57624,57624,57624,57624,57624,57624,57624,57624,57624,57624,57624,57624,57624,57624,57624,57624,57624,57624,57624,57624,57624,57624,57624,57624,57624,57624,57624,57624,57624,57624,57624,57624,57624,57624,57624,57624,57624,57624,57624,57624,57624,57624,57624,57624,57624,57624,57624,57624,57624,57627,57624,57624,57624,57624,57624,57624,57624,57624,57624,57624,57624,57624,57624,57624,57624,57624,57624,57624,57624,57624,57624,57624,57624,57624,57624,57624,57624,57624,57624,57624,57624,57624,57624,57624,57624,57624,57624,57624,57624,57624,57624,57624,57624,57624,57624,57624,57624,57624,57624,57624,57624,57624,57624,57624,57624,57624,57624,57624,57624,57624,57624,57624,57624,57624,57624,57624,57624,57624,57624,57624,57624,57624,57624,57624,57624,57624,57624,57624,57624,57624,57624,57624,57624,57624,57624,57624,57624,57624,57624,57624,57624,57624,57624,57624,57624,57624,57624,57624,57624,57624,57624,57624,57624,57624,57624,57624,57624,57624,57624,57624,57624,57624,57624,57624,57624,57624,57624,57624,57624,57624,57624,57624,57624,57624,57628,57624,57624,57624,57624,57624,57624,57624,57624,57624,57624,57624,57624,57624,57624,57624,57624,57624,57624,57624,57624,57624,57624,57624,57624,57624,57624,57624,57624,57624,57624,57624,57624,57624,57624,57624,57624,57624,57624,57624,57624,57624,
57624,57624,57624,57624,57624,57624,57624,57624,57624,57624,57624,57624,57624,57624,57624,57624,57624,57624,57624,57624,57624,57624,57624,57624,57624,57624,57624,57624,57626,57624,57624,57624,57624,57624,57624,57624,57624,57624,57624,57624,57624,57624,57624,57624,57624,57624,57624,57624,57624,57624,57624,57624,57624,57624,57624,57624,57624,57624,57624,57624,57624,57624,57624,57624,57624,57624,57624,57624,57624,57624,57624,57624,57624,57624,57624,57624,57624,57624,57624,57624,57624,57624,57624,57624,57624,57624,57624,57624,57624,57624,57624,57624,57624,57624,57624,57624,57624,57624,57624,57624,57624,57624,57624,57624,57624,57624,57624,57624,57624,57624,57624,57624,57624,57624,57624,57624,57624,57624,57624,57624,57624,57624,57624,57624,57624,57624,57624,57624,57624,57624,57624,57624,57624,57624,57624,57624,57624,57624,57624,57624,57624,57624,57624,57624,57624,57624,57624,57624,57624,57624,57624,57624,57624,57624,57624,57624,57624,57624,57624,57624,57624,57624,57624,57624,57624,57624,57624,57624,57624,57624,57624,57624,57624,57624,57624,57624,57624,57624,57624,57624,57624,57624,57624,57624,57624,57624,57624,57624,57624,57624,57624,57624,57624,57624,57624,57624,57624,57624,57624,57624,57624,57624,57624,57624,57624,57624,57624,57624,57624,57624,57624,57624,57624,57624,57624,57624,57624,57624,57624,57624,57624,57624,57624,57624,57624,57624,57624,57624,57624,57624,57624,57624,57624,57624,57624,57624,57624,57624,57624,57624,
57624,57624,57624,57624,57624,57624,57624,57624,57624,57624,57624,57624,57624,57624,57624,57624,57624,57624,57624,57624,57624,57624,57624,57624,57624,57624,57624,57624,57624,57624,57624,57624,57624,57624,57624,57624,57624,57624,57624,57624,57624,57624,57624,57624,57624,57624,57624,57624,57624,57624,57624,57624,57624,57624,57624,57624,57624,57624,57624,57624,57624,57624,57624,57627,57624,57624,57624,57624,57624,57624,57624,57624,57624,57624,57624,57624,57624,57624,57624,57629,57624,57624,57624,57624,57624,57624,57624,57624,57624,57624,57624,57624,57624,57624,57624,57624,57624,57624,57624,57624,57624,57624,57624,57624,57624,57624,57624,57624,57624,57624,57624,57624,57624,57624,57624,57629,57624,57624,57624,57624,57624,57624,57624,57624,57624,57624,57624,57624,57624,57624,57624,57624,57624,57624,57624,57624,57624,57624,57624,57624,57624,57624,57624,57624,57624,57624,57624,57624,57624,57624,57624,57624,57624,57624,57624,57624,57624,57624,57624,57624,57624,57624,57624,57624,57624,57624,57624,57624,57624,57624,57624,57624,57624,57624,57624,57624,57624,57624,57624,57624,57624,57624,57624,57624,57624,57624,57624,57624,57624,57624,57624,57624,57624,57624,57624,57624,57624,57624,57624,57624,57624,57624,57624,57624,57624,57624,57624,57624,57624,57624,57624,57624,57624,57624,57624,57624,57624,57624,57624,57624,57624,57624,57624,57624,57624,57624,57624,57624,57629,57624,57624,57624,57624,57624,57624,57624,57624,57624,57624,57624,
57624,57624,57624,57624,57624,57624,57624,57624,57624,57624,57624,57624,57624,57624,57624,57624,57624,57624,57624,57624,57624,57624,57624,57624,57624,57624,57624,57624,57624,57624,57624,57624,57624,57624,57624,57624,57624,57624,57624,57624,57624,57624,57624,57624,57624,57624,57624,57624,57624,57624,57624,57624,57624,57626,57624,57624,57624,57624,57624,57624,57624,57624,57624,57624,57624,57624,57624,57624,57624,57624,57624,57624,57624,57624,57624,57624,57624,57624,57624,57624,57624,57624,57624,57624,57624,57624,57624,57624,57624,57624,57624,57624,57624,57624,57624,57624,57624,57624,57624,57624,57624,57624,57624,57624,57624,57624,57624,57624,57624,57624,57624,57624,57624,57624,57624,57624,57624,57624,57624,57624,57624,57624,57624,57624,57624,57624,57624,57624,57624,57624,57624,57624,57624,57624,57624,57624,57624,57624,57624,57624,57624,57624,57624,57624,57624,57624,57624,57624,57624,57624,57624,57624,57624,57624,57624,57624,57624,57624,57624,57624,57624,57624,57624,57624,57624,57624,57624,57624,57624,57624,57624,57624,57624,57624,57624,57624,57624,57624,57624,57624,57624,57624,57624,57624,57624,57624,57624,57624,57624,57624,57624,57624,57624,57624,57624,57624,57624,57624,57624,57624,57624,57624,57624,57624,57624,57624,57624,57624,57624,57624,57624,57624,57624,57624,57624,57624,57624,57624,57624,57624,57624,57624,57624,57624,57624,57624,57624,57624,57624,57624,57624,57624,57624,57624,57624,57624,57624,57624,57624,57624,
57624,57624,57624,57624,57624,57624,57624,57624,57624,57624,57624,57624,57624,57624,57624,57624,57624,57624,57624,57624,57624,57624,57624,57624,57624,57624,57624,57624,57624,57624,57624,57624,57624,57624,57624,57624,57624,57624,57624,57624,57624,57624,57624,57624,57624,57624,57624,57624,57624,57624,57624,57624,57624,57624,57624,57624,57624,57624,57624,57624,57624,57624,57624,57624,57624,57624,57624,57624,57624,57624,57624,57624,57624,57624,57624,57624,57624,57624,57624,57624,57624,57624,57624,57624,57624,57624,57624,57624,57624,57624,57624,57624,57624,57624,57624,57624,57624,57624,57624,57624,57624,57624,57624,57624,57624,57624,57624,57624,57624,57624,57624,57624,57624,57624,57624,57624,57624,57624,57624,57624,57624,57624,57624,57624,57624,57624,57624,57624,57624,57624,57624,57624,57624,57624,57624,57624,57624,57624,57624,57624,57624,57624,57624,57624,57624,57624,57624,57624,57624,57624,57624,57624,57624,57624,57624,57624,57624,57624,57624,57624,57624,57624,57624,57624,57624,57624,57624,57624,57624,57624,57624,57624,57624,57624,57624,57624,57624,57624,57624,57624,57624,57624,57624,57624,57624,57624,57624,57624,57624,57624,57624,57624,57624,57624,57624,57624,57624,57624,57624,57624,57624,57624,57624,57624,57624,57624,57624,57624,57624,57624,57624,57624,57624,57624,57624,57624,57624,57624,57624,57624,57624,57624,57624,57624,57624,57624,57624,57624,57624,57624,57624,57624,57624,57624,57624,57624,57624,57624,57624,57624,
57624,57624,57624,57624,57624,57624,57624,57624,57624,57624,57624,57624,57624,57624,57624,57624,57624,57624,57624,57624,57624,57624,57624,57624,57624,57624,57624,57624,57624,57624,57624,57624,57624,57624,57624,57624,57624,57624,57624,57624,57624,57624,57624,57624,57624,57624,57624,57624,57624,57624,57624,57624,57624,57624,57624,57624,57624,57624,57624,57624,57624,57624,57624,57624,57624,57624,57624,57624,57624,57624,57624,57624,57629,57624,57624,57624,57624,57624,57624,57624,57624,57624,57624,57624,57624,57624,57624,57624,57624,57624,57624,57624,57624,57624,57624,57624,57624,57624,57624,57624,57624,57624,57624,57624,57624,57624,57624,57624,57624,57624,57624,57624,57624,57624,57624,57624,57624,57624,57624,57624,57624,57624,57624,57624,57624,57624,57624,57624,57624,57624,57624,57624,57624,57624,57624,57624,57624,57624,57624,57624,57624,57624,57624,57624,57624,57624,57624,57624,57624,57624,57624,57624,57624,57624,57624,57624,57624,57624,57624,57624,57624,57624,57624,57624,57624,57624,57624,57624,57624,57624,57624,57624,57624,57624,57624,57624,57624,57624,57624,57624,57624,57624,57624,57624,57624,57624,57624,57624,57624,57624,57624,57624,57624,57624,57624,57624,57624,57624,57624,57624,57624,57624,57624,57624,57624,57628,57624,57624,57624,57624,57624,57624,57624,57624,57624,57624,57624,57624,57624,57624,57624,57624,57624,57624,57624,57624,57624,57624,57624,57624,57628,57624,57624,57624,57624,57624,57624,57624,57624,57624,
57624,57624,57624,57624,57624,57624,57624,57624,57624,57624,57624,57624,57624,57624,57624,57624,57624,57624,57624,57624,57624,57624,57624,57624,57628,57624,57624,57624,57624,57624,57624,57624,57624,57624,57624,57624,57624,57624,57624,57624,57624,57624,57624,57624,57627,57624,57624,57624,57624,57624,57624,57624,57624,57624,57624,57624,57624,57624,57624,57624,57624,57624,57624,57624,57624,57624,57624,57624,57624,57624,57624,57624,57624,57624,57624,57624,57624,57624,57624,57624,57624,57624,57624,57624,57624,57624,57624,57624,57624,57624,57624,57624,57624,57624,57624,57624,57624,57624,57624,57624,57624,57624,57624,57624,57624,57624,57624,57624,57624,57624,57624,57624,57624,57624,57624,57624,57624,57624,57624,57624,57624,57624,57624,57624,57624,57624,57624,57624,57624,57624,57624,57624,57624,57624,57624,57624,57624,57624,57624,57624,57624,57624,57624,57624,57624,57624,57624,57624,57624,57624,57624,57624,57624,57624,57624,57624,57624,57624,57624,57624,57624,57624,57624,57624,57624,57624,57624,57624,57624,57624,57624,57624,57624,57624,57624,57624,57624,57624,57624,57624,57624,57624,57624,57624,57624,57624,57624,57624,57624,57624,57624,57624,57624,57624,57624,57624,57624,57624,57624,57624,57624,57624,57624,57624,57624,57624,57624,57624,57624,57624,57624,57624,57624,57625,57624,57624,57624,57624,57624,57624,57624,57624,57624,57624,57624,57624,57624,57624,57624,57624,57624,57624,57624,57624,57624,57624,57624,57624,57624,57624,
57624,57624,57624,57624,57624,57624,57624,57624,57624,57624,57624,57624,57624,57624,57624,57624,57624,57624,57624,57624,57624,57624,57624,57624,57624,57624,57624,57624,57624,57624,57624,57624,57624,57624,57624,57624,57624,57624,57624,57624,57624,57624,57624,57624,57624,57624,57624,57624,57624,57624,57624,57624,57624,57624,57624,57624,57624,57624,57624,57624,57624,57624,57624,57624,57624,57624,57624,57624,57624,57624,57624,57624,57624,57624,57624,57624,57624,57624,57624,57624,57624,57624,57624,57624,57624,57624,57624,57625,57624,57624,57624,57624,57624,57624,57624,57624,57624,57624,57624,57624,57624,57624,57624,57624,57624,57624,57624,57624,57624,57624,57624,57624,57624,57624,57624,57624,57624,57624,57624,57624,57624,57624,57624,57624,57624,57624,57624,57624,57624,57624,57624,57624,57624,57624,57627,57624,57624,57624,57624,57624,57624,57624,57624,57624,57624,57624,57624,57624,57624,57624,57624,57624,57624,57624,57624,57624,57624,57624,57624,57624,57624,57624,57625,57624,57624,57624,57624,57624,57624,57624,57624,57624,57624,57624,57624,57624,57624,57624,57624,57624,57624,57624,57624,57624,57624,57624,57624,57624,57624,57624,57624,57624,57624,57624,57624,57624,57624,57624,57624,57624,57624,57624,57624,57624,57624,57624,57624,57624,57624,57624,57624,57624,57624,57624,57624,57624,57624,57624,57624,57624,57624,57624,57624,57624,57624,57624,57624,57624,57624,57624,57624,57624,57624,57624,57624,57624,57624,57624,57624,57624,
57624,57628,57624,57624,57624,57624,57624,57624,57624,57624,57624,57624,57624,57624,57624,57624,57624,57624,57624,57624,57624,57624,57624,57624,57624,57624,57624,57624,57624,57624,57624,57624,57624,57624,57624,57624,57624,57624,57624,57624,57624,57624,57624,57624,57624,57624,57624,57624,57624,57624,57624,57624,57624,57624,57624,57624,57624,57624,57624,57624,57624,57624,57624,57624,57624,57624,57624,57624,57624,57624,57624,57624,57624,57624,57624,57624,57624,57624,57624,57624,57624,57624,57624,57624,57624,57624,57624,57624,57624,57624,57624,57624,57624,57624,57624,57624,57624,57624,57624,57624,57624,57624,57624,57624,57624,57624,57624,57624,57624,57624,57624,57624,57624,57624,57624,57624,57624,57624,57624,57624,57624,57624,57624,57624,57624,57624,57624,57624,57624,57624,57624,57624,57624,57624,57624,57624,57624,57624,57624,57624,57624,57624,57624,57624,57624,57624,57624,57624,57624,57624,57624,57624,57624,57624,57624,57624,57624,57624,57624,57624,57624,57624,57624,57624,57624,57624,57624,57624,57624,57624,57624,57624,57624,57624,57624,57624,57624,57624,57624,57624,57624,57624,57624,57624,57624,57624,57624,57624,57624,57624,57624,57624,57624,57624,57624,57624,57624,57624,57624,57624,57624,57624,57624,57624,57624,57624,57624,57624,57624,57624,57624,57624,57624,57624,57624,57624,57624,57624,57624,57624,57624,57624,57624,57624,57624,57624,57624,57624,57624,57624,57624,57624,57624,57624,57624,57624,57624,57624,57624,57624,
57624,57624,57624,57624,57624,57624,57624,57624,57624,57624,57624,57624,57624,57624,57624,57624,57624,57624,57624,57624,57624,57624,57624,57624,57624,57624,57624,57624,57624,57624,57624,57624,57624,57624,57624,57624,57624,57624,57624,57624,57624,57624,57624,57624,57624,57624,57624,57624,57624,57624,57624,57624,57624,57624,57624,57624,57624,57624,57624,57624,57624,57624,57624,57624,57624,57624,57624,57624,57624,57624,57624,57624,57624,57624,57624,57624,57624,57624,57624,57624,57624,57624,57624,57624,57624,57624,57624,57624,57624,57624,57624,57624,57624,57624,57624,57624,57624,57624,57624,57624,57624,57624,57624,57624,57624,57624,57624,57624,57624,57624,57624,57624,57624,57624,57624,57624,57624,57624,57624,57624,57624,57624,57624,57624,57624,57624,57624,57624,57624,57624,57624,57624,57624,57624,57624,57624,57624,57624,57624,57624,57624,57624,57624,57624,57624,57624,57629,57624,57624,57624,57624,57624,57624,57626,57624,57624,57624,57624,57624,57624,57624,57624,57624,57624,57624,57624,57624,57624,57624,57624,57624,57624,57624,57624,57624,57624,57624,57624,57624,57624,57624,57624,57624,57624,57624,57624,57624,57624,57624,57624,57624,57624,57624,57624,57624,57624,57624,57624,57624,57624,57624,57624,57624,57624,57624,57624,57624,57624,57624,57626,57624,57624,57624,57624,57624,57624,57624,57624,57624,57624,57624,57624,57625,57624,57624,57624,57624,57624,57624,57624,57624,57624,57624,57624,57624,57624,57624,57624,57624,57624,
57624,57624,57624,57624,57624,57624,57624,57624,57624,57624,57624,57624,57624,57624,57624,57624,57624,57624,57624,57624,57624,57624,57624,57624,57624,57624,57624,57624,57624,57624,57624,57624,57624,57624,57624,57624,57624,57624,57624,57624,57624,57624,57624,57624,57624,57624,57624,57624,57624,57624,57624,57624,57624,57624,57624,57624,57624,57624,57624,57624,57624,57624,57624,57624,57624,57624,57624,57624,57624,57624,57624,57624,57624,57624,57624,57624,57624,57624,57624,57624,57624,57624,57624,57624,57624,57624,57624,57624,57624,57624,57624,57624,57624,57624,57624,57624,57624,57624,57624,57624,57624,57624,57624,57624,57624,57624,57624,57624,57624,57624,57624,57629,57624,57624,57624,57624,57624,57624,57624,57624,57624,57624,57624,57624,57624,57624,57624,57624,57624,57624,57624,57624,57624,57624,57624,57624,57624,57624,57624,57624,57624,57624,57624,57624,57624,57624,57624,57624,57624,57624,57624,57624,57624,57624,57624,57624,57624,57624,57624,57624,57624,57624,57624,57624,57624,57624,57624,57624,57624,57624,57624,57624,57624,57624,57624,57624,57624,57624,57624,57624,57624,57624,57624,57624,57624,57624,57624,57624,57624,57624,57624,57624,57624,57624,57624,57624,57624,57624,57624,57624,57624,57624,57624,57624,57624,57624,57624,57624,57624,57624,57624,57624,57624,57624,57624,57624,57624,57624,57624,57624,57624,57624,57624,57624,57624,57624,57624,57624,57624,57624,57624,57624,57624,57624,57624,57624,57624,57624,57624,57624,
57624,57624,57624,57624,57624,57624,57624,57624,57624,57624,57624,57624,57624,57624,57624,57624,57624,57624,57624,57624,57624,57624,57624,57624,57624,57624,57624,57624,57624,57624,57624,57624,57624,57624,57624,57624,57624,57624,57624,57624,57624,57624,57624,57624,57624,57624,57624,57624,57624,57624,57624,57624,57624,57624,57624,57624,57624,57624,57624,57624,57624,57624,57624,57624,57624,57624,57626,57624,57624,57624,57624,57624,57624,57624,57624,57624,57624,57624,57624,57624,57624,57624,57624,57624,57624,57624,57624,57624,57624,57624,57624,57624,57624,57624,57624,57624,57624,57624,57624,57624,57624,57624,57624,57624,57624,57624,57624,57624,57624,57624,57624,57624,57624,57624,57624,57624,57624,57624,57624,57624,57624,57624,57624,57624,57624,57624,57624,57624,57624,57624,57624,57624,57624,57624,57624,57624,57624,57624,57624,57624,57624,57624,57624,57624,57624,57624,57624,57624,57624,57624,57624,57624,57624,57624,57624,57624,57624,57624,57624,57624,57624,57624,57624,57624,57624,57624,57624,57624,57624,57624,57624,57624,57624,57624,57624,57624,57624,57624,57624,57624,57624,57624,57624,57624,57624,57624,57624,57624,57624,57624,57624,57624,57624,57624,57624,57624,57624,57624,57624,57624,57624,57624,57624,57624,57624,57624,57624,57624,57624,57624,57624,57624,57624,57624,57624,57624,57625,57624,57624,57624,57624,57624,57624,57624,57624,57624,57624,57624,57624,57624,57624,57624,57624,57624,57624,57624,57624,57624,57624,57624,
57624,57624,57624,57624,57624,57624,57624,57624,57624,57624,57624,57624,57624,57624,57624,57624,57624,57624,57624,57624,57624,57624,57624,57624,57624,57624,57624,57624,57624,57624,57624,57624,57624,57624,57624,57624,57624,57624,57624,57624,57624,57624,57624,57624,57624,57624,57624,57624,57624,57624,57624,57624,57624,57624,57624,57624,57624,57624,57624,57624,57624,57624,57624,57624,57624,57624,57624,57624,57624,57624,57624,57624,57624,57624,57624,57628,57624,57624,57624,57624,57624,57624,57624,57624,57624,57624,57624,57624,57624,57624,57624,57624,57624,57624,57624,57624,57624,57624,57624,57624,57624,57624,57624,57624,57624,57624,57624,57624,57624,57624,57624,57624,57624,57624,57624,57624,57624,57624,57624,57624,57624,57624,57624,57624,57624,57624,57624,57624,57624,57624,57624,57624,57624,57624,57624,57624,57624,57624,57624,57624,57624,57624,57624,57624,57624,57624,57629,57624,57624,57624,57624,57624,57624,57624,57624,57624,57624,57624,57624,57624,57624,57624,57624,57624,57624,57624,57624,57624,57624,57624,57624,57624,57624,57624,57624,57624,57624,57624,57624,57624,57624,57624,57624,57624,57624,57626,57624,57624,57624,57624,57624,57624,57624,57624,57624,57624,57624,57624,57624,57624,57624,57624,57624,57629,57624,57624,57624,57624,57624,57624,57624,57624,57624,57624,57624,57624,57624,57624,57624,57629,57624,57624,57624,57624,57624,57624,57624,57624,57624,57624,57624,57624,57624,57624,57625,57624,57624,57624,57624,57624,
57624,57624,57624,57624,57624,57624,57624,57624,57624,57624,57624,57624,57624,57624,57624,57624,57624,57624,57624,57624,57624,57624,57624,57624,57624,57624,57624,57624,57624,57624,57624,57624,57624,57624,57624,57624,57624,57624,57624,57624,57624,57624,57624,57624,57624,57624,57624,57624,57624,57624,57624,57624,57624,57624,57624,57624,57624,57624,57624,57624,57624,57624,57624,57624,57624,57624,57624,57624,57624,57624,57624,57624,57624,57624,57624,57624,57624,57624,57624,57624,57624,57624,57624,57624,57624,57624,57624,57624,57624,57624,57624,57624,57624,57624,57624,57624,57624,57624,57624,57624,57624,57624,57624,57624,57624,57624,57624,57624,57624,57624,57624,57624,57624,57624,57624,57624,57624,57624,57624,57624,57624,57624,57624,57624,57624,57624,57624,57624,57624,57624,57624,57624,57624,57624,57624,57624,57624,57624,57624,57624,57624,57624,57624,57624,57624,57624,57624,57624,57624,57624,57624,57624,57624,57624,57624,57624,57624,57624,57624,57624,57624,57624,57624,57624,57624,57624,57624,57624,57624,57624,57624,57624,57624,57624,57624,57624,57624,57624,57624,57624,57624,57624,57624,57624,57624,57624,57624,57624,57624,57624,57624,57624,57624,57624,57624,57624,57624,57624,57624,57624,57624,57624,57624,57624,57624,57624,57624,57624,57624,57624,57624,57624,57624,57624,57624,57624,57624,57624,57624,57624,57624,57624,57624,57624,57624,57624,57624,57624,57624,57624,57624,57624,57624,57624,57624,57624,57624,57624,57624,57624,
57624,57624,57624,57624,57624,57624,57624,57624,57624,57624,57624,57624,57624,57624,57624,57624,57624,57624,57624,57624,57624,57624,57624,57624,57624,57624,57624,57624,57624,57624,57624,57624,57624,57624,57624,57624,57624,57624,57624,57624,57624,57624,57624,57624,57624,57624,57624,57624,57624,57624,57624,57624,57624,57624,57624,57624,57624,57624,57624,57624,57624,57624,57624,57624,57624,57624,57624,57624,57624,57624,57624,57624,57624,57624,57624,57624,57624,57624,57624,57624,57624,57624,57624,57624,57624,57624,57624,57624,57624,57624,57624,57624,57624,57624,57624,57624,57624,57624,57624,57624,57624,57624,57624,57624,57624,57624,57624,57624,57624,57624,57624,57624,57624,57624,57624,57624,57624,57624,57624,57624,57624,57624,57624,57624,57624,57624,57624,57624,57624,57624,57624,57624,57624,57627,57624,57624,57624,57624,57624,57624,57624,57624,57624,57624,57624,57624,57624,57624,57624,57624,57624,57624,57624,57624,57624,57624,57624,57624,57624,57624,57624,57624,57624,57624,57624,57624,57624,57624,57624,57624,57624,57624,57624,57624,57624,57624,57624,57624,57624,57624,57626,57624,57624,57624,57624,57624,57624,57629,57624,57624,57624,57624,57624,57624,57624,57624,57624,57624,57624,57624,57624,57624,57624,57624,57624,57624,57624,57624,57624,57624,57624,57624,57624,57624,57624,57624,57624,57624,57624,57624,57624,57624,57624,57624,57624,57624,57624,57624,57624,57624,57624,57624,57624,57624,57624,57624,57624,57624,57624,57624,
57624,57624,57624,57624,57624,57624,57624,57624,57624,57624,57624,57624,57624,57624,57624,57624,57624,57624,57624,57624,57624,57624,57624,57624,57624,57624,57624,57624,57624,57624,57624,57624,57624,57624,57624,57624,57624,57624,57624,57624,57624,57624,57624,57624,57624,57624,57624,57624,57624,57624,57624,57624,57624,57624,57624,57624,57624,57624,57624,57624,57624,57624,57624,57624,57624,57624,57624,57624,57624,57624,57624,57624,57624,57624,57624,57624,57624,57624,57624,57624,57624,57624,57624,57624,57624,57624,57624,57624,57624,57624,57624,57624,57624,57624,57624,57624,57624,57624,57624,57624,57627,57624,57624,57624,57629,57624,57627,57624,57624,57624,57624,57624,57624,57624,57624,57624,57624,57624,57624,57624,57624,57624,57624,57624,57624,57624,57624,57624,57624,57624,57624,57624,57624,57624,57624,57624,57624,57624,57624,57624,57624,57624,57624,57624,57624,57624,57624,57624,57624,57624,57624,57624,57624,57624,57624,57624,57624,57624,57624,57624,57624,57624,57624,57624,57624,57624,57624,57624,57624,57624,57624,57624,57624,57624,57624,57624,57624,57624,57624,57624,57624,57624,57624,57624,57624,57624,57624,57624,57624,57624,57624,57624,57624,57624,57624,57624,57624,57624,57624,57624,57624,57624,57624,57624,57624,57624,57624,57624,57624,57624,57624,57624,57624,57624,57624,57624,57624,57624,57624,57624,57624,57624,57624,57624,57624,57624,57624,57624,57624,57624,57624,57624,57624,57624,57624,57624,57624,57624,57624,57624,
57624,57624,57624,57624,57624,57624,57624,57624,57624,57624,57624,57624,57624,57624,57624,57624,57624,57624,57624,57624,57624,57624,57624,57624,57624,57624,57624,57624,57624,57624,57624,57624,57624,57624,57624,57624,57624,57624,57624,57624,57624,57624,57624,57624,57624,57624,57624,57624,57624,57624,57624,57624,57624,57624,57624,57624,57624,57624,57624,57624,57624,57624,57624,57624,57624,57624,57624,57624,57624,57624,57624,57624,57624,57624,57624,57624,57624,57624,57624,57624,57624,57624,57624,57624,57624,57624,57624,57624,57624,57624,57624,57624,57624,57624,57624,57624,57624,57624,57624,57624,57624,57624,57624,57624,57624,57624,57624,57624,57624,57624,57624,57624,57624,57624,57624,57624,57624,57624,57624,57624,57624,57624,57624,57624,57624,57624,57624,57624,57624,57624,57624,57624,57624,57624,57624,57624,57624,57624,57624,57624,57624,57624,57624,57624,57624,57624,57624,57624,57624,57624,57624,57624,57624,57624,57624,57624,57624,57624,57624,57624,57624,57624,57624,57624,57624,57624,57624,57624,57624,57624,57624,57624,57624,57624,57624,57624,57624,57624,57624,57624,57624,57624,57624,57624,57624,57624,57624,57624,57629,57624,57624,57624,57624,57624,57624,57624,57624,57624,57624,57624,57624,57624,57624,57624,57624,57624,57624,57624,57624,57624,57624,57624,57624,57624,57624,57624,57624,57624,57624,57624,57624,57624,57624,57624,57624,57624,57624,57624,57624,57624,57624,57624,57624,57624,57624,57624,57624,57624,57624,57624,
57624,57624,57624,57624,57624,57624,57624,57624,57624,57624,57624,57624,57624,57624,57624,57624,57624,57624,57624,57624,57624,57624,57624,57624,57624,57624,57624,57624,57624,57624,57624,57624,57629,57624,57624,57624,57624,57624,57624,57624,57624,57624,57624,57624,57624,57624,57624,57624,57624,57624,57624,57624,57624,57624,57624,57624,57624,57624,57624,57624,57624,57624,57624,57624,57624,57624,57624,57624,57624,57624,57624,57624,57624,57624,57624,57624,57624,57624,57624,57624,57624,57624,57624,57624,57624,57624,57624,57624,57624,57624,57624,57624,57624,57624,57624,57624,57624,57624,57624,57624,57624,57624,57624,57624,57624,57624,57624,57624,57624,57624,57624,57624,57629,57624,57624,57624,57624,57624,57624,57624,57624,57624,57624,57624,57624,57624,57624,57624,57624,57624,57624,57624,57624,57624,57624,57624,57624,57624,57624,57624,57624,57624,57624,57624,57624,57624,57624,57624,57624,57624,57624,57624,57624,57624,57624,57624,57624,57624,57624,57624,57624,57624,57624,57624,57624,57624,57624,57624,57624,57624,57624,57624,57624,57624,57624,57624,57624,57624,57624,57624,57624,57624,57624,57624,57624,57624,57624,57624,57624,57624,57624,57624,57624,57624,57624,57627,57624,57624,57624,57624,57624,57624,57624,57624,57624,57624,57624,57624,57624,57624,57624,57624,57624,57624,57624,57624,57624,57624,57624,57624,57624,57624,57624,57624,57624,57628,57624,57624,57624,57624,57624,57624,57624,57624,57624,57624,57624,57624,57624,57624,
57624,57624,57624,57624,57624,57624,57624,57624,57624,57624,57624,57624,57624,57624,57624,57624,57624,57624,57624,57624,57624,57624,57624,57624,57624,57624,57624,57624,57624,57624,57624,57624,57624,57624,57624,57624,57624,57624,57624,57624,57624,57624,57624,57624,57624,57624,57624,57624,57624,57624,57624,57624,57624,57624,57624,57624,57624,57624,57624,57624,57624,57624,57624,57624,57624,57624,57624,57624,57624,57624,57624,57624,57624,57624,57624,57624,57624,57624,57624,57624,57624,57624,57624,57624,57624,57624,57627,57624,57624,57624,57624,57624,57624,57624,57624,57624,57624,57624,57624,57624,57624,57624,57624,57624,57624,57624,57624,57624,57624,57624,57624,57624,57624,57624,57624,57624,57624,57624,57624,57624,57624,57624,57624,57624,57624,57624,57624,57624,57624,57624,57624,57624,57624,57624,57624,57624,57624,57624,57624,57624,57624,57624,57624,57624,57624,57624,57624,57624,57624,57624,57624,57624,57624,57624,57624,57624,57624,57624,57624,57624,57624,57624,57624,57624,57624,57624,57624,57624,57624,57629,57624,57624,57624,57624,57624,57624,57624,57624,57624,57624,57624,57624,57624,57624,57624,57624,57624,57624,57624,57624,57624,57624,57624,57628,57624,57624,57624,57624,57624,57624,57624,57624,57624,57624,57624,57624,57624,57624,57624,57624,57624,57624,57624,57624,57624,57624,57624,57624,57624,57624,57624,57624,57624,57624,57624,57624,57624,57624,57624,57624,57624,57624,57624,57624,57624,57624,57624,57624,57624,57624,
57624,57624,57624,57624,57624,57624,57624,57624,57624,57624,57624,57624,57624,57624,57624,57624,57624,57624,57624,57624,57624,57624,57624,57624,57624,57624,57624,57624,57624,57624,57624,57624,57624,57624,57629,57624,57624,57624,57624,57624,57624,57624,57624,57624,57624,57624,57624,57624,57624,57624,57624,57624,57624,57624,57624,57624,57624,57624,57624,57624,57624,57624,57624,57624,57624,57624,57624,57624,57624,57624,57624,57624,57624,57624,57624,57624,57624,57624,57624,57624,57624,57624,57624,57624,57624,57624,57624,57624,57624,57624,57624,57624,57624,57624,57624,57624,57624,57624,57624,57624,57624,57624,57624,57624,57624,57624,57624,57624,57624,57624,57624,57624,57624,57624,57624,57624,57624,57624,57624,57624,57624,57624,57624,57624,57624,57624,57624,57624,57624,57624,57624,57624,57624,57624,57624,57624,57624,57624,57624,57624,57624,57624,57624,57624,57624,57624,57624,57624,57624,57624,57624,57624,57624,57624,57624,57624,57624,57624,57624,57624,57624,57624,57624,57624,57624,57624,57624,57624,57624,57624,57624,57624,57624,57624,57624,57624,57624,57624,57624,57624,57624,57624,57624,57624,57624,57624,57624,57624,57624,57624,57624,57628,57624,57624,57624,57624,57624,57624,57624,57624,57624,57624,57624,57624,57624,57624,57624,57624,57624,57624,57624,57624,57624,57624,57624,57624,57624,57624,57624,57624,57624,57624,57624,57624,57627,57624,57624,57624,57624,57624,57624,57624,57624,57624,57624,57624,57624,57624,57624,57624,
57624,57624,57624,57624,57624,57624,57624,57624,57624,57624,57624,57624,57624,57624,57624,57624,57624,57624,57624,57624,57624,57624,57624,57624,57624,57624,57624,57624,57624,57624,57624,57624,57624,57624,57624,57624,57624,57624,57624,57624,57624,57624,57624,57624,57624,57624,57624,57624,57624,57624,57624,57624,57624,57624,57624,57624,57624,57624,57624,57624,57624,57624,57624,57624,57624,57624,57624,57624,57624,57624,57624,57624,57624,57624,57624,57624,57624,57624,57624,57624,57624,57624,57624,57624,57624,57624,57624,57624,57624,57624,57624,57624,57624,57624,57624,57624,57624,57624,57624,57624,57624,57624,57624,57624,57624,57624,57624,57624,57624,57624,57624,57624,57624,57624,57624,57624,57624,57624,57624,57624,57624,57624,57624,57624,57624,57624,57624,57624,57624,57624,57624,57624,57624,57624,57624,57624,57624,57624,57624,57624,57624,57624,57624,57624,57624,57624,57624,57624,57624,57624,57624,57624,57624,57624,57624,57624,57624,57624,57624,57624,57624,57624,57624,57624,57624,57624,57624,57624,57624,57624,57624,57624,57624,57624,57624,57624,57624,57624,57624,57624,57624,57624,57624,57624,57624,57624,57624,57624,57624,57624,57624,57624,57624,57624,57624,57624,57624,57624,57624,57624,57624,57624,57624,57624,57624,57624,57624,57624,57624,57624,57624,57624,57624,57624,57624,57624,57624,57624,57624,57624,57624,57624,57624,57624,57624,57624,57624,57624,57624,57624,57624,57624,57624,57624,57624,57624,57624,57624,57624,57624,
57624,57624,57624,57624,57624,57624,57624,57624,57624,57624,57624,57624,57624,57624,57624,57624,57624,57624,57624,57624,57624,57624,57624,57624,57624,57624,57624,57624,57624,57624,57624,57624,57624,57624,57624,57624,57624,57624,57624,57624,57624,57624,57624,57624,57624,57624,57624,57624,57624,57624,57624,57624,57624,57624,57624,57624,57624,57624,57624,57624,57624,57624,57624,57624,57624,57624,57624,57624,57624,57624,57624,57624,57624,57624,57624,57624,57624,57624,57624,57624,57624,57624,57624,57624,57624,57624,57624,57624,57624,57624,57624,57624,57624,57624,57624,57624,57624,57624,57627,57624,57624,57624,57624,57624,57624,57624,57624,57624,57624,57624,57628,57624,57624,57624,57624,57624,57624,57624,57624,57624,57624,57624,57624,57625,57624,57624,57624,57624,57624,57624,57624,57624,57624,57624,57624,57624,57624,57624,57624,57624,57624,57624,57624,57624,57624,57624,57624,57624,57624,57626,57624,57624,57624,57624,57624,57624,57624,57624,57624,57624,57624,57624,57624,57624,57624,57624,57624,57624,57624,57624,57624,57624,57624,57624,57624,57628,57624,57624,57624,57624,57624,57624,57624,57624,57624,57624,57624,57624,57624,57624,57624,57624,57624,57624,57624,57624,57624,57624,57624,57624,57624,57624,57624,57624,57624,57624,57624,57624,57624,57624,57624,57624,57624,57624,57624,57624,57624,57624,57624,57624,57624,57624,57624,57624,57624,57624,57624,57624,57624,57624,57624,57624,57624,57624,57624,57624,57624,57624,57624,57624,
57624,57624,57624,57624,57624,57624,57624,57624,57624,57624,57624,57624,57624,57624,57624,57624,57624,57624,57624,57624,57624,57624,57624,57624,57624,57624,57624,57624,57624,57624,57624,57624,57624,57624,57624,57624,57624,57624,57624,57624,57624,57624,57624,57624,57624,57624,57624,57624,57624,57624,57624,57624,57624,57624,57624,57624,57624,57624,57624,57624,57624,57624,57624,57624,57624,57624,57624,57624,57624,57624,57624,57624,57624,57624,57624,57624,57624,57624,57624,57624,57624,57624,57624,57624,57624,57624,57624,57624,57624,57624,57624,57624,57624,57624,57624,57624,57624,57624,57624,57624,57624,57624,57624,57624,57624,57626,57624,57624,57624,57624,57624,57628,57624,57624,57624,57624,57624,57624,57627,57624,57624,57624,57624,57624,57624,57624,57624,57624,57624,57624,57624,57624,57624,57624,57624,57624,57624,57624,57624,57624,57624,57624,57624,57624,57624,57624,57624,57624,57624,57624,57624,57624,57624,57624,57624,57624,57624,57624,57624,57624,57624,57624,57624,57624,57624,57624,57624,57624,57624,57624,57624,57624,57624,57624,57624,57624,57624,57624,57624,57624,57624,57624,57624,57624,57624,57624,57624,57624,57624,57624,57624,57624,57624,57624,57624,57624,57624,57624,57624,57624,57624,57624,57624,57624,57624,57624,57624,57624,57624,57624,57624,57624,57624,57624,57624,57624,57624,57624,57624,57624,57624,57624,57624,57624,57624,57624,57624,57624,57624,57624,57624,57624,57624,57624,57624,57624,57624,57624,57624,57624,
57624,57624,57624,57624,57624,57624,57624,57624,57624,57624,57624,57624,57624,57624,57624,57624,57624,57624,57624,57624,57624,57624,57624,57624,57624,57624,57624,57624,57624,57624,57624,57624,57624,57624,57624,57624,57624,57624,57624,57624,57624,57624,57624,57624,57624,57624,57624,57624,57624,57624,57624,57624,57624,57624,57624,57624,57624,57624,57624,57624,57624,57624,57624,57624,57624,57624,57624,57624,57624,57624,57624,57624,57624,57624,57624,57624,57624,57625,57624,57624,57624,57624,57624,57624,57624,57624,57624,57624,57624,57624,57624,57624,57625,57624,57624,57624,57624,57624,57624,57624,57624,57624,57624,57624,57624,57624,57624,57624,57624,57624,57624,57624,57624,57624,57624,57624,57624,57624,57624,57624,57624,57624,57624,57624,57624,57624,57624,57624,57624,57624,57624,57624,57624,57624,57624,57624,57624,57624,57624,57624,57624,57624,57624,57624,57624,57624,57624,57624,57624,57624,57624,57624,57624,57624,57624,57624,57624,57624,57624,57624,57624,57624,57624,57624,57624,57624,57624,57624,57624,57624,57624,57624,57624,57624,57624,57624,57624,57624,57624,57624,57624,57624,57624,57624,57624,57624,57624,57624,57624,57624,57624,57624,57624,57624,57624,57624,57624,57624,57624,57624,57624,57624,57624,57624,57624,57624,57624,57624,57624,57624,57624,57624,57624,57624,57624,57624,57624,57624,57624,57624,57624,57624,57624,57624,57624,57624,57624,57624,57624,57624,57624,57624,57624,57624,57624,57624,57624,57624,57624,57624,
57624,57624,57624,57624,57624,57624,57624,57624,57624,57624,57624,57624,57624,57624,57624,57624,57624,57624,57624,57624,57624,57624,57624,57624,57624,57624,57624,57624,57624,57624,57624,57624,57624,57624,57624,57624,57624,57624,57624,57624,57624,57624,57624,57624,57624,57624,57624,57624,57624,57624,57624,57624,57624,57624,57624,57624,57625,57624,57624,57624,57626,57624,57624,57624,57624,57624,57624,57624,57624,57624,57624,57624,57624,57624,57624,57624,57624,57624,57624,57624,57624,57624,57624,57624,57624,57624,57624,57624,57624,57624,57624,57624,57624,57624,57624,57624,57624,57624,57624,57624,57624,57624,57624,57624,57624,57624,57624,57624,57624,57624,57624,57624,57624,57624,57624,57624,57624,57624,57624,57624,57624,57624,57624,57624,57624,57624,57624,57624,57624,57624,57624,57624,57624,57624,57624,57624,57624,57624,57624,57624,57624,57624,57624,57624,57624,57624,57624,57624,57624,57624,57624,57624,57624,57624,57624,57624,57624,57624,57624,57624,57624,57624,57624,57624,57624,57624,57624,57624,57624,57624,57624,57624,57624,57624,57624,57624,57624,57624,57624,57624,57624,57624,57624,57624,57624,57624,57624,57624,57624,57624,57624,57624,57624,57628,57624,57624,57624,57624,57624,57624,57629,57624,57624,57624,57624,57624,57624,57624,57624,57624,57624,57624,57624,57624,57624,57624,57624,57624,57624,57624,57624,57624,57624,57624,57624,57624,57624,57624,57624,57624,57624,57624,57624,57624,57624,57624,57624,57624,57624,57624,
57624,57624,57624,57624,57624,57624,57624,57624,57624,57624,57624,57624,57624,57624,57624,57624,57624,57624,57624,57624,57624,57624,57624,57624,57624,57624,57624,57624,57624,57624,57624,57624,57624,57624,57624,57624,57624,57624,57624,57624,57624,57624,57624,57624,57624,57624,57624,57624,57624,57624,57624,57624,57624,57624,57627,57624,57624,57624,57624,57624,57624,57624,57624,57624,57624,57624,57624,57624,57624,57624,57624,57624,57624,57626,57624,57624,57624,57624,57624,57624,57624,57624,57624,57624,57624,57624,57624,57624,57624,57624,57624,57624,57624,57624,57624,57624,57624,57624,57624,57624,57624,57624,57624,57624,57624,57624,57624,57624,57624,57624,57624,57624,57624,57624,57624,57624,57624,57624,57624,57624,57624,57624,57624,57624,57624,57624,57624,57624,57624,57624,57624,57624,57624,57624,57627,57624,57624,57624,57624,57624,57624,57624,57624,57624,57624,57624,57624,57624,57624,57624,57624,57624,57624,57624,57624,57624,57624,57624,57624,57624,57624,57624,57624,57624,57624,57624,57624,57624,57624,57624,57624,57624,57624,57624,57624,57624,57624,57624,57624,57624,57624,57624,57624,57624,57624,57624,57624,57624,57624,57624,57624,57624,57624,57624,57624,57624,57624,57624,57624,57624,57624,57624,57624,57624,57624,57624,57624,57624,57624,57624,57624,57624,57624,57624,57624,57624,57624,57624,57624,57624,57624,57624,57624,57624,57624,57624,57624,57624,57629,57624,57624,57624,57624,57624,57624,57624,57624,57624,57624,57624,
57624,57624,57624,57624,57624,57624,57624,57624,57624,57624,57624,57624,57624,57624,57624,57624,57624,57624,57624,57624,57624,57624,57624,57624,57624,57624,57624,57624,57624,57624,57624,57624,57624,57624,57624,57624,57624,57624,57624,57624,57624,57624,57624,57624,57624,57624,57624,57624,57624,57624,57624,57624,57624,57624,57624,57624,57624,57624,57624,57624,57624,57624,57624,57624,57624,57624,57624,57624,57624,57624,57624,57624,57624,57624,57624,57624,57624,57624,57624,57624,57624,57624,57624,57624,57624,57624,57624,57624,57624,57624,57624,57624,57624,57624,57624,57624,57624,57624,57624,57624,57624,57624,57624,57624,57624,57624,57624,57624,57624,57624,57624,57624,57624,57624,57624,57624,57624,57624,57624,57624,57624,57624,57624,57624,57624,57624,57624,57624,57624,57624,57624,57624,57624,57624,57624,57624,57624,57624,57624,57624,57624,57624,57624,57624,57624,57624,57624,57624,57624,57624,57624,57624,57624,57624,57624,57624,57624,57624,57624,57624,57624,57624,57624,57624,57624,57624,57624,57624,57624,57624,57624,57624,57624,57624,57624,57624,57624,57624,57624,57624,57624,57624,57624,57624,57624,57624,57624,57624,57624,57624,57624,57624,57624,57624,57624,57624,57624,57624,57624,57624,57624,57624,57624,57624,57624,57624,57624,57627,57624,57624,57624,57624,57624,57624,57624,57624,57624,57624,57624,57624,57624,57624,57624,57624,57624,57624,57624,57624,57624,57624,57624,57624,57624,57624,57624,57624,57624,57624,57624,57624,
57624,57624,57624,57624,57624,57624,57624,57624,57624,57624,57624,57624,57624,57624,57624,57624,57624,57624,57624,57624,57624,57624,57624,57624,57624,57624,57624,57624,57624,57624,57624,57624,57624,57624,57624,57624,57624,57624,57624,57624,57624,57624,57624,57624,57624,57624,57624,57624,57624,57624,57624,57624,57624,57624,57624,57624,57624,57624,57624,57624,57624,57626,57624,57624,57624,57624,57624,57624,57624,57624,57624,57624,57624,57624,57624,57624,57624,57624,57624,57624,57624,57624,57624,57624,57624,57624,57624,57624,57624,57624,57624,57624,57624,57624,57624,57624,57624,57624,57624,57624,57624,57624,57624,57624,57624,57624,57624,57624,57624,57624,57624,57624,57624,57624,57624,57624,57624,57624,57624,57624,57624,57624,57624,57624,57624,57624,57624,57624,57624,57624,57624,57624,57624,57624,57624,57624,57624,57627,57624,57624,57624,57624,57624,57624,57624,57624,57624,57624,57624,57624,57624,57624,57624,57624,57624,57624,57624,57624,57624,57624,57624,57624,57624,57624,57624,57624,57624,57624,57624,57627,57624,57624,57624,57624,57624,57624,57624,57624,57624,57625,57624,57624,57624,57624,57624,57624,57624,57624,57624,57624,57624,57624,57624,57624,57624,57624,57624,57624,57624,57624,57624,57624,57624,57624,57628,57624,57624,57624,57624,57624,57624,57624,57624,57624,57624,57624,57624,57624,57624,57624,57624,57624,57624,57624,57624,57624,57624,57624,57624,57624,57624,57624,57624,57624,57624,57624,57624,57624,57624,57624,
57624,57624,57624,57624,57624,57624,57624,57624,57624,57624,57624,57624,57624,57624,57624,57624,57624,57624,57624,57624,57624,57624,57624,57624,57624,57624,57624,57624,57624,57624,57624,57624,57624,57624,57624,57624,57624,57624,57624,57624,57624,57624,57624,57624,57624,57624,57624,57624,57624,57624,57624,57625,57624,57624,57624,57624,57624,57624,57624,57624,57624,57624,57624,57624,57624,57624,57624,57624,57624,57624,57624,57624,57624,57624,57624,57624,57624,57624,57624,57624,57624,57624,57624,57624,57624,57624,57624,57624,57624,57624,57624,57624,57624,57624,57624,57624,57624,57624,57624,57624,57624,57624,57624,57624,57624,57624,57624,57624,57624,57624,57624,57624,57624,57624,57624,57624,57624,57624,57624,57624,57624,57624,57624,57624,57624,57624,57624,57624,57624,57624,57624,57624,57624,57624,57624,57624,57624,57624,57624,57624,57624,57624,57624,57624,57624,57624,57624,57624,57624,57624,57624,57624,57624,57624,57624,57624,57624,57624,57624,57624,57624,57624,57624,57627,57624,57624,57624,57624,57624,57624,57624,57624,57624,57624,57624,57624,57624,57624,57624,57624,57624,57624,57624,57624,57624,57624,57624,57624,57624,57624,57624,57624,57624,57624,57628,57624,57624,57624,57624,57624,57624,57624,57624,57624,57624,57624,57624,57624,57624,57624,57624,57624,57624,57624,57624,57624,57624,57624,57624,57624,57624,57624,57624,57624,57624,57624,57624,57624,57624,57624,57624,57624,57624,57624,57624,57624,57624,57624,57624,57624,
57624,57624,57624,57624,57624,57624,57624,57624,57624,57624,57624,57624,57624,57624,57624,57624,57624,57624,57624,57624,57624,57624,57624,57624,57624,57624,57624,57624,57624,57624,57624,57624,57624,57624,57624,57624,57624,57624,57624,57624,57624,57624,57624,57624,57624,57624,57624,57624,57624,57624,57624,57624,57624,57624,57624,57624,57624,57624,57624,57624,57624,57624,57624,57624,57624,57624,57624,57624,57624,57624,57624,57624,57624,57624,57627,57624,57624,57624,57624,57624,57624,57624,57624,57624,57624,57624,57624,57624,57624,57624,57624,57624,57624,57624,57624,57624,57624,57624,57624,57624,57624,57624,57627,57624,57624,57624,57624,57624,57624,57624,57624,57624,57624,57624,57624,57624,57624,57624,57624,57624,57624,57624,57624,57624,57624,57624,57624,57624,57624,57624,57624,57624,57624,57624,57624,57624,57624,57624,57624,57624,57624,57624,57624,57624,57624,57624,57624,57624,57624,57624,57624,57624,57624,57624,57624,57624,57624,57624,57624,57624,57624,57624,57624,57624,57624,57624,57624,57624,57624,57624,57624,57624,57624,57624,57624,57624,57624,57624,57624,57624,57624,57624,57624,57624,57624,57624,57624,57624,57624,57624,57624,57624,57624,57624,57624,57624,57624,57624,57624,57624,57624,57624,57624,57624,57624,57624,57624,57624,57624,57624,57624,57624,57624,57624,57624,57624,57624,57624,57624,57624,57624,57624,57624,57624,57624,57624,57624,57624,57624,57624,57624,57624,57624,57624,57624,57624,57624,57624,57624,57624,
57624,57624,57624,57624,57624,57624,57625,57624,57624,57624,57624,57624,57624,57624,57624,57624,57624,57624,57624,57624,57624,57624,57624,57624,57624,57624,57624,57624,57624,57624,57624,57624,57624,57624,57624,57624,57624,57624,57624,57624,57624,57624,57624,57624,57624,57624,57624,57624,57624,57624,57624,57624,57624,57624,57624,57624,57624,57624,57624,57624,57624,57624,57624,57624,57624,57624,57624,57624,57624,57624,57624,57624,57624,57624,57624,57624,57624,57624,57624,57624,57624,57624,57624,57624,57624,57624,57624,57624,57624,57624,57624,57624,57624,57624,57624,57624,57624,57624,57624,57624,57624,57624,57624,57624,57624,57624,57624,57624,57624,57624,57624,57624,57624,57624,57624,57624,57624,57624,57624,57624,57624,57624,57624,57624,57624,57624,57624,57624,57624,57624,57624,57624,57624,57624,57624,57624,57624,57624,57624,57624,57624,57624,57624,57624,57624,57624,57624,57624,57624,57624,57624,57624,57624,57624,57624,57624,57624,57624,57624,57624,57624,57624,57624,57624,57624,57624,57624,57624,57624,57624,57624,57624,57624,57624,57624,57624,57624,57624,57624,57624,57624,57624,57624,57624,57624,57624,57624,57624,57624,57624,57624,57624,57624,57624,57624,57629,57624,57624,57624,57624,57624,57624,57624,57624,57624,57624,57624,57624,57629,57624,57624,57624,57624,57624,57624,57624,57624,57624,57624,57624,57624,57624,57624,57624,57624,57624,57624,57624,57624,57624,57624,57624,57624,57624,57624,57624,57624,57624,57624,57624,
57624,57624,57624,57624,57624,57624,57624,57624,57624,57624,57624,57624,57624,57624,57624,57624,57624,57624,57624,57624,57624,57624,57624,57624,57624,57624,57624,57624,57624,57624,57624,57624,57624,57624,57624,57624,57624,57624,57624,57624,57624,57624,57624,57624,57624,57624,57624,57624,57624,57624,57624,57624,57624,57624,57624,57624,57624,57629,57624,57626,57624,57624,57624,57624,57624,57624,57624,57624,57624,57624,57624,57624,57624,57624,57624,57624,57624,57624,57624,57624,57624,57624,57624,57624,57624,57624,57624,57624,57624,57624,57624,57624,57624,57624,57624,57624,57624,57624,57624,57624,57624,57624,57624,57624,57624,57624,57624,57624,57624,57624,57624,57624,57624,57624,57624,57624,57624,57624,57624,57624,57624,57624,57624,57624,57624,57624,57624,57624,57624,57624,57624,57624,57624,57624,57624,57624,57624,57624,57624,57624,57624,57624,57624,57624,57624,57624,57624,57624,57624,57624,57624,57624,57624,57629,57624,57624,57624,57624,57624,57624,57624,57624,57624,57624,57624,57624,57624,57624,57624,57624,57624,57624,57624,57624,57624,57624,57624,57624,57624,57624,57624,57624,57624,57624,57624,57624,57624,57624,57624,57624,57624,57624,57624,57624,57624,57624,57624,57624,57624,57624,57624,57624,57624,57624,57624,57624,57624,57624,57624,57624,57624,57624,57624,57624,57624,57624,57624,57624,57624,57624,57624,57624,57624,57624,57624,57624,57624,57624,57624,57624,57624,57624,57624,57624,57624,57624,57624,57624,57624,57624,
57624,57624,57624,57624,57624,57624,57624,57624,57624,57624,57624,57624,57625,57624,57624,57624,57624,57624,57624,57624,57624,57624,57624,57624,57624,57624,57624,57624,57624,57624,57624,57624,57624,57624,57624,57624,57624,57624,57624,57624,57624,57624,57624,57624,57624,57624,57624,57624,57624,57624,57624,57624,57624,57624,57624,57624,57624,57624,57624,57624,57624,57624,57624,57624,57624,57624,57626,57624,57624,57624,57624,57624,57624,57624,57624,57624,57624,57624,57624,57624,57624,57624,57624,57624,57624,57624,57624,57624,57624,57624,57624,57624,57624,57624,57624,57624,57624,57624,57624,57624,57624,57624,57629,57624,57624,57624,57624,57624,57624,57624,57624,57624,57624,57624,57624,57624,57624,57624,57624,57624,57624,57624,57624,57624,57624,57624,57624,57624,57624,57624,57624,57624,57624,57624,57624,57624,57624,57624,57624,57624,57624,57624,57624,57624,57624,57624,57624,57624,57624,57624,57629,57624,57624,57624,57624,57624,57624,57624,57624,57624,57624,57624,57624,57624,57624,57624,57624,57624,57624,57624,57624,57624,57624,57624,57624,57624,57624,57624,57624,57624,57624,57624,57624,57624,57624,57624,57624,57624,57624,57624,57624,57624,57624,57624,57624,57624,57624,57624,57624,57624,57624,57624,57624,57624,57624,57624,57624,57624,57624,57624,57624,57624,57624,57624,57624,57624,57624,57624,57624,57624,57624,57624,57624,57624,57624,57624,57624,57624,57624,57624,57624,57624,57624,57624,57624,57624,57624,57624,57624,57624,
57624,57624,57624,57624,57624,57624,57624,57624,57624,57624,57624,57624,57624,57624,57624,57624,57624,57624,57624,57624,57624,57624,57624,57624,57624,57624,57624,57624,57624,57624,57624,57624,57624,57624,57624,57624,57624,57624,57624,57624,57624,57624,57624,57624,57624,57624,57624,57624,57624,57624,57624,57624,57624,57624,57624,57624,57624,57624,57624,57624,57624,57624,57624,57624,57624,57624,57624,57624,57624,57624,57624,57624,57624,57624,57624,57624,57624,57624,57624,57624,57624,57624,57624,57624,57624,57624,57624,57624,57624,57624,57624,57624,57624,57624,57624,57624,57624,57624,57624,57624,57624,57624,57624,57624,57624,57624,57624,57624,57624,57624,57624,57624,57624,57624,57624,57624,57624,57624,57624,57624,57624,57624,57624,57624,57624,57624,57624,57624,57624,57624,57624,57624,57624,57624,57624,57624,57624,57624,57624,57624,57624,57624,57624,57624,57624,57624,57624,57624,57624,57624,57624,57624,57624,57624,57624,57624,57624,57624,57624,57624,57624,57624,57624,57624,57624,57624,57624,57624,57624,57624,57624,57624,57624,57624,57624,57624,57624,57624,57624,57624,57624,57624,57624,57624,57624,57624,57624,57624,57624,57624,57624,57624,57624,57624,57624,57624,57624,57624,57624,57624,57624,57624,57624,57624,57624,57624,57624,57624,57624,57624,57624,57624,57624,57624,57624,57624,57624,57624,57624,57624,57624,57624,57624,57624,57624,57624,57624,57624,57624,57624,57624,57624,57624,57624,57624,57624,57624,57624,57624,57624,
57624,57624,57624,57624,57624,57624,57624,57624,57624,57624,57624,57624,57624,57624,57624,57624,57624,57624,57624,57624,57624,57624,57624,57624,57624,57624,57624,57624,57624,57624,57624,57624,57624,57624,57624,57624,57624,57624,57624,57624,57624,57624,57624,57624,57624,57624,57624,57624,57624,57624,57624,57624,57624,57624,57624,57624,57624,57624,57624,57624,57624,57624,57624,57624,57624,57624,57624,57624,57624,57624,57624,57624,57624,57624,57624,57624,57624,57624,57624,57624,57624,57624,57624,57624,57624,57624,57624,57624,57624,57624,57624,57624,57624,57624,57624,57624,57624,57624,57624,57624,57624,57624,57624,57624,57624,57624,57624,57624,57624,57624,57624,57624,57624,57624,57624,57624,57624,57624,57624,57624,57624,57624,57624,57624,57624,57627,57624,57624,57624,57624,57624,57624,57624,57624,57624,57624,57624,57624,57624,57624,57624,57624,57624,57624,57624,57624,57624,57624,57624,57624,57624,57624,57624,57624,57624,57624,57624,57624,57624,57624,57624,57624,57624,57624,57624,57624,57624,57624,57624,57624,57624,57624,57624,57624,57624,57624,57624,57624,57624,57624,57624,57624,57624,57624,57624,57624,57624,57624,57624,57624,57624,57624,57624,57624,57624,57624,57624,57624,57624,57624,57624,57624,57624,57624,57624,57624,57624,57624,57628,57624,57624,57624,57624,57624,57624,57624,57624,57624,57624,57624,57624,57628,57624,57624,57624,57624,57624,57624,57629,57624,57624,57624,57624,57624,57624,57624,57624,57624,57624,57624,
57624,57624,57624,57624,57624,57624,57624,57624,57624,57624,57624,57624,57624,57624,57624,57624,57624,57624,57624,57624,57624,57624,57624,57624,57624,57624,57624,57624,57624,57624,57624,57624,57624,57624,57624,57624,57624,57624,57624,57624,57624,57624,57624,57624,57624,57624,57624,57624,57624,57624,57624,57624,57624,57624,57624,57624,57624,57624,57624,57624,57624,57624,57624,57624,57624,57624,57624,57624,57624,57624,57624,57624,57624,57624,57624,57624,57624,57624,57624,57624,57624,57624,57624,57624,57624,57624,57624,57624,57624,57624,57624,57624,57624,57624,57624,57624,57624,57624,57624,57624,57624,57624,57624,57624,57624,57624,57624,57624,57624,57624,57624,57624,57624,57624,57624,57624,57624,57624,57624,57624,57624,57624,57624,57624,57624,57624,57624,57624,57624,57624,57624,57624,57624,57624,57624,57624,57624,57624,57624,57624,57624,57624,57624,57624,57624,57624,57624,57624,57624,57624,57624,57624,57624,57624,57624,57624,57624,57624,57624,57624,57624,57624,57624,57624,57624,57624,57624,57624,57624,57624,57624,57624,57624,57624,57624,57624,57624,57624,57624,57628,57624,57624,57624,57624,57624,57624,57624,57624,57624,57624,57624,57624,57624,57624,57624,57629,57624,57624,57624,57624,57624,57624,57624,57624,57624,57624,57624,57624,57624,57624,57624,57624,57624,57624,57624,57624,57624,57624,57624,57624,57624,57624,57624,57624,57624,57624,57624,57624,57624,57624,57624,57624,57624,57624,57624,57624,57624,57624,57624,57624,
57624,57624,57624,57624,57624,57624,57624,57624,57629,57624,57624,57624,57624,57624,57625,57624,57624,57624,57624,57624,57624,57624,57624,57624,57624,57624,57624,57624,57624,57624,57624,57624,57624,57624,57624,57624,57624,57624,57624,57624,57624,57624,57624,57624,57624,57624,57624,57624,57624,57624,57624,57624,57624,57624,57624,57624,57624,57624,57624,57629,57624,57624,57624,57624,57624,57624,57624,57624,57624,57624,57624,57624,57624,57624,57624,57624,57624,57624,57624,57624,57624,57624,57624,57624,57624,57624,57624,57624,57624,57624,57624,57624,57624,57624,57624,57624,57624,57624,57624,57624,57624,57624,57624,57624,57624,57624,57624,57624,57624,57624,57624,57624,57624,57624,57624,57624,57624,57624,57624,57624,57624,57624,57624,57624,57624,57624,57624,57624,57624,57624,57624,57624,57624,57624,57624,57624,57624,57624,57624,57624,57624,57624,57624,57624,57624,57624,57628,57624,57624,57624,57624,57624,57624,57624,57624,57624,57624,57624,57624,57624,57624,57624,57624,57624,57624,57624,57624,57624,57624,57624,57624,57624,57624,57624,57624,57624,57624,57624,57624,57629,57624,57624,57624,57624,57624,57624,57624,57624,57624,57624,57624,57624,57624,57624,57624,57624,57624,57624,57624,57624,57624,57624,57624,57624,57624,57624,57624,57624,57624,57624,57624,57624,57624,57624,57624,57624,57624,57624,57624,57624,57624,57624,57624,57624,57624,57624,57624,57624,57624,57624,57624,57624,57624,57624,57624,57624,57624,57624,57624,57624,
57624,57624,57624,57624,57624,57624,57624,57624,57624,57624,57624,57624,57624,57624,57624,57624,57624,57624,57624,57624,57624,57624,57627,57624,57624,57624,57624,57624,57624,57624,57624,57624,57624,57624,57624,57624,57624,57624,57624,57624,57624,57624,57624,57624,57624,57624,57624,57624,57624,57624,57624,57624,57624,57624,57624,57624,57624,57624,57624,57624,57624,57624,57624,57624,57624,57624,57624,57624,57624,57624,57624,57624,57624,57624,57624,57624,57624,57624,57624,57624,57624,57624,57624,57624,57624,57624,57624,57624,57624,57624,57624,57624,57624,57624,57624,57624,57624,57624,57624,57624,57624,57624,57624,57624,57624,57624,57624,57624,57624,57624,57624,57624,57624,57624,57629,57624,57624,57624,57624,57624,57624,57624,57624,57624,57624,57624,57624,57624,57624,57624,57624,57624,57624,57624,57624,57624,57624,57624,57624,57624,57624,57624,57624,57624,57624,57624,57624,57624,57624,57624,57624,57624,57624,57624,57624,57624,57624,57624,57624,57624,57624,57624,57624,57624,57624,57624,57624,57624,57624,57624,57624,57624,57624,57624,57624,57624,57624,57624,57624,57624,57624,57624,57624,57624,57624,57624,57624,57624,57624,57624,57624,57624,57624,57624,57624,57624,57624,57624,57624,57624,57624,57624,57624,57624,57624,57624,57624,57624,57626,57624,57624,57624,57624,57624,57624,57624,57624,57624,57624,57624,57624,57624,57624,57624,57624,57624,57624,57624,57624,57624,57624,57624,57624,57624,57624,57624,57624,57624,57624,57624,
57624,57624,57624,57624,57624,57624,57624,57624,57624,57624,57624,57624,57624,57624,57624,57624,57624,57624,57624,57624,57624,57624,57624,57624,57624,57624,57624,57624,57624,57624,57624,57624,57624,57624,57624,57624,57624,57624,57624,57624,57624,57624,57624,57624,57624,57624,57624,57624,57624,57624,57624,57624,57624,57624,57624,57624,57624,57624,57624,57624,57624,57624,57624,57624,57624,57624,57624,57624,57624,57624,57624,57624,57624,57624,57624,57624,57624,57626,57624,57624,57624,57624,57624,57624,57624,57624,57624,57624,57624,57624,57624,57624,57624,57624,57624,57624,57624,57624,57624,57624,57624,57624,57624,57624,57624,57624,57624,57624,57624,57624,57624,57624,57624,57624,57624,57624,57624,57624,57624,57624,57624,57624,57624,57624,57624,57624,57624,57624,57624,57624,57624,57624,57624,57624,57624,57624,57624,57624,57624,57624,57624,57624,57624,57624,57624,57624,57624,57624,57624,57624,57624,57624,57624,57624,57624,57624,57624,57624,57624,57624,57624,57624,57625,57624,57624,57624,57624,57624,57624,57624,57624,57624,57624,57624,57624,57624,57624,57624,57624,57624,57624,57624,57624,57624,57624,57624,57624,57624,57624,57624,57624,57624,57624,57624,57624,57624,57624,57624,57624,57624,57624,57624,57624,57624,57624,57624,57624,57624,57624,57624,57624,57624,57624,57624,57624,57624,57624,57624,57624,57624,57624,57624,57624,57624,57624,57624,57624,57624,57624,57624,57624,57624,57624,57624,57624,57624,57624,57624,57624,57624,
57624,57624,57624,57624,57624,57624,57624,57624,57624,57624,57624,57624,57624,57624,57624,57624,57624,57624,57624,57624,57624,57624,57624,57624,57624,57624,57624,57624,57624,57624,57624,57624,57624,57624,57624,57624,57624,57624,57624,57624,57624,57624,57624,57624,57624,57624,57624,57624,57624,57624,57624,57624,57624,57624,57624,57624,57624,57624,57624,57624,57624,57624,57624,57624,57624,57624,57624,57624,57624,57624,57624,57624,57624,57624,57624,57624,57624,57624,57624,57624,57624,57624,57624,57624,57624,57626,57624,57624,57624,57624,57624,57624,57624,57624,57624,57624,57624,57624,57625,57624,57624,57624,57624,57624,57624,57624,57624,57624,57624,57624,57624,57624,57624,57624,57624,57624,57624,57624,57624,57624,57624,57624,57624,57624,57624,57624,57624,57624,57624,57624,57624,57624,57624,57624,57624,57624,57624,57624,57624,57624,57624,57624,57624,57624,57624,57624,57624,57624,57624,57624,57624,57624,57624,57624,57624,57624,57624,57624,57624,57624,57624,57624,57624,57624,57624,57624,57624,57624,57624,57624,57624,57624,57624,57624,57624,57624,57624,57624,57624,57624,57624,57624,57624,57624,57624,57624,57624,57624,57624,57624,57624,57624,57624,57624,57624,57624,57624,57624,57624,57624,57624,57624,57624,57624,57624,57624,57624,57624,57624,57624,57624,57624,57624,57624,57624,57624,57624,57624,57624,57624,57624,57624,57624,57624,57624,57624,57624,57624,57624,57624,57624,57624,57624,57624,57624,57624,57624,57624,57624,57624,
57624,57624,57624,57624,57624,57624,57624,57624,57624,57624,57624,57624,57624,57624,57624,57624,57624,57624,57624,57624,57624,57624,57624,57624,57624,57624,57624,57624,57624,57624,57624,57624,57624,57624,57624,57624,57624,57624,57624,57624,57624,57624,57624,57624,57624,57624,57624,57624,57626,57624,57624,57624,57624,57624,57624,57624,57624,57624,57624,57624,57624,57624,57624,57624,57624,57624,57624,57624,57624,57624,57624,57624,57624,57624,57624,57624,57624,57624,57624,57624,57624,57624,57624,57624,57624,57624,57624,57624,57624,57624,57624,57624,57624,57624,57624,57624,57624,57624,57624,57624,57624,57624,57624,57624,57624,57624,57624,57624,57624,57624,57624,57624,57624,57624,57624,57624,57624,57624,57624,57624,57624,57624,57624,57624,57624,57624,57624,57624,57624,57624,57624,57624,57624,57624,57624,57624,57624,57624,57624,57624,57624,57624,57624,57624,57624,57624,57624,57624,57624,57624,57624,57624,57624,57624,57624,57624,57624,57624,57624,57624,57624,57624,57624,57624,57624,57624,57624,57624,57624,57624,57624,57624,57624,57624,57624,57624,57624,57624,57624,57624,57624,57624,57624,57624,57624,57624,57624,57624,57624,57624,57624,57624,57624,57624,57624,57624,57624,57624,57624,57624,57624,57624,57624,57624,57624,57624,57624,57624,57624,57624,57624,57624,57624,57624,57624,57624,57624,57624,57624,57624,57624,57624,57624,57624,57624,57624,57624,57624,57624,57624,57624,57624,57624,57624,57624,57624,57624,57624,57624,57624,
57624,57624,57624,57624,57624,57624,57624,57624,57624,57624,57624,57624,57624,57624,57624,57624,57624,57624,57624,57624,57624,57624,57624,57624,57624,57624,57624,57624,57624,57624,57624,57624,57624,57624,57624,57624,57624,57624,57624,57624,57624,57624,57624,57624,57624,57624,57624,57624,57624,57624,57629,57624,57624,57624,57624,57624,57624,57624,57624,57624,57624,57624,57624,57624,57624,57624,57624,57624,57624,57624,57624,57624,57624,57624,57624,57624,57624,57624,57624,57624,57624,57624,57624,57624,57624,57624,57624,57624,57624,57624,57624,57624,57624,57624,57624,57624,57624,57624,57624,57624,57624,57624,57624,57624,57624,57624,57624,57624,57624,57624,57624,57624,57624,57624,57624,57624,57624,57624,57624,57624,57624,57624,57624,57624,57624,57624,57624,57624,57624,57624,57624,57624,57624,57624,57624,57624,57624,57624,57624,57624,57624,57624,57624,57624,57624,57624,57624,57624,57624,57624,57624,57624,57624,57624,57624,57624,57624,57624,57624,57624,57624,57624,57624,57624,57624,57624,57624,57624,57624,57624,57624,57624,57624,57624,57624,57624,57624,57624,57624,57624,57624,57624,57624,57624,57624,57624,57624,57624,57624,57624,57624,57624,57624,57624,57624,57624,57624,57624,57624,57624,57624,57624,57624,57624,57624,57624,57624,57624,57624,57624,57624,57624,57624,57624,57624,57624,57624,57624,57624,57624,57624,57624,57624,57624,57624,57624,57624,57624,57624,57624,57624,57624,57624,57624,57624,57624,57624,57624,57624,57624,
57624,57624,57624,57624,57624,57624,57624,57624,57624,57628,57624,57624,57624,57624,57624,57624,57624,57628,57624,57624,57624,57624,57624,57624,57624,57624,57624,57624,57624,57624,57624,57624,57624,57624,57624,57624,57624,57624,57624,57624,57624,57624,57624,57624,57624,57624,57624,57624,57624,57624,57624,57624,57624,57624,57624,57624,57624,57624,57624,57624,57624,57624,57624,57624,57624,57624,57624,57624,57624,57624,57624,57624,57624,57624,57624,57624,57624,57624,57624,57624,57624,57624,57624,57624,57624,57624,57624,57624,57624,57624,57624,57624,57624,57624,57624,57624,57624,57629,57624,57624,57624,57624,57624,57624,57624,57624,57624,57624,57624,57624,57624,57624,57624,57624,57624,57624,57624,57624,57624,57624,57624,57624,57624,57624,57624,57624,57624,57624,57624,57624,57624,57629,57624,57624,57624,57624,57624,57624,57624,57624,57624,57624,57624,57624,57624,57624,57624,57624,57624,57624,57624,57624,57624,57624,57624,57628,57624,57624,57624,57624,57624,57624,57624,57624,57624,57624,57624,57624,57624,57624,57624,57624,57624,57624,57624,57624,57624,57624,57624,57624,57624,57624,57624,57624,57624,57624,57624,57624,57624,57624,57624,57624,57624,57624,57624,57624,57624,57624,57624,57624,57624,57624,57624,57624,57624,57624,57624,57624,57624,57624,57624,57624,57624,57624,57624,57624,57624,57624,57624,57624,57624,57624,57624,57624,57624,57624,57624,57624,57624,57624,57624,57624,57624,57624,57624,57624,57624,57624,57624,57624,
57624,57624,57624,57624,57624,57624,57624,57624,57624,57624,57624,57624,57624,57624,57624,57624,57624,57624,57624,57624,57624,57624,57624,57624,57624,57624,57624,57624,57624,57624,57624,57624,57624,57624,57624,57624,57624,57624,57624,57624,57624,57624,57624,57624,57624,57624,57624,57624,57624,57624,57624,57624,57624,57624,57624,57624,57624,57624,57624,57624,57624,57624,57624,57624,57624,57624,57624,57624,57624,57624,57624,57624,57624,57624,57624,57624,57624,57624,57624,57624,57624,57624,57624,57624,57624,57624,57624,57624,57624,57624,57624,57624,57624,57624,57624,57624,57624,57624,57624,57624,57624,57624,57624,57624,57624,57624,57624,57624,57624,57624,57624,57624,57624,57624,57624,57624,57624,57624,57624,57624,57624,57624,57624,57624,57624,57624,57624,57624,57624,57624,57624,57624,57628,57624,57624,57624,57624,57624,57624,57624,57624,57624,57624,57624,57624,57624,57624,57624,57624,57624,57624,57624,57624,57624,57624,57624,57624,57624,57624,57624,57624,57624,57624,57624,57624,57624,57624,57624,57624,57624,57624,57624,57624,57624,57624,57624,57624,57624,57624,57624,57624,57624,57624,57624,57624,57624,57624,57624,57624,57624,57624,57624,57624,57624,57624,57624,57624,57624,57624,57624,57624,57624,57624,57624,57624,57624,57624,57624,57624,57624,57624,57624,57624,57624,57624,57624,57624,57624,57624,57624,57624,57624,57624,57624,57624,57624,57624,57624,57624,57624,57624,57624,57624,57624,57624,57624,57624,57624,57624,57624,
57624,57624,57624,57628,57624,57624,57624,57624,57624,57624,57624,57624,57624,57624,57624,57624,57624,57624,57624,57624,57624,57624,57624,57624,57624,57624,57624,57624,57624,57624,57624,57624,57624,57624,57624,57624,57624,57624,57624,57624,57624,57624,57624,57624,57624,57624,57624,57624,57624,57624,57624,57624,57624,57624,57624,57624,57624,57624,57624,57624,57624,57624,57624,57624,57624,57624,57624,57624,57624,57624,57624,57624,57624,57624,57624,57624,57624,57624,57624,57624,57624,57624,57624,57624,57624,57624,57624,57624,57624,57624,57624,57624,57624,57624,57624,57624,57624,57624,57624,57624,57624,57624,57624,57624,57624,57624,57624,57624,57624,57624,57624,57624,57624,57624,57624,57624,57624,57624,57624,57624,57624,57624,57624,57624,57624,57624,57624,57624,57624,57624,57624,57624,57624,57624,57624,57624,57624,57624,57624,57624,57624,57624,57624,57624,57624,57624,57624,57624,57624,57624,57624,57624,57624,57624,57624,57624,57624,57624,57624,57624,57624,57624,57624,57624,57624,57624,57624,57624,57624,57624,57624,57624,57624,57624,57624,57624,57624,57624,57624,57624,57624,57624,57624,57627,57624,57624,57624,57624,57624,57624,57624,57624,57624,57624,57624,57624,57624,57624,57624,57624,57624,57624,57624,57624,57624,57624,57624,57624,57626,57624,57624,57624,57624,57624,57624,57624,57624,57625,57624,57624,57624,57624,57625,57624,57624,57624,57624,57624,57624,57624,57624,57624,57624,57624,57624,57624,57624,57624,57624,57624,
57624,57624,57624,57624,57624,57624,57624,57624,57624,57624,57624,57624,57624,57624,57624,57624,57624,57624,57624,57624,57624,57624,57624,57624,57624,57626,57624,57624,57624,57624,57624,57624,57624,57624,57624,57624,57624,57624,57624,57624,57624,57624,57624,57624,57624,57624,57624,57624,57624,57624,57624,57624,57624,57624,57624,57624,57624,57624,57624,57624,57624,57624,57624,57624,57624,57624,57624,57624,57624,57624,57624,57624,57624,57624,57624,57624,57624,57624,57624,57624,57624,57624,57624,57624,57624,57624,57624,57624,57624,57624,57624,57624,57624,57624,57624,57624,57624,57624,57624,57624,57624,57624,57624,57624,57624,57624,57624,57624,57624,57624,57624,57624,57624,57624,57624,57624,57624,57624,57624,57624,57624,57624,57624,57624,57624,57624,57624,57624,57624,57624,57624,57624,57624,57624,57624,57624,57624,57624,57624,57624,57624,57624,57624,57624,57624,57624,57624,57624,57624,57624,57624,57624,57624,57624,57624,57624,57624,57624,57624,57624,57624,57624,57624,57624,57624,57624,57624,57624,57624,57624,57624,57624,57624,57624,57624,57624,57624,57624,57624,57624,57624,57628,57624,57624,57624,57624,57624,57624,57624,57624,57624,57624,57624,57624,57624,57624,57624,57624,57624,57624,57624,57624,57624,57624,57624,57624,57624,57624,57624,57624,57624,57624,57624,57624,57624,57624,57624,57624,57624,57624,57624,57624,57624,57624,57624,57624,57624,57624,57624,57624,57624,57624,57624,57624,57624,57624,57624,57624,57624,57624,
57624,57624,57624,57624,57624,57624,57624,57624,57624,57624,57624,57624,57624,57624,57624,57624,57624,57624,57624,57624,57624,57624,57624,57624,57624,57624,57624,57624,57624,57624,57624,57624,57624,57624,57624,57624,57624,57624,57624,57624,57624,57624,57624,57624,57624,57624,57624,57624,57624,57624,57624,57624,57624,57624,57624,57624,57624,57624,57624,57624,57624,57624,57624,57624,57624,57624,57624,57624,57624,57624,57624,57626,57624,57624,57624,57624,57624,57624,57624,57624,57624,57624,57624,57624,57624,57624,57624,57624,57624,57624,57624,57624,57624,57624,57624,57624,57624,57624,57624,57624,57624,57624,57624,57624,57624,57624,57624,57624,57624,57624,57624,57624,57624,57624,57624,57624,57624,57624,57624,57624,57624,57624,57624,57624,57624,57624,57624,57624,57624,57624,57624,57624,57624,57624,57624,57624,57624,57624,57624,57624,57624,57624,57624,57624,57624,57624,57624,57624,57624,57624,57624,57624,57624,57624,57624,57624,57624,57624,57624,57624,57624,57624,57624,57624,57624,57624,57624,57624,57624,57624,57624,57624,57624,57624,57624,57624,57624,57624,57624,57624,57624,57624,57624,57624,57624,57624,57624,57624,57624,57624,57624,57624,57624,57624,57624,57624,57624,57624,57624,57624,57624,57624,57624,57624,57624,57624,57624,57624,57624,57624,57624,57624,57624,57624,57624,57624,57624,57624,57624,57624,57624,57624,57624,57624,57624,57624,57624,57624,57624,57624,57624,57624,57624,57624,57624,57624,57624,57624,57624,57624,
57624,57624,57624,57624,57624,57624,57624,57624,57624,57624,57624,57624,57624,57624,57624,57624,57624,57624,57624,57624,57624,57624,57624,57624,57624,57624,57624,57624,57624,57624,57624,57624,57624,57624,57624,57624,57624,57624,57624,57624,57624,57624,57624,57624,57624,57624,57624,57624,57624,57624,57624,57624,57624,57624,57624,57624,57624,57624,57624,57624,57624,57624,57624,57624,57624,57624,57624,57624,57628,57624,57624,57624,57624,57624,57624,57624,57624,57624,57624,57624,57624,57624,57624,57624,57624,57624,57624,57624,57624,57624,57624,57624,57624,57624,57624,57624,57624,57624,57624,57624,57624,57624,57624,57624,57624,57624,57624,57624,57624,57624,57624,57624,57624,57624,57624,57624,57624,57624,57624,57624,57624,57624,57624,57624,57624,57624,57624,57624,57624,57624,57624,57624,57624,57624,57624,57624,57624,57624,57624,57624,57624,57624,57624,57624,57624,57624,57624,57624,57624,57624,57624,57624,57624,57624,57624,57624,57624,57624,57624,57624,57624,57624,57624,57624,57624,57624,57624,57624,57624,57624,57624,57624,57624,57624,57624,57624,57624,57624,57624,57624,57624,57624,57624,57624,57624,57624,57624,57624,57624,57624,57624,57624,57624,57624,57624,57624,57624,57624,57624,57624,57624,57624,57624,57624,57624,57624,57624,57624,57624,57624,57624,57624,57624,57624,57624,57624,57624,57624,57624,57624,57624,57624,57624,57624,57624,57624,57624,57624,57624,57624,57624,57624,57624,57624,57624,57624,57624,57624,57624,57624,
57624,57624,57624,57624,57624,57624,57624,57624,57624,57624,57624,57624,57624,57624,57624,57624,57624,57624,57624,57624,57624,57624,57624,57624,57624,57624,57624,57624,57624,57624,57624,57624,57624,57624,57624,57624,57624,57624,57624,57624,57624,57624,57624,57624,57624,57624,57624,57624,57624,57624,57624,57624,57624,57624,57624,57624,57627,57624,57624,57624,57624,57624,57624,57624,57624,57624,57624,57624,57624,57624,57624,57624,57624,57624,57624,57624,57624,57624,57624,57624,57624,57624,57624,57624,57624,57624,57624,57624,57624,57624,57624,57624,57624,57624,57624,57624,57624,57624,57624,57624,57624,57624,57624,57624,57624,57624,57624,57624,57624,57624,57624,57624,57624,57624,57624,57624,57624,57624,57624,57624,57624,57624,57624,57624,57624,57624,57624,57624,57624,57624,57624,57624,57624,57624,57624,57624,57624,57624,57624,57624,57624,57624,57624,57624,57624,57624,57624,57624,57624,57624,57624,57624,57624,57624,57624,57624,57624,57624,57624,57624,57624,57624,57624,57624,57624,57624,57624,57624,57624,57624,57624,57624,57624,57624,57624,57624,57624,57624,57624,57624,57624,57624,57624,57624,57624,57624,57624,57624,57624,57624,57624,57624,57624,57624,57624,57624,57624,57624,57624,57624,57624,57624,57624,57624,57624,57624,57624,57624,57624,57624,57624,57624,57624,57624,57624,57624,57624,57624,57624,57624,57624,57624,57624,57624,57624,57624,57624,57624,57624,57624,57624,57624,57624,57624,57624,57624,57624,57624,57624,57624,
57624,57624,57624,57624,57624,57624,57624,57624,57624,57624,57624,57624,57624,57624,57624,57624,57624,57624,57624,57624,57624,57624,57624,57624,57624,57624,57624,57624,57624,57624,57624,57624,57624,57624,57624,57624,57624,57624,57624,57624,57624,57624,57624,57624,57624,57624,57624,57624,57624,57624,57624,57624,57624,57624,57624,57624,57624,57624,57624,57624,57624,57624,57624,57624,57624,57624,57624,57624,57624,57624,57624,57624,57624,57624,57624,57624,57624,57624,57624,57624,57624,57624,57624,57624,57624,57624,57624,57624,57624,57624,57624,57624,57624,57624,57624,57624,57624,57624,57624,57624,57624,57624,57624,57624,57624,57624,57624,57624,57624,57624,57624,57624,57624,57624,57624,57624,57624,57624,57624,57626,57624,57624,57624,57624,57624,57624,57627,57624,57624,57624,57624,57624,57624,57624,57624,57624,57624,57624,57624,57624,57624,57628,57624,57624,57624,57624,57624,57624,57624,57624,57624,57624,57624,57624,57624,57624,57624,57624,57624,57624,57624,57624,57624,57624,57624,57624,57624,57624,57624,57624,57624,57624,57624,57624,57624,57624,57624,57624,57624,57624,57624,57624,57624,57624,57624,57624,57624,57624,57624,57624,57624,57624,57624,57624,57624,57624,57624,57624,57624,57624,57624,57624,57624,57624,57624,57624,57624,57624,57624,57624,57624,57624,57624,57624,57624,57624,57624,57624,57624,57624,57624,57624,57624,57624,57624,57624,57624,57624,57624,57624,57624,57624,57624,57624,57624,57624,57624,57624,57624,57624,
57624,57624,57624,57624,57624,57624,57624,57624,57624,57624,57624,57624,57624,57624,57624,57624,57624,57624,57624,57624,57624,57624,57624,57624,57624,57624,57624,57624,57624,57624,57624,57624,57624,57624,57624,57624,57624,57624,57624,57624,57624,57624,57624,57624,57624,57624,57624,57624,57624,57624,57624,57624,57624,57624,57624,57624,57624,57624,57628,57624,57624,57624,57624,57624,57624,57624,57624,57624,57624,57624,57624,57624,57624,57624,57624,57624,57624,57624,57624,57624,57624,57624,57624,57624,57624,57624,57624,57624,57624,57624,57624,57624,57624,57624,57624,57624,57624,57624,57624,57624,57624,57624,57624,57624,57624,57624,57624,57624,57624,57624,57624,57624,57624,57624,57624,57624,57624,57624,57624,57624,57624,57624,57624,57624,57624,57624,57624,57624,57624,57624,57624,57624,57624,57624,57624,57624,57624,57624,57624,57624,57624,57624,57624,57624,57624,57624,57624,57624,57624,57624,57624,57624,57624,57624,57624,57624,57624,57624,57624,57624,57624,57624,57624,57624,57624,57624,57624,57624,57624,57624,57624,57624,57624,57624,57624,57624,57624,57624,57624,57624,57624,57624,57624,57624,57624,57624,57624,57624,57624,57624,57624,57624,57624,57624,57624,57624,57624,57624,57624,57624,57624,57624,57624,57624,57624,57624,57624,57624,57624,57624,57624,57624,57624,57624,57624,57624,57624,57624,57624,57624,57624,57624,57624,57624,57624,57624,57624,57624,57624,57624,57624,57624,57624,57624,57624,57624,57624,57624,57624,57624,
57624,57624,57624,57624,57624,57624,57624,57624,57624,57624,57624,57624,57624,57624,57624,57624,57624,57624,57624,57624,57628,57624,57624,57624,57624,57624,57624,57624,57624,57624,57624,57624,57624,57624,57624,57624,57624,57624,57624,57624,57624,57624,57624,57624,57624,57624,57624,57624,57624,57624,57624,57624,57624,57624,57624,57624,57624,57624,57624,57624,57624,57624,57624,57624,57624,57624,57624,57624,57624,57624,57624,57624,57624,57624,57624,57624,57624,57624,57624,57624,57624,57624,57624,57624,57624,57624,57624,57624,57624,57624,57624,57624,57624,57624,57624,57624,57624,57624,57624,57624,57624,57624,57624,57624,57624,57624,57624,57624,57624,57624,57624,57624,57624,57624,57624,57624,57624,57624,57624,57624,57624,57624,57624,57624,57624,57624,57624,57624,57624,57624,57624,57624,57624,57624,57624,57624,57624,57624,57624,57624,57624,57624,57624,57624,57624,57624,57624,57624,57624,57624,57624,57624,57624,57624,57624,57624,57624,57624,57624,57624,57624,57624,57624,57624,57624,57624,57624,57624,57624,57624,57624,57624,57624,57624,57624,57624,57624,57624,57624,57624,57624,57624,57624,57624,57624,57624,57624,57624,57624,57624,57624,57624,57624,57624,57624,57624,57624,57624,57624,57624,57624,57624,57624,57624,57624,57624,57624,57624,57624,57624,57624,57624,57624,57624,57624,57624,57624,57624,57624,57624,57624,57624,57624,57624,57624,57624,57624,57624,57624,57624,57624,57624,57624,57624,57624,57624,57624,57624,57624,57624,
57624,57624,57624,57624,57624,57624,57624,57624,57624,57624,57624,57624,57624,57624,57624,57624,57624,57624,57624,57624,57624,57624,57624,57624,57624,57624,57624,57624,57624,57624,57624,57624,57624,57624,57624,57624,57624,57624,57624,57624,57624,57624,57624,57624,57624,57624,57624,57624,57624,57624,57624,57624,57624,57624,57624,57624,57624,57624,57624,57624,57624,57624,57624,57624,57624,57624,57624,57624,57624,57624,57624,57624,57624,57624,57624,57624,57624,57624,57624,57624,57624,57624,57629,57624,57624,57624,57624,57624,57624,57624,57624,57624,57624,57624,57624,57624,57624,57624,57624,57624,57624,57624,57624,57624,57624,57624,57624,57624,57624,57624,57624,57624,57624,57624,57624,57624,57624,57624,57624,57624,57624,57624,57624,57624,57624,57624,57624,57624,57624,57624,57624,57624,57624,57624,57624,57624,57624,57624,57624,57624,57624,57624,57624,57624,57624,57624,57624,57624,57624,57624,57624,57624,57624,57624,57624,57624,57624,57624,57624,57624,57624,57624,57624,57624,57624,57624,57624,57629,57624,57624,57624,57624,57624,57624,57624,57624,57624,57624,57624,57624,57624,57624,57624,57624,57624,57624,57624,57624,57624,57624,57624,57624,57624,57624,57624,57624,57624,57624,57624,57624,57624,57624,57624,57624,57624,57624,57624,57628,57624,57624,57624,57624,57624,57624,57624,57624,57624,57624,57624,57624,57624,57624,57624,57624,57624,57624,57624,57624,57624,57624,57624,57624,57624,57624,57624,57624,57624,57624,57624,57624,
57624,57624,57624,57624,57624,57624,57624,57624,57624,57624,57624,57624,57624,57624,57624,57624,57624,57624,57624,57624,57624,57624,57624,57624,57624,57624,57624,57624,57624,57624,57624,57624,57624,57624,57624,57624,57624,57624,57624,57624,57624,57624,57624,57624,57624,57624,57624,57624,57624,57624,57624,57624,57624,57624,57624,57624,57624,57624,57624,57624,57624,57624,57624,57624,57624,57624,57624,57624,57624,57624,57624,57624,57624,57624,57624,57628,57624,57624,57624,57624,57624,57624,57624,57624,57624,57624,57624,57624,57624,57627,57624,57624,57624,57624,57624,57624,57624,57624,57624,57624,57624,57624,57624,57624,57624,57624,57624,57624,57624,57624,57624,57624,57624,57624,57624,57624,57624,57624,57624,57624,57624,57624,57624,57624,57624,57624,57624,57624,57624,57624,57624,57624,57624,57624,57624,57624,57624,57624,57624,57624,57624,57624,57624,57624,57624,57626,57624,57624,57624,57624,57624,57624,57624,57624,57624,57624,57624,57624,57624,57627,57624,57624,57624,57624,57624,57624,57624,57624,57624,57624,57624,57624,57624,57624,57624,57624,57629,57624,57624,57624,57624,57624,57624,57624,57624,57624,57624,57624,57624,57624,57624,57624,57624,57624,57624,57624,57624,57624,57625,57624,57624,57624,57624,57624,57624,57624,57624,57624,57624,57624,57624,57624,57624,57624,57624,57624,57624,57624,57624,57624,57624,57624,57624,57624,57624,57624,57624,57624,57624,57624,57624,57624,57624,57624,57627,57624,57624,57624,57624,57624,
57624,57624,57624,57624,57624,57624,57624,57624,57624,57624,57624,57624,57624,57624,57624,57624,57624,57624,57624,57624,57624,57624,57624,57624,57624,57624,57624,57624,57624,57624,57624,57624,57624,57624,57624,57624,57624,57624,57624,57624,57624,57624,57624,57624,57624,57624,57624,57624,57624,57624,57624,57624,57624,57624,57624,57624,57624,57624,57624,57624,57624,57624,57624,57624,57624,57624,57624,57624,57624,57624,57624,57624,57624,57624,57624,57624,57624,57624,57624,57624,57624,57624,57624,57624,57624,57624,57624,57624,57624,57624,57624,57624,57624,57624,57624,57624,57624,57624,57624,57624,57624,57624,57624,57624,57624,57624,57624,57624,57624,57624,57624,57624,57624,57624,57624,57624,57624,57624,57624,57624,57624,57624,57624,57624,57624,57624,57624,57624,57624,57624,57624,57624,57624,57624,57624,57624,57624,57625,57624,57624,57624,57624,57624,57624,57624,57624,57624,57624,57624,57624,57624,57624,57624,57624,57624,57625,57624,57624,57624,57624,57624,57624,57624,57624,57624,57624,57624,57624,57624,57624,57624,57624,57624,57624,57624,57624,57624,57624,57624,57624,57624,57624,57624,57624,57624,57624,57624,57628,57624,57624,57624,57624,57624,57624,57624,57624,57624,57624,57624,57624,57624,57624,57624,57624,57624,57624,57624,57624,57624,57624,57624,57624,57624,57624,57624,57624,57624,57624,57624,57624,57624,57624,57624,57624,57624,57624,57624,57624,57624,57624,57624,57624,57624,57624,57624,57624,57624,57624,57624,57624,
57624,57624,57624,57624,57624,57624,57624,57624,57624,57624,57624,57624,57624,57624,57624,57624,57624,57624,57624,57624,57624,57624,57624,57624,57624,57624,57624,57624,57624,57624,57624,57624,57624,57624,57624,57624,57624,57624,57624,57624,57624,57624,57624,57624,57624,57624,57624,57624,57624,57624,57624,57624,57624,57624,57624,57624,57624,57624,57624,57624,57624,57624,57624,57624,57624,57624,57624,57624,57624,57624,57624,57624,57624,57624,57624,57624,57624,57624,57624,57624,57624,57624,57624,57624,57624,57624,57624,57624,57624,57624,57624,57624,57624,57624,57624,57624,57624,57624,57624,57624,57624,57624,57624,57624,57624,57624,57624,57624,57624,57624,57624,57624,57624,57624,57624,57624,57624,57624,57624,57624,57624,57624,57624,57624,57624,57624,57624,57624,57624,57624,57624,57624,57624,57624,57629,57624,57624,57624,57624,57624,57624,57624,57624,57624,57624,57624,57624,57624,57624,57624,57624,57624,57624,57624,57624,57624,57624,57624,57624,57624,57624,57624,57624,57624,57624,57624,57624,57624,57624,57624,57624,57624,57624,57624,57624,57624,57624,57624,57624,57624,57624,57624,57624,57624,57624,57624,57624,57624,57624,57624,57624,57624,57624,57624,57624,57624,57624,57624,57624,57624,57624,57624,57624,57624,57624,57624,57624,57624,57624,57624,57624,57624,57624,57624,57624,57624,57624,57624,57624,57624,57624,57624,57624,57624,57624,57624,57624,57624,57624,57624,57624,57624,57624,57624,57624,57624,57624,57624,57624,57624,
57624,57624,57624,57624,57624,57624,57624,57624,57624,57624,57624,57624,57624,57624,57624,57624,57624,57624,57624,57624,57624,57624,57624,57624,57624,57624,57624,57624,57624,57624,57624,57624,57625,57624,57624,57624,57624,57624,57624,57624,57624,57624,57624,57624,57624,57624,57624,57624,57624,57624,57624,57624,57624,57624,57624,57624,57624,57624,57624,57624,57624,57624,57624,57624,57624,57624,57624,57624,57624,57624,57624,57624,57624,57624,57624,57624,57624,57624,57624,57624,57624,57624,57624,57624,57625,57624,57624,57624,57624,57624,57625,57624,57624,57624,57624,57624,57624,57624,57624,57624,57624,57624,57624,57624,57624,57624,57624,57624,57624,57624,57624,57624,57624,57624,57624,57624,57624,57624,57624,57624,57624,57624,57624,57624,57624,57624,57624,57624,57624,57624,57624,57624,57624,57624,57624,57624,57624,57624,57624,57624,57624,57624,57624,57624,57624,57624,57624,57624,57624,57624,57624,57624,57624,57624,57624,57629,57624,57624,57624,57624,57624,57624,57624,57624,57624,57624,57624,57624,57624,57624,57624,57624,57624,57624,57624,57624,57624,57624,57624,57624,57624,57624,57624,57624,57624,57624,57624,57624,57624,57624,57624,57624,57624,57624,57624,57624,57624,57624,57624,57624,57624,57624,57624,57624,57628,57624,57624,57624,57624,57624,57624,57624,57624,57624,57624,57624,57624,57624,57624,57624,57624,57624,57624,57624,57624,57624,57624,57629,57624,57624,57624,57624,57624,57624,57624,57624,57624,57624,57624,57624,
57624,57624,57624,57624,57624,57624,57624,57624,57624,57624,57624,57624,57624,57624,57624,57624,57624,57624,57624,57624,57624,57624,57624,57624,57624,57627,57624,57624,57624,57624,57624,57624,57624,57624,57624,57624,57624,57624,57624,57624,57624,57624,57624,57624,57624,57624,57624,57624,57624,57624,57624,57624,57624,57624,57624,57624,57624,57624,57624,57624,57624,57624,57624,57624,57624,57624,57624,57624,57624,57624,57624,57624,57624,57624,57624,57624,57624,57624,57624,57624,57624,57624,57624,57624,57624,57624,57624,57624,57624,57624,57624,57624,57624,57624,57624,57624,57624,57624,57624,57624,57624,57624,57624,57624,57624,57624,57624,57624,57624,57624,57624,57624,57624,57624,57624,57624,57624,57624,57624,57624,57624,57624,57624,57624,57624,57624,57624,57624,57624,57624,57624,57624,57624,57624,57624,57624,57624,57624,57624,57624,57624,57624,57624,57624,57624,57624,57624,57624,57624,57624,57624,57624,57624,57624,57624,57624,57624,57624,57624,57624,57624,57624,57624,57624,57624,57624,57624,57624,57624,57624,57624,57624,57624,57624,57624,57624,57624,57624,57624,57624,57624,57624,57624,57624,57624,57624,57624,57624,57624,57624,57624,57624,57624,57624,57624,57624,57624,57624,57624,57624,57624,57624,57624,57624,57624,57624,57624,57624,57624,57624,57624,57624,57624,57624,57624,57624,57624,57624,57624,57624,57624,57624,57624,57624,57624,57624,57624,57624,57624,57624,57624,57624,57624,57624,57624,57624,57624,57624,57624,57624,
57624,57624,57624,57624,57624,57624,57624,57624,57624,57624,57624,57624,57624,57624,57624,57624,57624,57624,57624,57624,57624,57624,57624,57624,57624,57624,57624,57624,57624,57624,57624,57624,57624,57624,57624,57624,57624,57624,57624,57624,57629,57624,57624,57624,57624,57624,57624,57624,57624,57624,57624,57624,57624,57624,57624,57624,57624,57624,57624,57624,57624,57624,57624,57624,57624,57624,57624,57624,57624,57624,57624,57624,57624,57624,57624,57624,57624,57624,57624,57624,57624,57624,57624,57624,57624,57624,57624,57624,57624,57624,57624,57624,57624,57624,57624,57624,57624,57624,57624,57624,57624,57624,57624,57624,57624,57624,57624,57624,57624,57624,57624,57624,57624,57624,57624,57624,57624,57624,57624,57624,57624,57624,57624,57624,57624,57624,57624,57624,57624,57624,57624,57624,57624,57624,57624,57624,57624,57624,57624,57624,57624,57624,57624,57624,57624,57624,57624,57624,57624,57624,57624,57624,57624,57624,57624,57624,57624,57624,57624,57624,57624,57624,57624,57624,57624,57624,57624,57624,57624,57624,57624,57624,57624,57624,57624,57624,57624,57624,57624,57624,57624,57624,57624,57624,57624,57624,57624,57624,57624,57624,57624,57624,57624,57624,57624,57624,57624,57624,57624,57624,57624,57624,57624,57624,57624,57624,57624,57624,57624,57624,57624,57624,57624,57624,57624,57624,57624,57624,57624,57624,57624,57624,57624,57624,57624,57624,57624,57624,57624,57624,57624,57624,57624,57624,57624,57624,57624,57624,57624,57624,
57624,57624,57624,57624,57624,57624,57624,57624,57624,57624,57624,57624,57624,57624,57624,57624,57624,57628,57624,57624,57624,57624,57624,57624,57624,57624,57624,57624,57624,57624,57624,57624,57624,57624,57624,57624,57624,57624,57624,57624,57624,57624,57624,57624,57624,57624,57624,57624,57624,57624,57624,57624,57624,57624,57624,57624,57624,57624,57624,57624,57624,57624,57624,57624,57624,57624,57624,57624,57624,57624,57624,57624,57624,57624,57624,57624,57624,57624,57624,57624,57624,57624,57624,57624,57624,57624,57624,57624,57624,57624,57624,57624,57624,57624,57624,57624,57624,57624,57624,57624,57624,57624,57624,57624,57624,57624,57624,57624,57624,57624,57624,57624,57624,57624,57624,57624,57624,57624,57624,57624,57624,57624,57624,57624,57624,57624,57624,57624,57624,57624,57624,57624,57624,57624,57624,57624,57624,57624,57624,57624,57624,57624,57624,57624,57624,57624,57624,57624,57624,57624,57624,57624,57624,57624,57624,57624,57624,57624,57624,57624,57624,57624,57624,57624,57624,57624,57624,57624,57624,57624,57624,57624,57624,57624,57624,57624,57624,57624,57624,57624,57624,57624,57624,57624,57624,57624,57624,57624,57624,57624,57628,57626,57624,57624,57624,57624,57624,57624,57624,57624,57624,57624,57624,57624,57624,57624,57624,57624,57624,57624,57624,57624,57624,57624,57624,57624,57624,57624,57624,57624,57624,57624,57624,57624,57624,57624,57624,57624,57624,57629,57624,57624,57624,57624,57624,57624,57624,57624,57624,57624,
57624,57624,57624,57624,57624,57624,57624,57624,57624,57624,57624,57624,57624,57624,57624,57624,57624,57624,57624,57624,57624,57624,57624,57624,57624,57624,57624,57624,57624,57624,57624,57624,57624,57624,57624,57624,57624,57624,57624,57624,57624,57624,57624,57624,57624,57624,57624,57624,57624,57624,57624,57624,57624,57624,57624,57624,57624,57624,57624,57624,57624,57624,57624,57624,57624,57624,57624,57624,57624,57624,57624,57624,57624,57624,57624,57624,57624,57624,57624,57624,57624,57624,57624,57624,57624,57624,57624,57624,57624,57624,57624,57624,57624,57624,57624,57624,57624,57624,57624,57624,57624,57624,57624,57624,57624,57624,57624,57624,57624,57629,57624,57624,57624,57624,57624,57624,57624,57624,57624,57624,57624,57624,57624,57624,57624,57624,57624,57624,57624,57624,57624,57624,57624,57624,57624,57624,57624,57624,57624,57624,57624,57624,57624,57624,57624,57624,57624,57624,57624,57624,57624,57624,57624,57624,57624,57624,57624,57624,57624,57624,57624,57624,57624,57624,57624,57624,57624,57624,57624,57624,57624,57624,57624,57624,57624,57624,57624,57624,57624,57624,57624,57624,57624,57624,57624,57624,57624,57624,57624,57624,57624,57624,57624,57624,57624,57624,57624,57624,57624,57624,57624,57624,57624,57624,57624,57624,57624,57624,57624,57624,57624,57624,57624,57624,57624,57624,57624,57624,57624,57624,57624,57624,57624,57624,57624,57624,57624,57624,57624,57624,57624,57624,57624,57624,57624,57624,57624,57624,57624,57624,
57624,57624,57624,57624,57624,57624,57624,57624,57624,57624,57624,57624,57624,57624,57624,57624,57624,57624,57624,57624,57624,57624,57624,57624,57624,57624,57624,57624,57624,57624,57624,57624,57624,57624,57624,57624,57624,57624,57624,57624,57624,57624,57624,57624,57624,57624,57624,57627,57624,57624,57624,57625,57624,57624,57624,57624,57624,57624,57624,57624,57624,57624,57624,57624,57624,57624,57624,57624,57624,57624,57624,57624,57624,57624,57624,57624,57624,57624,57624,57624,57624,57624,57624,57624,57624,57624,57624,57624,57624,57624,57624,57624,57624,57624,57624,57624,57624,57624,57624,57624,57624,57624,57624,57624,57624,57624,57624,57624,57624,57624,57624,57624,57624,57624,57624,57624,57624,57624,57624,57624,57624,57624,57624,57624,57624,57624,57624,57624,57624,57624,57624,57624,57624,57624,57624,57624,57624,57624,57624,57624,57624,57624,57624,57624,57624,57624,57624,57624,57624,57624,57624,57624,57624,57624,57624,57624,57624,57624,57624,57624,57624,57624,57624,57624,57624,57624,57624,57624,57624,57624,57624,57624,57624,57624,57624,57624,57624,57624,57624,57624,57624,57624,57624,57624,57624,57624,57624,57624,57624,57624,57624,57624,57624,57624,57624,57624,57624,57624,57624,57624,57624,57624,57624,57624,57624,57624,57624,57624,57624,57624,57624,57624,57624,57624,57624,57624,57624,57624,57624,57624,57624,57624,57624,57624,57624,57624,57624,57624,57624,57624,57624,57624,57624,57624,57624,57624,57624,57624,57624,57624,
57624,57624,57624,57624,57624,57624,57624,57624,57624,57624,57624,57624,57624,57624,57624,57624,57624,57624,57624,57624,57624,57624,57624,57624,57624,57624,57624,57624,57624,57624,57624,57624,57624,57624,57624,57624,57624,57624,57624,57624,57624,57624,57624,57624,57624,57624,57624,57624,57624,57624,57624,57628,57624,57624,57624,57624,57624,57624,57624,57624,57624,57624,57624,57624,57624,57624,57624,57624,57624,57624,57624,57624,57624,57624,57624,57624,57624,57624,57624,57624,57624,57624,57624,57624,57624,57624,57624,57624,57624,57624,57624,57624,57624,57624,57624,57624,57624,57624,57624,57624,57624,57624,57624,57624,57624,57624,57624,57624,57624,57624,57624,57624,57624,57624,57624,57624,57624,57624,57624,57624,57624,57624,57624,57624,57624,57624,57624,57624,57624,57624,57624,57624,57624,57624,57624,57624,57624,57624,57624,57624,57624,57624,57624,57624,57624,57624,57624,57624,57624,57624,57624,57624,57624,57624,57624,57624,57624,57624,57624,57624,57624,57624,57624,57626,57624,57624,57624,57624,57624,57624,57624,57624,57624,57624,57624,57624,57624,57624,57624,57624,57624,57624,57624,57624,57624,57624,57624,57624,57624,57624,57624,57624,57624,57624,57624,57624,57624,57624,57624,57624,57624,57624,57624,57624,57625,57624,57624,57624,57624,57624,57624,57624,57624,57624,57624,57624,57624,57624,57624,57624,57624,57624,57624,57624,57624,57624,57624,57624,57624,57624,57624,57624,57624,57624,57624,57624,57624,57624,57624,57624,
57624,57624,57624,57624,57624,57624,57624,57624,57624,57624,57624,57624,57624,57624,57624,57624,57624,57624,57624,57624,57624,57624,57624,57624,57624,57624,57624,57624,57624,57624,57624,57624,57624,57624,57624,57624,57624,57624,57624,57624,57624,57624,57624,57624,57624,57624,57624,57624,57624,57624,57624,57624,57624,57624,57624,57624,57624,57624,57624,57624,57624,57624,57624,57624,57624,57624,57624,57624,57624,57624,57624,57624,57624,57624,57624,57624,57624,57624,57624,57624,57624,57624,57624,57624,57624,57624,57624,57624,57624,57624,57624,57624,57624,57624,57624,57624,57624,57624,57624,57624,57624,57624,57624,57624,57624,57624,57624,57624,57624,57624,57624,57624,57624,57624,57624,57624,57624,57624,57624,57624,57624,57624,57624,57624,57624,57624,57624,57624,57624,57624,57624,57624,57624,57624,57624,57624,57624,57624,57624,57624,57624,57624,57624,57627,57624,57624,57624,57624,57624,57624,57624,57624,57624,57624,57624,57624,57624,57624,57624,57624,57624,57624,57624,57624,57624,57624,57624,57624,57624,57624,57624,57624,57624,57624,57624,57624,57624,57624,57624,57624,57624,57624,57624,57624,57624,57624,57624,57629,57624,57624,57624,57629,57629,57624,57624,57624,57624,57624,57624,57624,57624,57624,57624,57624,57624,57624,57624,57624,57624,57624,57624,57624,57624,57624,57624,57624,57624,57624,57624,57624,57624,57624,57624,57624,57624,57624,57624,57624,57624,57624,57624,57624,57624,57624,57624,57624,57624,57624,57624,57624,
57624,57624,57624,57624,57624,57624,57624,57624,57624,57624,57624,57624,57624,57624,57624,57624,57624,57624,57624,57624,57624,57624,57624,57624,57624,57624,57624,57624,57624,57624,57624,57624,57624,57624,57624,57624,57624,57624,57624,57624,57624,57624,57624,57624,57624,57624,57624,57624,57624,57624,57624,57624,57624,57624,57624,57624,57624,57624,57624,57624,57624,57624,57624,57624,57624,57624,57624,57624,57624,57624,57624,57624,57624,57624,57624,57624,57624,57624,57624,57624,57624,57624,57624,57624,57624,57624,57624,57624,57624,57624,57624,57624,57624,57624,57624,57624,57624,57624,57624,57624,57624,57624,57624,57624,57624,57624,57624,57624,57624,57624,57624,57624,57624,57624,57624,57624,57624,57624,57624,57624,57624,57624,57624,57624,57625,57624,57624,57624,57624,57624,57624,57624,57624,57624,57624,57624,57624,57624,57624,57624,57624,57624,57624,57624,57624,57624,57624,57624,57624,57624,57624,57624,57624,57624,57624,57624,57624,57624,57624,57624,57624,57624,57624,57624,57624,57624,57624,57624,57624,57624,57624,57624,57624,57624,57624,57624,57624,57624,57624,57624,57624,57624,57624,57624,57628,57624,57624,57624,57624,57624,57624,57624,57624,57624,57624,57624,57624,57624,57624,57624,57624,57624,57624,57624,57624,57624,57624,57624,57624,57624,57624,57624,57624,57624,57624,57624,57624,57624,57624,57624,57624,57624,57624,57624,57625,57624,57624,57624,57624,57624,57624,57624,57624,57624,57624,57624,57624,57624,57624,57624
</data>
 </layer>
 <layer id="2" name="walls" width="240" height="240">
  <data encoding="csv">
0,0,0,0,0,0,0,0,0,0,0,0,0,0,0,0,0,0,0,0,0,0,0,0,0,0,0,0,0,0,0,0,0,0,0,0,0,0,0,0,0,0,0,0,0,0,0,0,0,0,0,0,0,0,0,0,0,0,0,0,0,0,0,0,0,0,0,0,0,0,0,0,0,0,0,0,0,0,0,0,0,0,0,0,0,0,0,0,0,0,0,0,0,0,0,0,0,0,0,0,0,0,0,0,0,0,0,0,0,0,0,0,0,0,0,0,0,0,0,0,0,0,0,0,0,0,0,0,0,0,0,0,0,0,0,0,0,0,0,0,0,0,0,0,0,0,0,0,0,0,0,0,0,0,0,0,0,0,0,0,0,0,0,0,0,0,0,0,0,0,0,0,0,0,0,0,0,0,0,0,0,0,0,0,0,0,0,0,0,0,0,0,0,0,0,0,0,0,0,0,0,0,0,0,0,0,0,0,0,0,0,0,0,0,0,0,0,0,0,0,0,0,0,0,0,0,0,0,0,0,0,0,0,0,0,0,0,0,0,0,
0,0,0,0,0,0,0,0,0,0,0,0,0,0,0,0,0,0,0,0,0,0,0,0,0,0,0,0,0,0,0,0,0,0,0,0,0,0,0,0,0,0,0,0,0,0,0,0,0,0,0,0,0,0,0,0,0,0,0,0,0,0,0,0,0,0,0,0,0,0,0,0,0,0,0,0,0,0,0,0,0,0,0,0,0,0,0,0,0,0,0,0,0,0,0,0,0,0,0,0,0,0,0,0,0,0,0,0,0,0,0,0,0,0,0,0,0,0,0,0,0,0,0,0,0,0,0,0,0,0,0,0,0,0,0,0,0,0,0,0,0,0,0,0,0,0,0,0,0,0,0,0,0,0,0,0,0,0,0,0,0,0,0,0,0,0,0,0,0,0,0,0,0,0,0,0,0,0,0,0,0,0,0,0,0,0,0,0,0,0,0,0,0,0,0,0,0,0,0,0,0,0,0,0,0,0,0,0,0,0,0,0,0,0,0,0,0,0,0,0,0,0,0,0,0,0,0,0,0,0,0,0,0,0,0,0,0,0,0,0,
0,0,0,0,0,0,0,0,0,0,0,0,0,0,0,0,0,0,0,0,0,0,0,0,0,0,0,0,0,0,0,0,0,0,0,0,0,0,0,0,0,0,0,0,0,0,0,0,0,0,0,0,0,0,0,0,0,0,0,0,0,0,0,0,0,0,0,0,0,0,0,0,0,0,0,0,0,0,0,0,0,0,0,0,0,0,0,0,0,0,0,0,0,0,0,0,0,0,0,0,0,0,0,0,0,0,0,0,0,0,0,0,0,0,0,0,0,0,0,0,0,0,0,0,0,0,0,0,0,0,0,0,0,0,0,0,0,0,0,0,0,0,0,0,0,0,0,0,0,0,0,0,0,0,0,0,0,0,0,0,0,0,0,0,0,0,0,0,0,0,0,0,0,0,0,0,0,0,0,0,0,0,0,0,0,0,0,0,0,0,0,0,0,0,0,0,0,0,0,0,0,0,0,0,0,0,0,0,0,0,0,0,0,0,0,0,0,0,0,0,0,0,0,0,0,0,0,0,0,0,0,0,0,0,0,0,0,0,0,0,
0,0,0,0,0,0,0,0,0,0,0,0,0,0,0,0,0,0,0,0,0,0,0,0,0,0,0,0,0,0,0,0,0,0,0,0,0,0,0,0,0,0,0,0,0,0,0,0,0,0,0,0,0,0,0,0,0,0,0,0,0,0,0,0,0,0,0,0,0,0,0,0,0,0,0,0,0,0,0,0,0,0,0,0,0,0,0,0,0,0,0,0,0,0,0,0,0,0,0,0,0,0,0,0,0,0,0,0,0,0,0,0,0,0,0,0,0,0,0,0,0,0,0,0,0,0,0,0,0,0,0,0,0,0,0,0,0,0,0,0,0,0,0,0,0,0,0,0,0,0,0,0,0,0,0,0,0,0,0,0,0,0,0,0,0,0,0,0,0,0,0,0,0,0,0,0,0,0,0,0,0,0,0,0,0,0,0,0,0,0,0,0,0,0,0,0,0,0,0,0,0,0,0,0,0,0,0,0,0,0,0,0,0,0,0,0,0,0,0,0,0,0,0,0,0,0,0,0,0,0,0,0,0,0,0,0,0,0,0,0,
0,0,0,0,0,0,0,0,0,0,0,0,0,0,0,0,0,0,0,0,0,0,0,0,0,0,0,0,0,0,0,0,0,0,0,0,0,0,0,0,0,0,0,0,0,0,0,0,0,0,0,0,0,0,0,0,0,0,0,0,0,0,0,0,0,0,0,0,0,0,0,0,0,0,0,0,0,0,0,0,0,0,0,0,0,0,0,0,0,0,0,0,0,0,0,0,0,0,0,0,0,0,0,0,0,0,0,0,0,0,0,0,0,0,0,0,0,0,0,0,0,0,0,0,0,0,0,0,0,0,0,0,0,0,0,0,0,0,0,0,0,0,0,0,0,0,0,0,0,0,0,0,0,0,0,0,0,0,0,0,0,0,0,0,0,0,0,0,0,0,0,0,0,0,0,0,0,0,0,0,0,0,0,0,0,0,0,0,0,0,0,0,0,0,0,0,0,0,0,0,0,0,0,0,0,0,0,0,0,0,0,0,0,0,0,0,0,0,0,0,0,0,0,0,0,0,0,0,0,0,0,0,0,0,0,0,0,0,0,0,
0,0,0,0,0,0,0,0,0,0,0,0,0,0,0,0,0,0,0,0,0,0,0,0,0,0,0,0,0,0,0,0,0,0,0,0,0,0,0,0,0,0,0,0,0,0,0,0,0,0,0,0,0,0,0,0,0,0,0,0,0,0,0,0,0,0,0,0,0,0,0,0,0,0,0,0,0,0,0,0,0,0,0,0,0,0,0,0,0,0,0,0,0,0,0,0,0,0,0,0,0,0,0,0,0,0,0,0,0,0,0,0,0,0,0,0,0,0,0,0,0,0,0,0,0,0,0,0,0,0,0,0,0,0,0,0,0,0,0,0,0,0,0,0,0,0,0,0,0,0,0,0,0,0,0,0,0,0,0,0,0,0,0,0,0,0,0,0,0,0,0,0,0,0,0,0,0,0,0,0,0,0,0,0,0,0,0,0,0,0,0,0,0,0,0,0,0,0,0,0,0,0,0,0,0,0,0,0,0,0,0,0,0,0,0,0,0,0,0,0,0,0,0,0,0,0,0,0,0,0,0,0,0,0,0,0,0,0,0,0,
0,0,0,0,0,0,0,0,0,0,0,0,0,0,0,0,0,0,0,0,0,0,0,0,0,0,0,0,0,0,0,0,0,0,0,0,0,0,0,0,0,0,0,0,0,0,0,0,0,0,0,0,0,0,0,0,0,0,0,0,0,0,0,0,0,0,0,0,0,0,0,0,0,0,0,0,0,0,0,0,0,0,0,0,0,0,0,0,0,0,0,0,0,0,0,0,0,0,0,0,0,0,0,0,0,0,0,0,0,0,0,0,0,0,0,0,0,0,0,0,0,0,0,0,0,0,0,0,0,0,0,0,0,0,0,0,0,0,0,0,0,0,0,0,0,0,0,0,0,0,0,0,0,0,0,0,0,0,0,0,0,0,0,0,0,0,0,0,0,0,0,0,0,0,0,0,0,0,0,0,0,0,0,0,0,0,0,0,0,0,0,0,0,0,0,0,0,0,0,0,0,0,0,0,0,0,0,0,0,0,0,0,0,0,0,0,0,0,0,0,0,0,0,0,0,0,0,0,0,0,0,0,0,0,0,0,0,0,0,0,
0,0,0,0,0,0,0,0,0,0,0,0,0,0,0,0,0,0,0,0,0,0,0,0,0,0,0,0,0,0,0,0,0,0,0,0,0,0,0,0,0,0,0,0,0,0,0,0,0,0,0,0,0,0,0,0,0,0,0,0,0,0,0,0,0,0,0,0,0,0,0,0,0,0,0,0,0,0,0,0,0,0,0,0,0,0,0,0,0,0,0,0,0,0,0,0,0,0,0,0,0,0,0,0,0,0,0,0,0,0,0,0,0,0,0,0,0,0,0,0,0,0,0,0,0,0,0,0,0,0,0,0,0,0,0,0,0,0,0,0,0,0,0,0,0,0,0,0,0,0,0,0,0,0,0,0,0,0,0,0,0,0,0,0,0,0,0,0,0,0,0,0,0,0,0,0,0,0,0,0,0,0,0,0,0,0,0,0,0,0,0,0,0,0,0,0,0,0,0,0,0,0,0,0,0,0,0,0,0,0,0,0,0,0,0,0,0,0,0,0,0,0,0,0,0,0,0,0,0,0,0,0,0,0,0,0,0,0,0,0,
0,0,0,0,0,0,0,0,0,0,0,0,0,0,0,0,0,0,0,0,0,0,0,0,0,0,0,0,0,0,0,0,0,0,0,0,0,0,0,0,0,0,0,0,0,0,0,0,0,0,0,0,0,0,0,0,0,0,0,0,0,0,0,0,0,0,0,0,0,0,0,0,0,0,0,0,0,0,0,0,0,0,0,0,0,0,0,0,0,0,0,0,0,0,0,0,0,0,0,0,0,0,0,0,0,0,0,0,0,0,0,0,0,0,0,0,0,0,0,0,0,0,0,0,0,0,0,0,0,0,0,0,0,0,0,0,0,0,0,0,0,0,0,0,0,0,0,0,0,0,0,0,0,0,0,0,0,0,0,0,0,0,0,0,0,0,0,0,0,0,0,0,0,0,0,0,0,0,0,0,0,0,0,0,0,0,0,0,0,0,0,0,0,0,0,0,0,0,0,0,0,0,0,0,0,0,0,0,0,0,0,0,0,0,0,0,0,0,0,0,0,0,0,0,0,0,0,0,0,0,0,0,0,0,0,0,0,0,0,0,
0,0,0,0,0,0,0,0,0,0,0,0,0,0,0,0,0,0,0,0,0,0,0,0,0,0,0,0,0,0,0,0,0,0,0,0,0,0,0,0,0,0,0,0,0,0,0,0,0,0,0,0,0,0,0,0,0,0,0,0,0,0,0,0,0,0,0,0,0,0,0,0,0,0,0,0,0,0,0,0,0,0,0,0,0,0,0,0,0,0,0,0,0,0,0,0,0,0,0,0,0,0,0,0,0,0,0,0,0,0,0,0,0,0,0,0,0,0,0,0,0,0,0,0,0,0,0,0,0,0,0,0,0,0,0,0,0,0,0,0,0,0,0,0,0,0,0,0,0,0,0,0,0,0,0,0,0,0,0,0,0,0,0,0,0,0,0,0,0,0,0,0,0,0,0,0,0,0,0,0,0,0,0,0,0,0,0,0,0,0,0,0,0,0,0,0,0,0,0,0,0,0,0,0,0,0,0,0,0,0,0,0,0,0,0,0,0,0,0,0,0,0,0,0,0,0,0,0,0,0,0,0,0,0,0,0,0,0,0,0,
0,0,0,0,0,0,0,0,0,0,0,0,0,0,0,0,0,0,0,0,0,0,0,0,0,0,0,0,0,0,0,0,0,0,0,0,0,0,0,0,0,0,0,0,0,0,0,0,0,0,0,0,0,0,0,0,0,0,0,0,0,0,0,0,0,0,0,0,0,0,0,0,0,0,0,0,0,0,0,0,0,0,0,0,0,0,0,0,0,0,0,0,0,0,0,0,0,0,0,0,0,0,0,0,0,0,0,0,0,0,0,0,0,0,0,0,0,0,0,0,0,0,0,0,0,0,0,0,0,0,0,0,0,0,0,0,0,0,0,0,0,0,0,0,0,0,0,0,0,0,0,0,0,0,0,0,0,0,0,0,0,0,0,0,0,0,0,0,0,0,0,0,0,0,0,0,0,0,0,0,0,0,0,0,0,0,0,0,0,0,0,0,0,0,0,0,0,0,0,0,0,0,0,0,0,0,0,0,0,0,0,0,0,0,0,0,0,0,0,0,0,0,0,0,0,0,0,0,0,0,0,0,0,0,0,0,0,0,0,0,
0,0,0,0,0,0,0,0,0,0,0,0,0,0,0,0,0,0,0,0,0,0,0,0,0,0,0,0,0,0,0,0,0,0,0,0,0,0,0,0,0,0,0,0,0,0,0,0,0,0,0,0,0,0,0,0,0,0,0,0,0,0,0,0,0,0,0,0,0,0,0,0,0,0,0,0,0,0,0,0,0,0,0,0,0,0,0,0,0,0,0,0,0,0,0,0,0,0,0,0,0,0,0,0,0,0,0,0,0,0,0,0,0,0,0,0,0,0,0,0,0,0,0,0,0,0,0,0,0,0,0,0,0,0,0,0,0,0,0,0,0,0,0,0,0,0,0,0,0,0,0,0,0,0,0,0,0,0,0,0,0,0,0,0,0,0,0,0,0,0,0,0,0,0,0,0,0,0,0,0,0,0,0,0,0,0,0,0,0,0,0,0,0,0,0,0,0,0,0,0,0,0,0,0,0,0,0,0,0,0,0,0,0,0,0,0,0,0,0,0,0,0,0,0,0,0,0,0,0,0,0,0,0,0,0,0,0,0,0,0,
0,0,0,0,0,0,0,0,0,0,0,0,0,0,0,0,0,0,0,0,0,0,0,0,0,0,0,0,0,0,0,0,0,0,0,0,0,0,0,0,0,0,0,0,0,0,0,0,0,0,0,0,0,0,0,0,0,0,0,0,0,0,0,0,0,0,0,0,0,0,0,0,0,0,0,0,0,0,0,0,0,0,0,0,0,0,0,0,0,0,0,0,0,0,0,0,0,0,0,0,0,0,0,0,0,0,0,0,0,0,0,0,0,0,0,0,0,0,0,0,0,0,0,0,0,0,0,0,0,0,0,0,0,0,0,0,0,0,0,0,0,0,0,0,0,0,0,0,0,0,0,0,0,0,0,0,0,0,0,0,0,0,0,0,0,0,0,0,0,0,0,0,0,0,0,0,0,0,0,0,0,0,0,0,0,0,0,0,0,0,0,0,0,0,0,0,0,0,0,0,0,0,0,0,0,0,0,0,0,0,0,0,0,0,0,0,0,0,0,0,0,0,0,0,0,0,0,0,0,0,0,0,0,0,0,0,0,0,0,0,
0,0,0,0,0,0,0,0,0,0,0,0,0,0,0,0,0,0,0,0,0,0,0,0,0,0,0,0,0,0,0,0,0,0,0,0,0,0,0,0,0,0,0,0,0,0,0,0,0,0,0,0,0,0,0,0,0,0,0,0,0,0,0,0,0,0,0,0,0,0,0,0,0,0,0,0,0,0,0,0,0,0,0,0,0,0,0,0,0,0,0,0,0,0,0,0,0,0,0,0,0,0,0,0,0,0,0,0,0,0,0,0,0,0,0,0,0,0,0,0,0,0,0,0,0,0,0,0,0,0,0,0,0,0,0,0,0,0,0,0,0,0,0,0,0,0,0,0,0,0,0,0,0,0,0,0,0,0,0,0,0,0,0,0,0,0,0,0,0,0,0,0,0,0,0,0,0,0,0,0,0,0,0,0,0,0,0,0,0,0,0,0,0,0,0,0,0,0,0,0,0,0,0,0,0,0,0,0,0,0,0,0,0,0,0,0,0,0,0,0,0,0,0,0,0,0,0,0,0,0,0,0,0,0,0,0,0,0,0,0,
0,0,0,0,0,0,0,0,0,0,0,0,0,0,0,0,0,0,0,0,0,0,0,0,0,0,0,0,0,0,0,0,0,0,0,0,0,0,0,0,0,0,0,0,0,0,0,0,0,0,0,0,0,0,0,0,0,0,0,0,0,0,0,0,0,0,0,0,0,0,0,0,0,0,0,0,0,0,0,0,0,0,0,0,0,0,0,0,0,0,0,0,0,0,0,0,0,0,0,0,0,0,0,0,0,0,0,0,0,0,0,0,0,0,0,0,0,0,0,0,0,0,0,0,0,0,0,0,0,0,0,0,0,0,0,0,0,0,0,0,0,0,0,0,0,0,0,0,0,0,0,0,0,0,0,0,0,0,0,0,0,0,0,0,0,0,0,0,0,0,0,0,0,0,0,0,0,0,0,0,0,0,0,0,0,0,0,0,0,0,0,0,0,0,0,0,0,0,0,0,0,0,0,0,0,0,0,0,0,0,0,0,0,0,0,0,0,0,0,0,0,0,0,0,0,0,0,0,0,0,0,0,0,0,0,0,0,0,0,0,
0,0,0,0,0,0,0,0,0,0,0,0,0,0,0,0,0,0,0,0,0,0,0,0,0,0,0,0,0,0,0,0,0,0,0,0,0,0,0,0,0,0,0,0,0,0,0,0,0,0,0,0,0,0,0,0,0,0,0,0,0,0,0,0,0,0,0,0,0,0,0,0,0,0,0,0,0,0,0,0,0,0,0,0,0,0,0,0,0,0,0,0,0,0,0,0,0,0,0,0,0,0,0,0,0,0,0,0,0,0,0,0,0,0,0,0,0,0,0,0,0,0,0,0,0,0,0,0,0,0,0,0,0,0,0,0,0,0,0,0,0,0,0,0,0,0,0,0,0,0,0,0,0,0,0,0,0,0,0,0,0,0,0,0,0,0,0,0,0,0,0,0,0,0,0,0,0,0,0,0,0,0,0,0,0,0,0,0,0,0,0,0,0,0,0,0,0,0,0,0,0,0,0,0,0,0,0,0,0,0,0,0,0,0,0,0,0,0,0,0,0,0,0,0,0,0,0,0,0,0,0,0,0,0,0,0,0,0,0,0,
0,0,0,0,0,0,0,0,0,0,0,0,0,0,0,0,0,0,0,0,0,0,0,0,0,0,0,0,0,0,0,0,0,0,0,0,0,0,0,0,0,0,0,0,0,0,0,0,0,0,0,0,0,0,0,0,0,0,0,0,0,0,0,0,0,0,0,0,0,0,0,0,0,0,0,0,0,0,0,0,0,0,0,0,0,0,0,0,0,0,0,0,0,0,0,0,0,0,0,0,0,0,0,0,0,0,0,0,0,0,0,0,0,0,0,0,0,0,0,0,0,0,0,0,0,0,0,0,0,0,0,0,0,0,0,0,0,0,0,0,0,0,0,0,0,0,0,0,0,0,0,0,0,0,0,0,0,0,0,0,0,0,0,0,0,0,0,0,0,0,0,0,0,0,0,0,0,0,0,0,0,0,0,0,0,0,0,0,0,0,0,0,0,0,0,0,0,0,0,0,0,0,0,0,0,0,0,0,0,0,0,0,0,0,0,0,0,0,0,0,0,0,0,0,0,0,0,0,0,0,0,0,0,0,0,0,0,0,0,0,
0,0,0,0,0,0,0,0,0,0,0,0,0,0,0,0,0,0,0,0,0,0,0,0,0,0,0,0,0,0,0,0,0,0,0,0,0,0,0,0,0,0,0,0,0,0,0,0,0,0,0,0,0,0,0,0,0,0,0,0,0,0,0,0,0,0,0,0,0,0,0,0,0,0,0,0,0,0,0,0,0,0,0,0,0,0,0,0,0,0,0,0,0,0,0,0,0,0,0,0,0,0,0,0,0,0,0,0,0,0,0,0,0,0,0,0,0,0,0,0,0,0,0,0,0,0,0,0,0,0,0,0,0,0,0,0,0,0,0,0,0,0,0,0,0,0,0,0,0,0,0,0,0,0,0,0,0,0,0,0,0,0,0,0,0,0,0,0,0,0,0,0,0,0,0,0,0,0,0,0,0,0,0,0,0,0,0,0,0,0,0,0,0,0,0,0,0,0,0,0,0,0,0,0,0,0,0,0,0,0,0,0,0,0,0,0,0,0,0,0,0,0,0,0,0,0,0,0,0,0,0,0,0,0,0,0,0,0,0,0,
0,0,0,0,0,0,0,0,0,0,0,0,0,0,0,0,0,0,0,0,0,0,0,0,0,0,0,0,0,0,0,0,0,0,0,0,0,0,0,0,0,0,0,0,0,0,0,0,0,0,0,0,0,0,0,0,0,0,0,0,0,0,0,0,0,0,0,0,0,0,0,0,0,0,0,0,0,0,0,0,0,0,0,0,0,0,0,0,0,0,0,0,0,0,0,0,0,0,0,0,0,0,0,0,0,0,0,0,0,0,0,0,0,0,0,0,0,0,0,0,0,0,0,0,0,0,0,0,0,0,0,0,0,0,0,0,0,0,0,0,0,0,0,0,0,0,0,0,0,0,0,0,0,0,0,0,0,0,0,0,0,0,0,0,0,0,0,0,0,0,0,0,0,0,0,0,0,0,0,0,0,0,0,0,0,0,0,0,0,0,0,0,0,0,0,0,0,0,0,0,0,0,0,0,0,0,0,0,0,0,0,0,0,0,0,0,0,0,0,0,0,0,0,0,0,0,0,0,0,0,0,0,0,0,0,0,0,0,0,0,
0,0,0,0,0,0,0,0,0,0,0,0,0,0,0,0,0,0,0,0,0,0,0,0,0,0,0,0,0,0,0,0,0,0,0,0,0,0,0,0,0,0,0,0,0,0,0,0,0,0,0,0,0,0,0,0,0,0,0,0,0,0,0,0,0,0,0,0,0,0,0,0,0,0,0,0,0,0,0,0,0,0,0,0,0,0,0,0,0,0,0,0,0,0,0,0,0,0,0,0,0,0,0,0,0,0,0,0,0,0,0,0,0,0,0,0,0,0,0,0,0,0,0,0,0,0,0,0,0,0,0,0,0,0,0,0,0,0,0,0,0,0,0,0,0,0,0,0,0,0,0,0,0,0,0,0,0,0,0,0,0,0,0,0,0,0,0,0,0,0,0,0,0,0,0,0,0,0,0,0,0,0,0,0,0,0,0,0,0,0,0,0,0,0,0,0,0,0,0,0,0,0,0,0,0,0,0,0,0,0,0,0,0,0,0,0,0,0,0,0,0,0,0,0,0,0,0,0,0,0,0,0,0,0,0,0,0,0,0,0,
0,0,0,0,0,0,0,0,0,0,0,0,0,0,0,0,0,0,0,0,0,0,0,0,0,0,0,0,0,0,0,0,0,0,0,0,0,0,0,0,0,0,0,0,0,0,0,0,0,0,0,0,0,0,0,0,0,0,0,0,0,0,0,0,0,0,0,0,0,0,0,0,0,0,0,0,0,0,0,0,0,0,0,0,0,0,0,0,0,0,0,0,0,0,0,0,0,0,0,0,0,0,0,0,0,0,0,0,0,0,0,0,0,0,0,0,0,0,0,0,0,0,0,0,0,0,0,0,0,0,0,0,0,0,0,0,0,0,0,0,0,0,0,0,0,0,0,0,0,0,0,0,0,0,0,0,0,0,0,0,0,0,0,0,0,0,0,0,0,0,0,0,0,0,0,0,0,0,0,0,0,0,0,0,0,0,0,0,0,0,0,0,0,0,0,0,0,0,0,0,0,0,0,0,0,0,0,0,0,0,0,0,0,0,0,0,0,0,0,0,0,0,0,0,0,0,0,0,0,0,0,0,0,0,0,0,0,0,0,0,
0,0,0,0,0,0,0,0,0,0,0,0,0,0,0,0,0,0,0,0,0,0,0,0,0,0,0,0,0,0,0,0,0,0,0,0,0,0,0,0,0,0,0,0,0,0,0,0,0,0,0,0,2,91,91,91,91,91,91,91,91,91,91,91,91,91,91,91,91,3,0,0,0,0,0,0,0,0,0,0,0,0,0,0,0,0,0,0,0,0,0,0,0,0,0,0,0,0,0,0,0,0,0,0,0,0,0,0,0,0,0,0,0,0,0,0,0,0,0,0,0,0,0,0,0,0,0,0,0,0,0,0,0,0,0,0,0,0,0,0,0,0,0,0,0,0,0,0,0,0,0,0,0,0,0,0,0,0,0,0,0,0,0,0,0,0,0,0,0,0,0,0,0,0,0,0,0,0,0,0,0,0,0,0,0,0,0,0,0,0,0,0,0,0,0,0,0,0,0,0,0,0,0,0,0,0,0,0,0,0,0,0,0,0,0,0,0,0,0,0,0,0,0,0,0,0,0,0,0,0,0,0,0,0,0,0,0,0,0,0,
0,0,0,0,0,0,0,0,0,0,0,0,0,0,0,0,0,0,0,0,0,0,0,0,0,0,0,0,0,0,0,0,0,0,0,0,0,0,0,0,0,0,0,0,0,0,0,0,0,0,0,0,92,0,0,0,0,0,0,0,0,0,0,0,0,0,0,0,0,92,0,0,0,0,0,0,0,0,0,0,0,0,0,0,0,0,0,0,0,0,0,0,0,0,0,0,0,0,0,0,0,0,0,0,0,0,0,0,0,0,0,0,0,0,0,0,0,0,0,0,0,0,0,0,0,0,0,0,0,0,0,0,0,0,0,0,0,0,0,0,0,0,0,0,0,0,0,0,0,0,0,0,0,0,0,0,0,0,0,0,0,0,0,0,0,0,0,0,0,0,0,0,0,0,0,0,0,0,0,0,0,0,0,0,0,0,0,0,0,0,0,0,0,0,0,0,0,0,0,0,0,0,0,0,0,0,0,0,0,0,0,0,0,0,0,0,0,0,0,0,0,0,0,0,0,0,0,0,0,0,0,0,0,0,0,0,0,0,0,0,
0,0,0,0,0,0,0,0,0,0,0,0,0,0,0,0,0,0,0,0,0,0,0,0,0,0,0,0,0,0,0,0,0,0,0,0,0,0,0,0,0,0,0,0,0,0,0,0,0,0,0,0,92,0,0,0,0,0,0,0,0,0,0,0,0,0,0,0,0,92,0,0,0,0,0,0,0,0,0,0,0,0,0,0,0,0,0,0,0,0,0,0,0,0,0,0,0,0,0,0,0,0,0,0,0,0,0,0,0,0,0,0,0,0,0,0,0,0,0,0,0,0,0,0,0,0,0,0,0,0,0,0,0,0,0,0,0,0,0,0,0,0,0,0,0,0,0,0,0,0,0,0,0,0,0,0,0,0,0,0,0,0,0,0,0,0,0,0,0,0,0,0,0,0,0,0,0,0,0,0,0,0,0,0,0,0,0,0,0,0,0,0,0,0,0,0,0,0,0,0,0,0,0,0,0,0,0,0,0,0,0,0,0,0,0,0,0,0,0,0,0,0,0,0,0,0,0,0,0,0,0,0,0,0,0,0,0,0,0,0,
0,0,0,0,0,0,0,0,0,0,0,0,0,0,0,0,0,0,0,0,0,0,0,0,0,0,0,0,0,0,0,0,0,0,0,0,0,0,0,0,0,0,0,0,0,0,0,0,0,0,0,0,92,0,0,0,0,0,0,0,0,0,0,0,0,0,0,0,0,92,0,0,0,0,0,0,0,0,0,0,0,0,0,0,0,0,0,0,0,0,0,0,0,0,0,0,0,0,0,0,0,0,0,0,0,0,0,0,0,0,0,0,0,0,0,0,0,0,0,0,0,0,0,0,0,0,0,0,0,0,0,0,0,0,0,0,0,0,0,0,0,0,0,0,0,0,0,0,0,0,0,0,0,0,0,0,0,0,0,0,0,0,0,0,0,0,0,0,0,0,0,0,0,0,0,0,0,0,0,0,0,0,0,0,0,0,0,0,0,0,0,0,0,0,0,0,0,0,0,0,0,0,0,0,0,0,0,0,0,0,0,0,0,0,0,0,0,0,0,0,0,0,0,0,0,0,0,0,0,0,0,0,0,0,0,0,0,0,0,0,
0,0,0,0,0,0,0,0,0,0,0,0,0,0,0,0,0,0,0,0,0,0,0,0,0,0,0,0,0,0,0,0,0,0,0,0,0,0,0,0,0,0,0,0,0,0,0,0,0,0,0,0,92,0,0,0,0,0,0,0,0,0,0,0,0,0,0,0,0,92,0,0,0,0,0,0,0,0,0,0,0,0,0,0,0,0,0,0,0,0,0,0,0,0,0,0,0,0,0,0,0,0,0,0,0,0,0,0,0,0,0,0,0,0,0,0,0,0,0,0,0,0,0,0,0,0,0,0,0,0,0,0,0,0,0,0,0,0,0,0,0,0,0,0,0,0,0,0,0,0,0,0,0,0,0,0,0,0,0,0,0,0,0,0,0,0,0,0,0,0,0,0,0,0,0,0,0,0,0,0,0,0,0,0,0,0,0,0,0,0,0,0,0,0,0,0,0,0,0,0,0,0,0,0,0,0,0,0,0,0,0,0,0,0,0,0,0,0,0,0,0,0,0,0,0,0,0,0,0,0,0,0,0,0,0,0,0,0,0,0,
0,0,0,0,0,0,0,0,0,0,0,0,0,0,0,0,0,0,0,0,0,0,0,0,0,0,0,0,0,0,0,0,0,0,0,0,0,0,0,0,0,0,0,0,0,0,0,0,0,0,0,0,92,0,0,0,0,0,0,0,0,0,0,0,0,0,0,0,0,92,0,0,0,0,0,0,0,0,0,0,0,0,0,0,0,0,0,0,0,0,0,0,0,0,0,0,0,0,0,0,0,0,0,0,0,0,0,0,0,0,0,0,0,0,0,0,0,0,0,0,0,0,0,0,0,0,0,0,0,0,0,0,0,0,0,0,0,0,0,0,0,0,0,0,0,0,0,0,0,0,0,0,0,0,0,0,0,0,0,0,0,0,0,0,0,0,0,0,0,0,0,0,0,0,0,0,0,0,0,0,0,0,0,0,0,0,0,0,0,0,0,0,0,0,0,0,0,0,0,0,0,0,0,0,0,0,0,0,0,0,0,0,0,0,0,0,0,0,0,0,0,0,0,0,0,0,0,0,0,0,0,0,0,0,0,0,0,0,0,0,
0,0,0,0,0,0,0,0,0,0,0,0,0,0,0,0,0,0,0,0,0,0,0,0,0,0,0,0,0,0,0,0,0,0,0,0,0,0,0,0,0,0,0,0,0,0,0,0,0,0,0,0,92,0,0,0,0,0,0,0,0,0,0,0,0,0,0,0,0,92,0,0,0,0,0,0,0,0,0,0,0,0,0,0,0,0,0,0,0,0,0,0,0,0,0,0,0,0,0,0,0,0,0,0,0,0,0,0,0,0,0,0,0,0,0,0,0,0,0,0,0,0,0,0,0,0,0,0,0,0,0,0,0,0,0,0,0,0,0,0,0,0,0,0,0,0,0,0,0,0,0,0,0,0,0,0,0,0,0,0,0,0,0,0,0,0,0,0,0,0,0,0,0,0,0,0,0,0,0,0,0,0,0,0,0,0,0,0,0,0,0,0,0,0,0,0,0,0,0,0,0,0,0,0,0,0,0,0,0,0,0,0,0,0,0,0,0,0,0,0,0,0,0,0,0,0,0,0,0,0,0,0,0,0,0,0,0,0,0,0,
0,0,0,0,0,0,0,0,0,0,0,0,0,0,0,0,0,0,0,0,0,0,0,0,0,0,0,0,0,0,0,0,0,0,0,0,0,0,0,0,0,0,0,0,0,0,0,0,0,0,0,0,92,0,0,0,0,0,0,0,0,0,0,0,0,0,0,0,0,92,0,0,0,0,0,0,0,0,0,0,0,0,0,0,0,0,0,0,0,0,0,0,0,0,0,0,0,0,0,0,0,0,0,0,0,0,0,0,0,0,0,0,0,0,0,0,0,0,0,0,0,0,0,0,0,0,0,0,0,0,0,0,0,0,0,0,0,0,0,0,0,0,0,0,0,0,0,0,0,0,0,0,0,0,0,0,0,0,0,0,0,0,0,0,0,0,0,0,0,0,0,0,0,0,0,0,0,0,0,0,0,0,0,0,0,0,0,0,0,0,0,0,0,0,0,0,0,0,0,0,0,0,0,0,0,0,0,0,0,0,0,0,0,0,0,0,0,0,0,0,0,0,0,0,0,0,0,0,0,0,0,0,0,0,0,0,0,0,0,0,
0,0,0,0,0,0,0,0,0,0,0,0,0,0,0,0,0,0,0,0,0,0,0,0,0,0,0,0,0,0,0,0,0,0,0,0,0,0,0,0,0,0,0,0,0,0,0,0,0,0,0,0,92,0,0,0,0,0,0,0,0,0,0,0,0,0,0,0,0,92,0,0,0,0,0,0,0,0,0,0,0,0,0,0,0,0,0,0,0,0,0,0,0,0,0,0,0,0,0,0,0,0,0,0,0,0,0,0,0,0,0,0,0,0,0,0,0,0,0,0,0,0,0,0,0,0,0,0,0,0,0,0,0,0,0,0,0,0,0,0,0,0,0,0,0,0,0,0,0,0,0,0,0,0,0,0,0,0,0,0,0,0,0,0,0,0,0,0,0,0,0,0,0,0,0,0,0,0,0,0,0,0,0,0,0,0,0,0,0,0,0,0,0,0,0,0,0,0,0,0,0,0,0,0,0,0,0,0,0,0,0,0,0,0,0,0,0,0,0,0,0,0,0,0,0,0,0,0,0,0,0,0,0,0,0,0,0,0,0,0,
0,0,0,0,0,0,0,0,0,0,0,0,0,0,0,0,0,0,0,0,0,0,0,0,0,0,0,0,0,0,0,0,0,0,0,0,0,0,0,0,0,0,0,0,0,0,0,0,0,0,0,0,92,0,0,0,0,0,0,0,0,0,0,0,0,0,0,0,0,92,0,0,0,0,0,0,0,0,0,0,0,0,0,0,0,0,0,0,0,0,0,0,0,0,0,0,0,0,0,0,0,0,0,0,0,0,0,0,0,0,0,0,0,0,0,0,0,0,0,0,0,0,0,0,0,0,0,0,0,0,0,0,0,0,0,0,0,0,0,0,0,0,0,0,0,0,0,0,0,0,0,0,0,0,0,0,0,0,0,0,0,0,0,0,0,0,0,0,0,0,0,0,0,0,0,0,0,0,0,0,0,0,0,0,0,0,0,0,0,0,0,0,0,0,0,0,0,0,0,0,0,0,0,0,0,0,0,0,0,0,0,0,0,0,0,0,0,0,0,0,0,0,0,0,0,0,0,0,0,0,0,0,0,0,0,0,0,0,0,0,
0,0,0,0,0,0,0,0,0,0,0,0,0,0,0,0,0,0,0,0,0,0,0,0,0,0,0,0,0,0,0,0,0,0,0,0,0,0,0,0,0,0,0,0,0,0,0,0,0,0,0,2,48,0,0,0,0,0,0,0,0,0,0,0,0,0,0,0,0,92,0,0,0,0,0,0,0,0,0,0,0,0,0,0,0,0,0,0,0,0,0,0,0,0,0,0,0,0,0,0,0,0,0,0,0,0,0,0,0,0,0,0,0,0,0,0,0,0,0,0,0,0,0,0,0,0,0,0,0,0,0,0,0,0,0,0,0,0,0,0,0,0,0,0,0,0,0,0,0,0,0,0,0,0,0,0,0,0,0,0,0,0,0,0,0,0,0,0,0,0,0,0,0,0,0,0,0,0,0,0,0,0,0,0,0,0,0,0,0,0,0,0,0,0,0,0,0,0,0,0,0,0,0,0,0,0,0,0,0,0,0,0,0,0,0,0,0,0,0,0,0,0,0,0,0,0,0,0,0,0,0,0,0,0,0,0,0,0,0,0,
0,0,0,0,0,0,0,0,0,0,0,0,0,0,0,0,0,0,0,0,0,0,0,0,0,0,0,0,0,0,0,0,0,0,0,0,0,0,0,0,0,0,0,0,0,0,0,0,0,0,0,92,0,0,0,0,0,0,0,0,0,0,0,0,0,0,0,0,0,92,0,0,0,0,0,0,0,0,0,0,0,0,0,0,0,0,0,0,0,0,0,0,0,0,0,0,0,0,0,0,0,0,0,0,0,0,0,0,0,0,0,0,0,0,0,0,0,0,0,0,0,0,0,0,0,0,0,0,0,0,0,0,0,0,0,0,0,0,0,0,0,0,0,0,0,0,0,0,0,0,0,0,0,0,0,0,0,0,0,0,0,0,0,0,0,0,0,0,0,0,0,0,0,0,0,0,0,0,0,0,0,0,0,0,0,0,0,0,0,0,0,0,0,0,0,0,0,0,0,0,0,0,0,0,0,0,0,0,0,0,0,0,0,0,0,0,0,0,0,0,0,0,0,0,0,0,0,0,0,0,0,0,0,0,0,0,0,0,0,0,
0,0,0,0,0,0,0,0,0,0,0,0,0,0,0,0,0,0,0,0,0,0,0,0,0,0,0,0,0,0,0,0,0,0,0,0,0,0,0,0,0,0,0,0,0,0,0,0,0,0,2,48,0,0,0,0,0,0,0,0,0,0,0,0,0,0,0,0,0,47,3,0,0,0,0,0,0,0,0,0,0,0,0,0,0,0,0,0,0,0,0,0,0,0,0,0,0,0,0,0,0,0,0,0,0,0,0,0,0,0,0,0,0,0,0,0,0,0,0,0,0,0,0,0,0,0,0,0,0,0,0,0,0,0,0,0,0,0,0,0,0,0,0,0,0,0,0,0,0,0,0,0,0,0,0,0,0,0,0,0,0,0,0,0,0,0,0,0,0,0,0,0,0,0,0,0,0,0,0,0,0,0,0,0,0,0,0,0,0,0,0,0,0,0,0,0,0,0,0,0,0,0,0,0,0,0,0,0,0,0,0,0,0,0,0,0,0,0,0,0,0,0,0,0,0,0,0,0,0,0,0,0,0,0,0,0,0,0,0,0,
0,0,0,0,0,0,0,0,0,0,0,0,0,0,0,0,0,0,0,0,0,0,0,0,0,0,0,0,0,0,0,0,0,0,0,0,0,0,0,0,0,0,0,0,0,0,0,0,0,0,92,0,0,0,0,0,0,0,0,0,0,0,0,0,0,0,0,0,0,0,47,3,0,0,0,0,0,0,0,0,0,0,0,0,0,0,0,0,0,0,0,0,0,0,0,0,0,0,0,0,0,0,0,0,0,0,0,0,0,0,0,0,0,0,0,0,0,0,0,0,0,0,0,0,0,0,0,0,0,0,0,0,0,0,0,0,0,0,0,0,0,0,0,0,0,0,0,0,0,0,0,0,0,0,0,0,0,0,0,0,0,0,0,0,0,0,0,0,0,0,0,0,0,0,0,0,0,0,0,0,0,0,0,0,0,0,0,0,0,0,0,0,0,0,0,0,0,0,0,0,0,0,0,0,0,0,0,0,0,0,0,0,0,0,0,0,0,0,0,0,0,0,0,0,0,0,0,0,0,0,0,0,0,0,0,0,0,0,0,0,
0,0,0,0,0,0,0,0,0,0,0,0,0,0,0,0,0,0,0,0,0,0,0,0,0,0,0,0,0,0,0,0,0,0,0,0,0,0,0,0,0,0,0,0,0,0,0,0,2,91,48,0,0,0,0,0,0,0,0,0,0,0,0,0,0,0,0,0,0,0,0,47,91,3,0,0,0,0,0,0,0,0,0,0,0,0,0,0,0,0,0,0,0,0,0,0,0,0,0,0,0,0,0,0,0,0,0,0,0,0,0,0,0,0,0,0,0,0,0,0,0,0,0,0,0,0,0,0,0,0,0,0,0,0,0,0,0,0,0,0,0,0,0,0,0,0,0,0,0,0,0,0,0,0,0,0,0,0,0,0,0,0,0,0,0,0,0,0,0,0,0,0,0,0,0,0,0,0,0,0,0,0,0,0,0,0,0,0,0,0,0,0,0,0,0,0,0,0,0,0,0,0,0,0,0,0,0,0,0,0,0,0,0,0,0,0,0,0,0,0,0,0,0,0,0,0,0,0,0,0,0,0,0,0,0,0,0,0,0,0,
0,0,0,0,0,0,0,0,0,0,0,0,0,0,0,0,0,0,0,0,0,0,0,0,0,0,0,0,0,0,0,0,0,0,0,0,0,0,0,0,0,0,0,0,0,0,0,0,92,0,0,0,0,0,0,0,0,0,0,0,0,0,0,0,0,0,0,0,0,0,0,0,0,92,0,0,0,0,0,0,0,0,0,0,0,0,0,0,0,0,0,0,0,0,0,0,0,0,0,0,0,0,0,0,0,0,0,0,0,0,0,0,0,0,0,0,0,0,0,0,0,0,0,0,0,0,0,0,0,0,0,0,0,0,0,0,0,0,0,0,0,0,0,0,0,0,0,0,0,0,0,0,0,0,0,0,0,0,0,0,0,0,0,0,0,0,0,0,0,0,0,0,0,0,0,0,0,0,0,0,0,0,0,0,0,0,0,0,0,0,0,0,0,0,0,0,0,0,0,0,0,0,0,0,0,0,0,0,0,0,0,0,0,0,0,0,0,0,0,0,0,0,0,0,0,0,0,0,0,0,0,0,0,0,0,0,0,0,0,0,
0,0,0,0,0,0,0,0,0,0,0,0,0,0,0,0,0,0,0,0,0,0,0,0,0,0,0,0,0,0,0,0,0,0,0,0,0,0,0,0,0,0,0,0,0,0,2,91,48,0,0,0,0,0,0,0,0,0,0,0,0,0,0,0,0,0,0,0,0,0,0,0,0,47,91,3,0,0,0,0,0,0,0,0,0,0,0,0,0,0,0,0,0,0,0,0,0,0,0,0,0,0,0,0,0,0,0,0,0,0,0,0,0,0,0,0,0,0,0,0,0,0,0,0,0,0,0,0,0,0,0,0,0,0,0,0,0,0,0,0,0,0,0,0,0,0,0,0,0,0,0,0,0,0,0,0,0,0,0,0,0,0,0,0,0,0,0,0,0,0,0,0,0,0,0,0,0,0,0,0,0,0,0,0,0,0,0,0,0,0,0,0,0,0,0,0,0,0,0,0,0,0,0,0,0,0,0,0,0,0,0,0,0,0,0,0,0,0,0,0,0,0,0,0,0,0,0,0,0,0,0,0,0,0,0,0,0,0,0,0,
0,0,0,0,0,0,0,0,0,0,0,0,0,0,0,0,0,0,0,0,0,0,0,0,0,0,0,0,0,0,0,0,0,0,0,0,0,0,0,0,0,0,0,0,2,91,48,0,0,0,0,0,0,0,0,0,0,0,0,0,0,0,0,0,0,0,0,0,0,0,0,0,0,0,0,47,3,0,0,0,0,0,0,0,0,0,0,0,0,0,0,0,0,0,0,0,0,0,0,0,0,0,0,0,0,0,0,0,0,0,0,0,0,0,0,0,0,0,0,0,0,0,0,0,0,0,0,0,0,0,0,0,0,0,0,0,0,0,0,0,0,0,0,0,0,0,0,0,0,0,0,0,0,0,0,0,0,0,0,0,0,0,0,0,0,0,0,0,0,0,0,0,0,0,0,0,0,0,0,0,0,0,0,0,0,0,0,0,0,0,0,0,0,0,0,0,0,0,0,0,0,0,0,0,0,0,0,0,0,0,0,0,0,0,0,0,0,0,0,0,0,0,0,0,0,0,0,0,0,0,0,0,0,0,0,0,0,0,0,0,
0,0,0,0,0,0,0,0,0,0,0,0,0,0,0,0,0,0,0,0,0,0,0,0,0,0,0,0,0,0,0,0,0,0,0,0,0,0,0,0,0,0,0,0,92,0,0,0,0,0,0,0,0,0,0,0,0,0,0,0,0,0,0,0,0,0,0,0,0,0,0,0,0,0,0,0,92,0,0,0,0,0,0,0,0,0,0,0,0,0,0,0,0,0,0,0,0,0,0,0,0,0,0,0,0,0,0,0,0,0,0,0,0,0,0,0,0,0,0,0,0,0,0,0,0,0,0,0,0,0,0,0,0,0,0,0,0,0,0,0,0,0,0,0,0,0,0,0,0,0,0,0,0,0,0,0,0,0,0,0,0,0,0,0,0,0,0,0,0,0,0,0,0,0,0,0,0,0,0,0,0,0,0,0,0,0,0,0,0,0,0,0,0,0,0,0,0,0,0,0,0,0,0,0,0,0,0,0,0,0,0,0,0,0,0,0,0,0,0,0,0,0,0,0,0,0,0,0,0,0,0,0,0,0,0,0,0,0,0,0,
0,0,0,0,0,0,0,0,0,0,0,0,0,0,0,0,0,0,0,0,0,0,0,0,0,0,0,0,0,0,0,0,0,0,0,0,0,0,0,0,0,0,0,0,92,0,0,0,0,0,0,0,0,0,0,0,0,0,0,0,0,0,0,0,0,0,0,0,0,0,0,0,0,0,0,2,48,0,0,0,0,0,0,0,0,0,0,0,0,0,0,0,0,0,0,0,0,0,0,0,0,0,0,0,0,0,0,0,0,0,0,0,0,0,0,0,0,0,0,0,0,0,0,0,0,0,0,0,0,0,0,0,0,0,0,0,0,0,0,0,0,0,0,0,0,0,0,0,0,0,0,0,0,0,0,0,0,0,0,0,0,0,0,0,0,0,0,0,0,0,0,0,0,0,0,0,0,0,0,0,0,0,0,0,0,0,0,0,0,0,0,0,0,0,0,0,0,0,0,0,0,0,0,0,0,0,0,0,0,0,0,0,0,0,0,0,0,0,0,0,0,0,0,0,0,0,0,0,0,0,0,0,0,0,0,0,0,0,0,0,
0,0,0,0,0,0,0,0,0,0,0,0,0,0,0,0,0,0,0,0,0,0,0,0,0,0,0,0,0,0,0,0,0,0,0,0,0,0,0,0,0,0,0,0,47,91,91,91,3,0,0,0,0,0,0,0,0,0,0,0,0,0,0,0,0,0,0,0,0,0,0,0,0,0,0,92,0,0,0,0,0,0,0,0,0,0,0,0,0,0,0,0,0,0,0,0,0,0,0,0,0,0,0,0,0,0,0,0,0,0,0,0,0,0,0,0,0,0,0,0,0,0,0,0,0,0,0,0,0,0,0,0,0,0,0,0,0,0,0,0,0,0,0,0,0,0,0,0,0,0,0,0,0,0,0,0,0,0,0,0,0,0,0,0,0,0,0,0,0,0,0,0,0,0,0,0,0,0,0,0,0,0,0,0,0,0,0,0,0,0,0,0,0,0,0,0,0,0,0,0,0,0,0,0,0,0,0,0,0,0,0,0,0,0,0,0,0,0,0,0,0,0,0,0,0,0,0,0,0,0,0,0,0,0,0,0,0,0,0,0,
0,0,0,0,0,0,0,0,0,0,0,0,0,0,0,0,0,0,0,0,0,0,0,0,0,0,0,0,0,0,0,0,0,0,0,0,0,0,0,0,0,0,0,0,0,0,0,0,47,91,3,0,0,0,0,0,0,0,0,0,0,0,0,0,0,0,0,0,0,0,0,0,2,91,91,48,0,0,0,0,0,0,0,0,0,0,0,0,0,0,0,0,0,0,0,0,0,0,0,0,0,0,0,0,0,0,0,0,0,0,0,0,0,0,0,0,0,0,0,0,0,0,0,0,0,0,0,0,0,0,0,0,0,0,0,0,0,0,0,0,0,0,0,0,0,0,0,0,0,0,0,0,0,0,0,0,0,0,0,0,0,0,0,0,0,0,0,0,0,0,0,0,0,0,0,0,0,0,0,0,0,0,0,0,0,0,0,0,0,0,0,0,0,0,0,0,0,0,0,0,0,0,0,0,0,0,0,0,0,0,0,0,0,0,0,0,0,0,0,0,0,0,0,0,0,0,0,0,0,0,0,0,0,0,0,0,0,0,0,0,
0,0,0,0,0,0,0,0,0,0,0,0,0,0,0,0,0,0,0,0,0,0,0,0,0,0,0,0,0,0,0,0,0,0,0,0,0,0,0,0,0,0,0,0,0,0,0,0,0,0,92,0,0,0,0,0,0,0,0,0,0,0,0,0,0,0,0,0,0,0,0,0,92,0,0,0,0,0,0,0,0,0,0,0,0,0,0,0,0,0,0,0,0,0,0,0,0,0,0,0,0,0,0,0,0,0,0,0,0,0,0,0,0,0,0,0,0,0,0,0,0,0,0,0,0,0,0,0,0,0,0,0,0,0,0,0,0,0,0,0,0,0,0,0,0,0,0,0,0,0,0,0,0,0,0,0,0,0,0,0,0,0,0,0,0,0,0,0,0,0,0,0,0,0,0,0,0,0,0,0,0,0,0,0,0,0,0,0,0,0,0,0,0,0,0,0,0,0,0,0,0,0,0,0,0,0,0,0,0,0,0,0,0,0,0,0,0,0,0,0,0,0,0,0,0,0,0,0,0,0,0,0,0,0,0,0,0,0,0,0,
0,0,0,0,0,0,0,0,0,0,0,0,0,0,0,0,0,0,0,0,0,0,0,0,0,0,0,0,0,0,0,0,0,0,0,0,0,0,0,0,0,0,0,0,0,0,0,0,0,0,47,91,91,91,91,91,91,91,91,51,0,0,0,49,91,91,91,91,91,91,91,91,48,0,0,0,0,0,0,0,0,0,0,0,0,0,0,0,0,0,0,0,0,0,0,0,0,0,0,0,0,0,0,0,0,0,0,0,0,0,0,0,0,0,0,0,0,0,0,0,0,0,0,0,0,0,0,0,0,0,0,0,0,0,0,0,0,0,0,0,0,0,0,0,0,0,0,0,0,0,0,0,0,0,0,0,0,0,0,0,0,0,0,0,0,0,0,0,0,0,0,0,0,0,0,0,0,0,0,0,0,0,0,0,0,0,0,0,0,0,0,0,0,0,0,0,0,0,0,0,0,0,0,0,0,0,0,0,0,0,0,0,0,0,0,0,0,0,0,0,0,0,0,0,0,0,0,0,0,0,0,0,0,0,0,0,0,0,0,0,
0,0,0,0,0,0,0,0,0,0,0,0,0,0,0,0,0,0,0,0,0,0,0,0,0,0,0,0,0,0,0,0,0,0,0,0,0,0,0,0,0,0,0,0,0,0,0,0,0,0,0,0,0,0,0,0,0,0,0,0,0,0,0,0,0,0,0,0,0,0,0,0,0,0,0,0,0,0,0,0,0,0,0,0,0,0,0,0,0,0,0,0,0,0,0,0,0,0,0,0,0,0,0,0,0,0,0,0,0,0,0,0,0,0,0,0,0,0,0,0,0,0,0,0,0,0,0,0,0,0,0,0,0,0,0,0,0,0,0,0,0,0,0,0,0,0,0,0,0,0,0,0,0,0,0,0,0,0,0,0,0,0,0,0,0,0,0,0,0,0,0,0,0,0,0,0,0,0,0,0,0,0,0,0,0,0,0,0,0,0,0,0,0,0,0,0,0,0,0,0,0,0,0,0,0,0,0,0,0,0,0,0,0,0,0,0,0,0,0,0,0,0,0,0,0,0,0,0,0,0,0,0,0,0,0,0,0,0,0,0,
0,0,0,0,0,0,0,0,0,0,0,0,0,0,0,0,0,0,0,0,0,0,0,0,0,0,0,0,0,0,0,0,0,0,0,0,0,0,0,0,0,0,0,0,0,0,0,0,0,0,0,0,0,0,0,0,0,0,0,0,0,0,0,0,0,0,0,0,0,0,0,0,0,0,0,0,0,0,0,0,0,0,0,0,0,0,0,0,0,0,0,0,0,0,0,0,0,0,0,0,0,0,0,0,0,0,0,0,0,0,0,0,0,0,0,0,0,0,0,0,0,0,0,0,0,0,0,0,0,0,0,0,0,0,0,0,0,0,0,0,0,0,0,0,0,0,0,0,0,0,0,0,0,0,0,0,0,0,0,0,0,0,0,0,0,0,0,0,0,0,0,0,0,0,0,0,0,0,0,0,0,0,0,0,0,0,0,0,0,0,0,0,0,0,0,0,0,0,0,0,0,0,0,0,0,0,0,0,0,0,0,0,0,0,0,0,0,0,0,0,0,0,0,0,0,0,0,0,0,0,0,0,0,0,0,0,0,0,0,0,
0,0,0,0,0,0,0,0,0,0,0,0,0,0,0,0,0,0,0,0,0,0,0,0,0,0,0,0,0,0,0,0,0,0,0,0,0,0,0,0,0,0,0,0,0,0,0,0,0,0,0,0,0,0,0,0,0,0,0,0,0,0,0,0,0,0,0,0,0,0,0,0,0,0,0,0,0,0,0,0,0,0,0,0,0,0,0,0,0,0,0,0,0,0,0,0,0,0,0,0,0,0,0,0,0,0,0,0,0,0,0,0,0,0,0,0,0,0,0,0,0,0,0,0,0,0,0,0,0,0,0,0,0,0,0,0,0,0,0,0,0,0,0,0,0,0,0,0,0,0,0,0,0,0,0,0,0,0,0,0,0,0,0,0,0,0,0,0,0,0,0,0,0,0,0,0,0,0,0,0,0,0,0,0,0,0,0,0,0,0,0,0,0,0,0,0,0,0,0,0,0,0,0,0,0,0,0,0,0,0,0,0,0,0,0,0,0,0,0,0,0,0,0,0,0,0,0,0,0,0,0,0,0,0,0,0,0,0,0,0,
0,0,0,0,0,0,0,0,0,0,0,0,0,0,0,0,0,0,0,0,0,0,0,0,0,0,0,0,0,0,0,0,0,0,0,0,0,0,0,0,0,0,0,0,0,0,0,0,0,0,0,0,0,0,0,0,0,0,0,0,0,0,0,0,0,0,0,0,0,0,0,0,0,0,0,0,0,0,0,0,0,0,0,0,0,0,0,0,0,0,0,0,0,0,0,0,0,0,0,0,0,0,0,0,0,0,0,0,0,0,0,0,0,0,0,0,0,0,0,0,0,0,0,0,0,0,0,0,0,0,0,0,0,0,0,0,0,0,0,0,0,0,0,0,0,0,0,0,0,0,0,0,0,0,0,0,0,0,0,0,0,0,0,0,0,0,0,0,0,0,0,0,0,0,0,0,0,0,0,0,0,0,0,0,0,0,0,0,0,0,0,0,0,0,0,0,0,0,0,0,0,0,0,0,0,0,0,0,0,0,0,0,0,0,0,0,0,0,0,0,0,0,0,0,0,0,0,0,0,0,0,0,0,0,0,0,0,0,0,0,
0,0,0,0,0,0,0,0,0,0,0,0,0,0,0,0,0,0,0,0,0,0,0,0,0,0,0,0,0,0,0,0,0,0,0,0,0,0,0,0,0,0,0,0,0,0,0,0,0,0,0,0,0,0,0,0,0,0,0,0,0,0,0,0,0,0,0,0,0,0,0,0,0,0,0,0,0,0,0,0,0,0,0,0,0,0,0,0,0,0,0,0,0,0,0,0,0,0,0,0,0,0,0,0,0,0,0,0,0,0,0,0,0,0,0,0,0,0,0,0,0,0,0,0,0,0,0,0,0,0,0,0,0,0,0,0,0,0,0,0,0,0,0,0,0,0,0,0,0,0,0,0,0,0,0,0,0,0,0,0,0,0,0,0,0,0,0,0,0,0,0,0,0,0,0,0,0,0,0,0,0,0,0,0,0,0,0,0,0,0,0,0,0,0,0,0,0,0,0,0,0,0,0,0,0,0,0,0,0,0,0,0,0,0,0,0,0,0,0,0,0,0,0,0,0,0,0,0,0,0,0,0,0,0,0,0,0,0,0,0,
0,0,0,0,0,0,0,0,0,0,0,0,0,0,0,0,0,0,0,0,0,0,0,0,0,0,0,0,0,0,0,0,0,0,0,0,0,0,0,0,0,0,0,0,0,0,0,0,0,0,0,0,0,0,0,0,0,0,0,0,0,0,0,0,0,0,0,0,0,0,0,0,0,0,0,0,0,0,0,0,0,0,0,0,0,0,0,0,0,0,0,0,0,0,0,0,0,0,0,0,0,0,0,0,0,0,0,0,0,0,0,0,0,0,0,0,0,0,0,0,0,0,0,0,0,0,0,0,0,0,0,0,0,0,0,0,0,0,0,0,0,0,0,0,0,0,0,0,0,0,0,0,0,0,0,0,0,0,0,0,0,0,0,0,0,0,0,0,0,0,0,0,0,0,0,0,0,0,0,0,0,0,0,0,0,0,0,0,0,0,0,0,0,0,0,0,0,0,0,0,0,0,0,0,0,0,0,0,0,0,0,0,0,0,0,0,0,0,0,0,0,0,0,0,0,0,0,0,0,0,0,0,0,0,0,0,0,0,0,0,
0,0,0,0,0,0,0,0,0,0,0,0,0,0,0,0,0,0,0,0,0,0,0,0,0,0,0,0,0,0,0,0,0,0,0,0,0,0,0,0,0,0,0,0,0,0,0,0,0,0,0,0,0,0,0,0,0,0,0,0,0,0,0,0,0,0,0,0,0,0,0,0,0,0,0,0,0,0,0,0,0,0,0,0,0,0,0,0,0,0,0,0,0,0,0,0,0,0,0,0,0,0,0,0,0,0,0,0,0,0,0,0,0,0,0,0,0,0,0,0,0,0,0,0,0,0,0,0,0,0,0,0,0,0,0,0,0,0,0,0,0,0,0,0,0,0,0,0,0,0,0,0,0,0,0,0,0,0,0,0,0,0,0,0,0,0,0,0,0,0,0,0,0,0,0,0,0,0,0,0,0,0,0,0,0,0,0,0,0,0,0,0,0,0,0,0,0,0,0,0,0,0,0,0,0,0,0,0,0,0,0,0,0,0,0,0,0,0,0,0,0,0,0,0,0,0,0,0,0,0,0,0,0,0,0,0,0,0,0,0,
0,0,0,0,0,0,0,0,0,0,0,0,0,0,0,0,0,0,0,0,0,0,0,0,0,0,0,0,0,0,0,0,0,0,0,0,0,0,0,0,0,0,0,0,0,0,0,0,0,0,0,0,0,0,0,0,0,0,0,0,0,0,0,0,0,0,0,0,0,0,0,0,0,0,0,0,0,0,0,0,0,0,0,0,0,0,0,0,0,0,0,0,0,0,0,0,0,0,0,0,0,0,0,0,0,0,0,0,0,0,0,0,0,0,0,0,0,0,0,0,0,0,0,0,0,0,0,0,0,0,0,0,0,0,0,0,0,0,0,0,0,0,0,0,0,0,0,0,0,0,0,0,0,0,0,0,0,0,0,0,0,0,0,0,0,0,0,0,0,0,0,0,0,0,0,0,0,0,0,0,0,0,0,0,0,0,0,0,0,0,0,0,0,0,0,0,0,0,0,0,0,0,0,0,0,0,0,0,0,0,0,0,0,0,0,0,0,0,0,0,0,0,0,0,0,0,0,0,0,0,0,0,0,0,0,0,0,0,0,0,
0,0,0,0,0,0,0,0,0,0,0,0,0,0,0,0,0,0,0,0,0,0,0,0,0,0,0,0,0,0,0,0,0,0,0,0,0,0,0,0,0,0,0,0,0,0,0,0,0,0,0,0,0,0,0,0,0,0,0,0,0,0,0,0,0,0,0,0,0,0,0,0,0,0,0,0,0,0,0,0,0,0,0,0,0,0,0,0,0,0,0,0,0,0,0,0,0,0,0,0,0,0,0,0,0,0,0,0,0,0,0,0,0,0,0,0,0,0,0,0,0,0,0,0,0,0,0,0,0,0,0,0,0,0,0,0,0,0,0,0,0,0,0,0,0,0,0,0,0,0,0,0,0,0,0,0,0,0,0,0,0,0,0,0,0,0,0,0,0,0,0,0,0,0,0,0,0,0,0,0,0,0,0,0,0,0,0,0,0,0,0,0,0,0,0,0,0,0,0,0,0,0,0,0,0,0,0,0,0,0,0,0,0,0,0,0,0,0,0,0,0,0,0,0,0,0,0,0,0,0,0,0,0,0,0,0,0,0,0,0,
0,0,0,0,0,0,0,0,0,0,0,0,0,0,0,0,0,0,0,0,0,0,0,0,0,0,0,0,0,0,0,0,0,0,0,0,0,0,0,0,0,0,0,0,0,0,0,0,0,0,0,0,0,0,0,0,0,0,0,0,0,0,0,0,0,0,0,0,0,0,0,0,0,0,0,0,0,0,0,0,0,0,0,0,0,0,0,0,0,0,0,0,0,0,0,0,0,0,0,0,0,0,0,0,0,0,0,0,0,0,0,0,0,0,0,0,0,0,0,0,0,0,0,0,0,0,0,0,0,0,0,0,0,0,0,0,0,0,0,0,0,0,0,0,0,0,0,0,0,0,0,0,0,0,0,0,0,0,0,0,0,0,0,0,0,0,0,0,0,0,0,0,0,0,0,0,0,0,0,0,0,0,0,0,0,0,0,0,0,0,0,0,0,0,0,0,0,0,0,0,0,0,0,0,0,0,0,0,0,0,0,0,0,0,0,0,0,0,0,0,0,0,0,0,0,0,0,0,0,0,0,0,0,0,0,0,0,0,0,0,
0,0,0,0,0,0,0,0,0,0,0,0,0,0,0,0,0,0,0,0,0,0,0,0,0,0,0,0,0,0,0,0,0,0,0,0,0,0,0,0,0,0,0,0,0,0,0,0,0,0,0,0,0,0,0,0,0,0,0,0,0,0,0,0,0,0,0,0,0,0,0,0,0,0,0,0,0,0,0,0,0,0,0,0,0,0,0,0,0,0,0,0,0,0,0,0,0,0,0,0,0,0,0,0,0,0,0,0,0,0,0,0,0,0,0,0,0,0,0,0,0,0,0,0,0,0,0,0,0,0,0,0,0,0,0,0,0,0,0,0,0,0,0,0,0,0,0,0,0,0,0,0,0,0,0,0,0,0,0,0,0,0,0,0,0,0,0,0,0,0,0,0,0,0,0,0,0,0,0,0,0,0,0,0,0,0,0,0,0,0,0,0,0,0,0,0,0,0,0,0,0,0,0,0,0,0,0,0,0,0,0,0,0,0,0,0,0,0,0,0,0,0,0,0,0,0,0,0,0,0,0,0,0,0,0,0,0,0,0,0,
0,0,0,0,0,0,0,0,0,0,0,0,0,0,0,0,0,0,0,0,0,0,0,0,0,0,0,0,0,0,0,0,0,0,0,0,0,0,0,0,0,0,0,0,0,0,0,0,0,0,0,0,0,0,0,0,0,0,0,0,0,0,0,0,0,0,0,0,0,0,0,0,0,0,0,0,0,0,0,0,0,0,0,0,0,0,0,0,0,0,0,0,0,0,0,0,0,0,0,0,0,0,0,0,0,0,0,0,0,0,0,0,0,0,0,0,0,0,0,0,0,0,0,0,0,0,0,0,0,0,0,0,0,0,0,0,0,0,0,0,0,0,0,0,0,0,0,0,0,0,0,0,0,0,0,0,0,0,0,0,0,0,0,0,0,0,0,0,0,0,0,0,0,0,0,0,0,0,0,0,0,0,0,0,0,0,0,0,0,0,0,0,0,0,0,0,0,0,0,0,0,0,0,0,0,0,0,0,0,0,0,0,0,0,0,0,0,0,0,0,0,0,0,0,0,0,0,0,0,0,0,0,0,0,0,0,0,0,0,0,
0,0,0,0,0,0,0,0,0,0,0,0,0,0,0,0,0,0,0,0,0,0,0,0,0,0,0,0,0,0,0,0,0,0,0,0,0,0,0,0,0,0,0,0,0,0,0,0,0,0,0,0,0,0,0,0,0,0,0,0,0,0,0,0,0,0,0,0,0,0,0,0,0,0,0,0,0,0,0,0,0,0,0,0,0,0,0,0,0,0,0,0,0,0,0,0,0,0,0,0,0,0,0,0,0,0,0,0,0,0,0,0,0,0,0,0,0,0,0,0,0,0,0,0,0,0,0,0,0,0,0,0,0,0,0,0,0,0,0,0,0,0,0,0,0,0,0,0,0,0,0,0,0,0,0,0,0,0,0,0,0,0,0,0,0,0,0,0,0,0,0,0,0,0,0,0,0,0,0,0,0,0,0,0,0,0,0,0,0,0,0,0,0,0,0,0,0,0,0,0,0,0,0,0,0,0,0,0,0,0,0,0,0,0,0,0,0,0,0,0,0,0,0,0,0,0,0,0,0,0,0,0,0,0,0,0,0,0,0,0,
0,0,0,0,0,0,0,0,0,0,0,0,0,0,0,0,0,0,0,0,0,0,0,0,0,0,0,0,0,0,0,0,0,0,0,0,0,0,0,0,0,0,0,0,0,0,0,0,0,0,0,0,0,0,0,0,0,0,0,0,0,0,0,0,0,0,0,0,0,0,0,0,0,0,0,0,0,0,0,0,0,0,0,0,0,0,0,0,0,0,0,0,0,0,0,0,0,0,0,0,0,0,0,0,0,0,0,0,0,0,0,0,0,0,0,0,0,0,0,0,0,0,0,0,0,0,0,0,0,0,0,0,0,0,0,0,0,0,0,0,0,0,0,0,0,0,0,0,0,0,0,0,0,0,0,0,0,0,0,0,0,0,0,0,0,0,0,0,0,0,0,0,0,0,0,0,0,0,0,0,0,0,0,0,0,0,0,0,0,0,0,0,0,0,0,0,0,0,0,0,0,0,0,0,0,0,0,0,0,0,0,0,0,0,0,0,0,0,0,0,0,0,0,0,0,0,0,0,0,0,0,0,0,0,0,0,0,0,0,0,
0,0,0,0,0,0,0,0,0,0,0,0,0,0,0,0,0,0,0,0,0,0,0,0,0,0,0,0,0,0,0,0,0,0,0,0,0,0,0,0,0,0,0,0,0,0,0,0,0,0,0,0,0,0,0,0,0,0,0,0,0,0,0,0,0,0,0,0,0,0,0,0,0,0,0,0,0,0,0,0,0,0,0,0,0,0,0,0,0,0,0,0,0,0,0,0,0,0,0,0,0,0,0,0,0,0,0,0,0,0,0,0,0,0,0,0,0,0,0,0,0,0,0,0,0,0,0,0,0,0,0,0,0,0,0,0,0,0,0,0,0,0,0,0,0,0,0,0,0,0,0,0,0,0,0,0,0,0,0,0,0,0,0,0,0,0,0,0,0,0,0,0,0,0,0,0,0,0,0,0,0,0,0,0,0,0,0,0,0,0,0,0,0,0,0,0,0,0,0,0,0,0,0,0,0,0,0,0,0,0,0,0,0,0,0,0,0,0,0,0,0,0,0,0,0,0,0,0,0,0,0,0,0,0,0,0,0,0,0,0,
0,0,0,0,0,0,0,0,0,0,0,0,0,0,0,0,0,0,0,0,0,0,0,0,0,0,0,0,0,0,0,0,0,0,0,0,0,0,0,0,0,0,0,0,0,0,0,0,0,0,0,0,0,0,0,0,0,0,0,0,0,0,0,0,0,0,0,0,0,0,0,0,0,0,0,0,0,0,0,0,0,0,0,0,0,0,0,0,0,0,0,0,0,0,0,0,0,0,0,0,0,0,0,0,0,0,0,0,0,0,0,0,0,0,0,0,0,0,0,0,0,0,0,0,0,0,0,0,0,0,0,0,0,0,0,0,0,0,0,0,0,0,0,0,0,0,0,0,0,0,0,0,0,0,0,0,0,0,0,0,0,0,0,0,0,0,0,0,0,0,0,0,0,0,0,0,0,0,0,0,0,0,0,0,0,0,0,0,0,0,0,0,0,0,0,0,0,0,0,0,0,0,0,0,0,0,0,0,0,0,0,0,0,0,0,0,0,0,0,0,0,0,0,0,0,0,0,0,0,0,0,0,0,0,0,0,0,0,0,0,
0,0,0,0,0,0,0,0,0,0,0,0,0,0,0,0,0,0,0,0,0,0,0,0,0,0,0,0,0,0,0,0,0,0,0,0,0,0,0,0,0,0,0,0,0,0,0,0,0,0,0,0,0,0,0,0,0,0,0,0,0,0,0,0,0,0,0,0,0,0,0,0,0,0,0,0,0,0,0,0,0,0,0,0,0,0,0,0,0,0,0,0,0,0,0,0,0,0,0,0,0,0,0,0,0,0,0,0,0,0,0,0,0,0,0,0,0,0,0,0,0,0,0,0,0,0,0,0,0,0,0,0,0,0,0,0,0,0,0,0,0,0,0,0,0,0,0,0,0,0,0,0,0,0,0,0,0,0,0,0,0,0,0,0,0,0,0,0,0,0,0,0,0,0,0,0,0,0,0,0,0,0,0,0,0,0,0,0,0,0,0,0,0,0,0,0,0,0,0,0,0,0,0,0,0,0,0,0,0,0,0,0,0,0,0,0,0,0,0,0,0,0,0,0,0,0,0,0,0,0,0,0,0,0,0,0,0,0,0,0,
0,0,0,0,0,0,0,0,0,0,0,0,0,0,0,0,0,0,0,0,0,0,0,0,0,0,0,0,0,0,0,0,0,0,0,0,0,0,0,0,0,0,0,0,0,0,0,0,0,0,0,0,0,0,0,0,0,0,0,0,0,0,0,0,0,0,0,0,0,0,0,0,0,0,0,0,0,0,0,0,0,0,0,0,0,0,0,0,0,0,0,0,0,0,0,0,0,0,0,0,0,0,0,0,0,0,0,0,0,0,0,0,0,0,0,0,0,0,0,0,0,0,0,0,0,0,0,0,0,0,0,0,0,0,0,0,0,0,0,0,0,0,0,0,0,0,0,0,0,0,0,0,0,0,0,0,0,0,0,0,0,0,0,0,0,0,0,0,0,0,0,0,0,0,0,0,0,0,0,0,0,0,0,0,0,0,0,0,0,0,0,0,0,0,0,0,0,0,0,0,0,0,0,0,0,0,0,0,0,0,0,0,0,0,0,0,0,0,0,0,0,0,0,0,0,0,0,0,0,0,0,0,0,0,0,0,0,0,0,0,
0,0,0,0,0,0,0,0,0,0,0,0,0,0,0,0,0,0,0,0,0,0,0,0,0,0,0,0,0,0,0,0,0,0,0,0,0,0,0,0,0,0,0,0,0,0,0,0,0,0,0,0,0,0,0,0,0,0,0,0,0,0,0,0,0,0,0,0,0,0,0,0,0,0,0,0,0,0,0,0,0,0,0,0,0,0,0,0,0,0,0,0,0,0,0,0,0,0,0,0,0,0,0,0,0,0,0,0,0,0,0,0,0,0,0,0,0,0,0,0,0,0,0,0,0,0,0,0,0,0,0,0,0,0,0,0,0,0,0,0,0,0,0,0,0,0,0,0,0,0,0,0,0,0,0,0,0,0,0,0,0,0,0,0,0,0,0,0,0,0,0,0,0,0,0,0,0,0,0,0,0,0,0,0,0,0,0,0,0,0,0,0,0,0,0,0,0,0,0,0,0,0,0,0,0,0,0,0,0,0,0,0,0,0,0,0,0,0,0,0,0,0,0,0,0,0,0,0,0,0,0,0,0,0,0,0,0,0,0,0,
0,0,0,0,0,0,0,0,0,0,0,0,0,0,0,0,0,0,0,0,0,0,0,0,0,0,0,0,0,0,0,0,0,0,0,0,0,0,0,0,0,0,0,0,0,0,0,0,0,0,0,0,0,0,0,0,0,0,0,0,0,0,0,0,0,0,0,0,0,0,0,0,0,0,0,0,0,0,0,0,0,0,0,0,0,0,0,0,0,0,0,0,0,0,0,0,0,0,0,0,0,0,0,0,0,0,0,0,0,0,0,0,0,0,0,0,0,0,0,0,0,0,0,0,0,0,0,0,0,0,0,0,0,0,0,0,0,0,0,0,0,0,0,0,0,0,0,0,0,0,0,0,0,0,0,0,0,0,0,0,0,0,0,0,0,0,0,0,0,0,0,0,0,0,0,0,0,0,0,0,0,0,0,0,0,0,0,0,0,0,0,0,0,0,0,0,0,0,0,0,0,0,0,0,0,0,0,0,0,0,0,0,0,0,0,0,0,0,0,0,0,0,0,0,0,0,0,0,0,0,0,0,0,0,0,0,0,0,0,0,
0,0,0,0,0,0,0,0,0,0,0,0,0,0,0,0,0,0,0,0,0,0,0,0,0,0,0,0,0,0,0,0,0,0,0,0,0,0,0,0,0,0,0,0,0,0,0,0,0,0,0,0,0,0,0,0,0,0,0,0,0,0,0,0,0,0,0,0,0,0,0,0,0,0,0,0,0,0,0,0,0,0,0,0,0,0,0,0,0,0,0,0,0,0,0,0,0,0,0,0,0,0,0,0,0,0,0,0,0,0,0,0,0,0,0,0,0,0,0,0,0,0,0,0,0,0,0,0,0,0,0,0,0,0,0,0,0,0,0,0,0,0,0,0,0,0,0,0,0,0,0,0,0,0,0,0,0,0,0,0,0,0,0,0,0,0,0,0,0,0,0,0,0,0,0,0,0,0,0,0,0,0,0,0,0,0,0,0,0,0,0,0,0,0,0,0,0,0,0,0,0,0,0,0,0,0,0,0,0,0,0,0,0,0,0,0,0,0,0,0,0,0,0,0,0,0,0,0,0,0,0,0,0,0,0,0,0,0,0,0,
0,0,0,0,0,0,0,0,0,0,0,0,0,0,0,0,0,0,0,0,0,0,0,0,0,0,0,0,0,0,0,0,0,0,0,0,0,0,0,0,0,0,0,0,0,0,0,0,0,0,0,0,0,0,0,0,0,0,0,0,0,0,0,0,0,0,0,0,0,0,0,0,0,0,0,0,0,0,0,0,0,0,0,0,0,0,0,0,0,0,0,0,0,0,0,0,0,0,0,0,0,0,0,0,0,0,0,0,0,0,0,0,0,0,0,0,0,0,0,0,0,0,0,0,0,0,0,0,0,0,0,0,0,0,0,0,0,0,0,0,0,0,0,0,0,0,0,0,0,0,0,0,0,0,0,0,0,0,0,0,0,0,0,0,0,0,0,0,0,0,0,0,0,0,0,0,0,0,0,0,0,0,0,0,0,0,0,0,0,0,0,0,0,0,0,0,0,0,0,0,0,0,0,0,0,0,0,0,0,0,0,0,0,0,0,0,0,0,0,0,0,0,0,0,0,0,0,0,0,0,0,0,0,0,0,0,0,0,0,0,
0,0,0,0,0,0,0,0,0,0,0,0,0,0,0,0,0,0,0,0,0,0,0,0,0,0,0,0,0,0,0,0,0,0,0,0,0,0,0,0,0,0,0,0,0,0,0,0,0,0,0,0,0,0,0,0,0,0,0,0,0,0,0,0,0,0,0,0,0,0,0,0,0,0,0,0,0,0,0,0,0,0,0,0,0,0,0,0,0,0,0,0,0,0,0,0,0,0,0,0,0,0,0,0,0,0,0,0,0,0,0,0,0,0,0,0,0,0,0,0,0,0,0,0,0,0,0,0,0,0,0,0,0,0,0,0,0,0,0,0,0,0,0,0,0,0,0,0,0,0,0,0,0,0,0,0,0,0,0,0,0,0,0,0,0,0,0,0,0,0,0,0,0,0,0,0,0,0,0,0,0,0,0,0,0,0,0,0,0,0,0,0,0,0,0,0,0,0,0,0,0,0,0,0,0,0,0,0,0,0,0,0,0,0,0,0,0,0,0,0,0,0,0,0,0,0,0,0,0,0,0,0,0,0,0,0,0,0,0,0,
0,0,0,0,0,0,0,0,0,0,0,0,0,0,0,0,0,0,0,0,0,0,0,0,0,0,0,0,0,0,0,0,0,0,0,0,0,0,0,0,0,0,0,0,0,0,0,0,0,0,0,0,0,0,0,0,0,0,0,0,0,0,0,0,0,0,0,0,0,0,0,0,0,0,0,0,0,0,0,0,0,0,0,0,0,0,0,0,0,0,0,0,0,0,0,0,0,0,0,0,0,0,0,0,0,0,0,0,0,0,0,0,0,0,0,0,0,0,0,0,0,0,0,0,0,0,0,0,0,0,0,0,0,0,0,0,0,0,0,0,0,0,0,0,0,0,0,0,0,0,0,0,0,0,0,0,0,0,0,0,0,0,0,0,0,0,0,0,0,0,0,0,0,0,0,0,0,0,0,0,0,0,0,0,0,0,0,0,0,0,0,0,0,0,0,0,0,0,0,0,0,0,0,0,0,0,0,0,0,0,0,0,0,0,0,0,0,0,0,0,0,0,0,0,0,0,0,0,0,0,0,0,0,0,0,0,0,0,0,0,
0,0,0,0,0,0,0,0,0,0,0,0,0,0,0,0,0,0,0,0,0,0,0,0,0,0,0,0,0,0,0,0,0,0,0,0,0,0,0,0,0,0,0,0,0,0,0,0,0,0,0,0,0,0,0,0,0,0,0,0,0,0,0,0,0,0,0,0,0,0,0,0,0,0,0,0,0,0,0,0,0,0,0,0,0,0,0,0,0,0,0,0,0,0,0,0,0,0,0,0,0,0,0,0,0,0,0,0,0,0,0,0,0,0,0,0,0,0,0,0,0,0,0,0,0,0,0,0,0,0,0,0,0,0,0,0,0,0,0,0,0,0,0,0,0,0,0,0,0,0,0,0,0,0,0,0,0,0,0,0,0,0,0,0,0,0,0,0,0,0,0,0,0,0,0,0,0,0,0,0,0,0,0,0,0,0,0,0,0,0,0,0,0,0,0,0,0,0,0,0,0,0,0,0,0,0,0,0,0,0,0,0,0,0,0,0,0,0,0,0,0,0,0,0,0,0,0,0,0,0,0,0,0,0,0,0,0,0,0,0,
0,0,0,0,0,0,0,0,0,0,0,0,0,0,0,0,0,0,0,0,0,0,0,0,0,0,0,0,0,0,0,0,0,0,0,0,0,0,0,0,0,0,0,0,0,0,0,0,0,0,0,0,0,0,0,0,0,0,0,0,0,0,0,0,0,0,0,0,0,0,0,0,0,0,0,0,0,0,0,0,0,0,0,0,0,0,0,0,0,0,0,0,0,0,0,0,0,0,0,0,0,0,0,0,0,0,0,0,0,0,0,0,0,0,0,0,0,0,0,0,0,0,0,0,0,0,0,0,0,0,0,0,0,0,0,0,0,0,0,0,0,0,0,0,0,0,0,0,0,0,0,0,0,0,0,0,0,0,0,0,0,0,0,0,0,0,0,0,0,0,0,0,0,0,0,0,0,0,0,0,0,0,0,0,0,0,0,0,0,0,0,0,0,0,0,0,0,0,0,0,0,0,0,0,0,0,0,0,0,0,0,0,0,0,0,0,0,0,0,0,0,0,0,0,0,0,0,0,0,0,0,0,0,0,0,0,0,0,0,0,
0,0,0,0,0,0,0,0,0,0,0,0,0,0,0,0,0,0,0,0,0,0,0,0,0,0,0,0,0,0,0,0,0,0,0,0,0,0,0,0,0,0,0,0,0,0,0,0,0,0,0,0,0,0,0,0,0,0,0,0,0,0,0,0,0,0,0,0,0,0,0,0,0,0,0,0,0,0,0,0,0,0,0,0,0,0,0,0,0,0,0,0,0,0,0,0,0,0,0,0,0,0,0,0,0,0,0,0,0,0,0,0,0,0,0,0,0,0,0,0,0,0,0,0,0,0,0,0,0,0,0,0,0,0,0,0,0,0,0,0,0,0,0,0,0,0,0,0,0,0,0,0,0,0,0,0,0,0,0,0,0,0,0,0,0,0,0,0,0,0,0,0,0,0,0,0,0,0,0,0,0,0,0,0,0,0,0,0,0,0,0,0,0,0,0,0,0,0,0,0,0,0,0,0,0,0,0,0,0,0,0,0,0,0,0,0,0,0,0,0,0,0,0,0,0,0,0,0,0,0,0,0,0,0,0,0,0,0,0,0,
0,0,0,0,0,0,0,0,0,0,0,0,0,0,0,0,0,0,0,0,0,0,0,0,0,0,0,0,0,0,0,0,0,0,0,0,0,0,0,0,0,0,0,0,0,0,0,0,0,0,0,0,0,0,0,0,0,0,0,0,0,0,0,0,0,0,0,0,0,0,0,0,0,0,0,0,0,0,0,0,0,0,0,0,0,0,0,0,0,0,0,0,0,0,0,0,0,0,0,0,0,0,0,0,0,0,0,0,0,0,0,0,0,0,0,0,0,0,0,0,0,0,0,0,0,0,0,0,0,0,0,0,0,0,0,0,0,0,0,0,0,0,0,0,0,0,0,0,0,0,0,0,0,0,0,0,0,0,0,0,0,0,0,0,0,0,0,0,0,0,0,0,0,0,0,0,0,0,0,0,0,0,0,0,0,0,0,0,0,0,0,0,0,0,0,0,0,0,0,0,0,0,0,0,0,0,0,0,0,0,0,0,0,0,0,0,0,0,0,0,0,0,0,0,0,0,0,0,0,0,0,0,0,0,0,0,0,0,0,0,
0,0,0,0,0,0,0,0,0,0,0,0,0,0,0,0,0,0,0,0,0,0,0,0,0,0,0,0,0,0,0,0,0,0,0,0,0,0,0,0,0,0,0,0,0,0,0,0,0,0,0,0,0,0,0,0,0,0,0,0,0,0,0,0,0,0,0,0,0,0,0,0,0,0,0,0,0,0,0,0,0,0,0,0,0,0,0,0,0,0,0,0,0,0,0,0,0,0,0,0,0,0,0,0,0,0,0,0,0,0,0,0,0,0,0,0,0,0,0,0,0,0,0,0,0,0,0,0,0,0,0,0,0,0,0,0,0,0,0,0,0,0,0,0,0,0,0,0,0,0,0,0,0,0,0,0,0,0,0,0,0,0,0,0,0,0,0,0,0,0,0,0,0,0,0,0,0,0,0,0,0,0,0,0,0,0,0,0,0,0,0,0,0,0,0,0,0,0,0,0,0,0,0,0,0,0,0,0,0,0,0,0,0,0,0,0,0,0,0,0,0,0,0,0,0,0,0,0,0,0,0,0,0,0,0,0,0,0,0,0,
0,0,0,0,0,0,0,0,0,0,0,0,0,0,0,0,0,0,0,0,0,0,0,0,0,0,0,0,0,0,0,0,0,0,0,0,0,0,0,0,0,0,0,0,0,0,0,0,0,0,0,0,0,0,0,0,0,0,0,0,0,0,0,0,0,0,0,0,0,0,0,0,0,0,0,0,0,0,0,0,0,0,0,0,0,0,0,0,0,0,0,0,0,0,0,0,0,0,0,0,0,0,0,0,0,0,0,0,0,0,0,0,0,0,0,0,0,0,0,0,0,0,0,0,0,0,0,0,0,0,0,0,0,0,0,0,0,0,0,0,0,0,0,0,0,0,0,0,0,0,0,0,0,0,0,0,0,0,0,0,0,0,0,0,0,0,0,0,0,0,0,0,0,0,0,0,0,0,0,0,0,0,0,0,0,0,0,0,0,0,0,0,0,0,0,0,0,0,0,0,0,0,0,0,0,0,0,0,0,0,0,0,0,0,0,0,0,0,0,0,0,0,0,0,0,0,0,0,0,0,0,0,0,0,0,0,0,0,0,0,
0,0,0,0,0,0,0,0,0,0,0,0,0,0,0,0,0,0,0,0,0,0,0,0,0,0,0,0,0,0,0,0,0,0,0,0,0,0,0,0,0,0,0,0,0,0,0,0,0,0,0,0,0,0,0,0,0,0,0,0,0,0,0,0,0,0,0,0,0,0,0,0,0,0,0,0,0,0,0,0,0,0,0,0,0,0,0,0,0,0,0,0,0,0,0,0,0,0,0,0,0,0,0,0,0,0,0,0,0,0,0,0,0,0,0,0,0,0,0,0,0,0,0,0,0,0,0,0,0,0,0,0,0,0,0,0,0,0,0,0,0,0,0,0,0,0,0,0,0,0,0,0,0,0,0,0,0,0,0,0,0,0,0,0,0,0,0,0,0,0,0,0,0,0,0,0,0,0,0,0,0,0,0,0,0,0,0,0,0,0,0,0,0,0,0,0,0,0,0,0,0,0,0,0,0,0,0,0,0,0,0,0,0,0,0,0,0,0,0,0,0,0,0,0,0,0,0,0,0,0,0,0,0,0,0,0,0,0,0,0,
0,0,0,0,0,0,0,0,0,0,0,0,0,0,0,0,0,0,0,0,0,0,0,0,0,0,0,0,0,0,0,0,0,0,0,0,0,0,0,0,0,0,0,0,0,0,0,0,0,0,0,0,0,0,0,0,0,0,0,0,0,0,0,0,0,0,0,0,0,0,0,0,0,0,0,0,0,0,0,0,0,0,0,0,0,0,0,0,0,0,0,0,0,0,0,0,0,0,0,0,0,0,0,0,0,0,0,0,0,0,0,0,0,0,0,0,0,0,0,0,0,0,0,0,0,0,0,0,0,0,0,0,0,0,0,0,0,0,0,0,0,0,0,0,0,0,0,0,0,0,0,0,0,0,0,0,0,0,0,0,0,0,0,0,0,0,0,0,0,0,0,0,0,0,0,0,0,0,0,0,0,0,0,0,0,0,0,0,0,0,0,0,0,0,0,0,0,0,0,0,0,0,0,0,0,0,0,0,0,0,0,0,0,0,0,0,0,0,0,0,0,0,0,0,0,0,0,0,0,0,0,0,0,0,0,0,0,0,0,0,
0,0,0,0,0,0,0,0,0,0,0,0,0,0,0,0,0,0,0,0,0,0,0,0,0,0,0,0,0,0,0,0,0,0,0,0,0,0,0,0,0,0,0,0,0,0,0,0,0,0,0,0,0,0,0,0,0,0,0,0,0,0,0,0,0,0,0,0,0,0,0,0,0,0,0,0,0,0,0,0,0,0,0,0,0,0,0,0,0,0,0,0,0,0,0,0,0,0,0,0,0,0,0,0,0,0,0,0,0,0,0,0,0,0,0,0,0,0,0,0,0,0,0,0,0,0,0,0,0,0,0,0,0,0,0,0,0,0,0,0,0,0,0,0,0,0,0,0,0,0,0,0,0,0,0,0,0,0,0,0,0,0,0,0,0,0,0,0,0,0,0,0,0,0,0,0,0,0,0,0,0,0,0,0,0,0,0,0,0,0,0,0,0,0,0,0,0,0,0,0,0,0,0,0,0,0,0,0,0,0,0,0,0,0,0,0,0,0,0,0,0,0,0,0,0,0,0,0,0,0,0,0,0,0,0,0,0,0,0,0,
0,0,0,0,0,0,0,0,0,0,0,0,0,0,0,0,0,0,0,0,0,0,0,0,0,0,0,0,0,0,0,0,0,0,0,0,0,0,0,0,0,0,0,0,0,0,0,0,0,0,0,0,0,0,0,0,0,0,0,0,0,0,0,0,0,0,0,0,0,0,0,0,0,0,0,0,0,0,0,0,0,0,0,0,0,0,0,0,0,0,0,0,0,0,0,0,0,0,0,0,0,0,0,0,0,0,0,0,0,0,0,0,0,0,0,0,0,0,0,0,0,0,0,0,0,0,0,0,0,0,0,0,0,0,0,0,0,0,0,0,0,0,0,0,0,0,0,0,0,0,0,0,0,0,0,0,0,0,0,0,0,0,0,0,0,0,0,0,0,0,0,0,0,0,0,0,0,0,0,0,0,0,0,0,0,0,0,0,0,0,0,0,0,0,0,0,0,0,0,0,0,0,0,0,0,0,0,0,0,0,0,0,0,0,0,0,0,0,0,0,0,0,0,0,0,0,0,0,0,0,0,0,0,0,0,0,0,0,0,0,
0,0,0,0,0,0,0,0,0,0,0,0,0,0,0,0,0,0,0,0,0,0,0,0,0,0,0,0,0,0,0,0,0,0,0,0,0,0,0,0,0,0,0,0,0,0,0,0,0,0,0,0,0,0,0,0,0,0,0,0,0,0,0,0,0,0,0,0,0,0,0,0,0,0,0,0,0,0,0,0,0,0,0,0,0,0,0,0,0,0,0,0,0,0,0,0,0,0,0,0,0,0,0,0,0,0,0,0,0,0,0,0,0,0,0,0,0,0,0,0,0,0,0,0,0,0,0,0,0,0,0,0,0,0,0,0,0,0,0,0,0,0,0,0,0,0,0,0,0,0,0,0,0,0,0,0,0,0,0,0,0,0,0,0,0,0,0,0,0,0,0,0,0,0,0,0,0,0,0,0,0,0,0,0,0,0,0,0,0,0,0,0,0,0,0,0,0,0,0,0,0,0,0,0,0,0,0,0,0,0,0,0,0,0,0,0,0,0,0,0,0,0,0,0,0,0,0,0,0,0,0,0,0,0,0,0,0,0,0,0,
0,0,0,0,0,0,0,0,0,0,0,0,0,0,0,0,0,0,0,0,0,0,0,0,0,0,0,0,0,0,0,0,0,0,0,0,0,0,0,0,0,0,0,0,0,0,0,0,0,0,0,0,0,0,0,0,0,0,0,0,0,0,0,0,0,0,0,0,0,0,0,0,0,0,0,0,0,0,0,0,0,0,0,0,0,0,0,0,0,0,0,0,0,0,0,0,0,0,0,0,0,0,0,0,0,0,0,0,0,0,0,0,0,0,0,0,0,0,0,0,0,0,0,0,0,0,0,0,0,0,0,0,0,0,0,0,0,0,0,0,0,0,0,0,0,0,0,0,0,0,0,0,0,0,0,0,0,0,0,0,0,0,0,0,0,0,0,0,0,0,0,0,0,0,0,0,0,0,0,0,0,0,0,0,0,0,0,0,0,0,0,0,0,0,0,0,0,0,0,0,0,0,0,0,0,0,0,0,0,0,0,0,0,0,0,0,0,0,0,0,0,0,0,0,0,0,0,0,0,0,0,0,0,0,0,0,0,0,0,0,
0,0,0,0,0,0,0,0,0,0,0,0,0,0,0,0,0,0,0,0,0,0,0,0,0,0,0,0,0,0,0,0,0,0,0,0,0,0,0,0,0,0,0,0,0,0,0,0,0,0,0,0,0,0,0,0,0,0,0,0,0,0,0,0,0,0,0,0,0,0,0,0,0,0,0,0,0,0,0,0,0,0,0,0,0,0,0,0,0,0,0,0,0,0,0,0,0,0,0,0,0,0,0,0,0,0,0,0,0,0,0,0,0,0,0,0,0,0,0,0,0,0,0,0,0,0,0,0,0,0,0,0,0,0,0,0,0,0,0,0,0,0,0,0,0,0,0,0,0,0,0,0,0,0,0,0,0,0,0,0,0,0,0,0,0,0,0,0,0,0,0,0,0,0,0,0,0,0,0,0,0,0,0,0,0,0,0,0,0,0,0,0,0,0,0,0,0,0,0,0,0,0,0,0,0,0,0,0,0,0,0,0,0,0,0,0,0,0,0,0,0,0,0,0,0,0,0,0,0,0,0,0,0,0,0,0,0,0,0,0,
0,0,0,0,0,0,0,0,0,0,0,0,0,0,0,0,0,0,0,0,0,0,0,0,0,0,0,0,0,0,0,0,0,0,0,0,0,0,0,0,0,0,0,0,0,0,0,0,0,0,0,0,0,0,0,0,0,0,0,0,0,0,0,0,0,0,0,0,0,0,0,0,0,0,0,0,0,0,0,0,0,0,0,0,0,0,0,0,0,0,0,0,0,0,0,0,0,0,0,0,0,0,0,0,0,0,0,0,0,0,0,0,0,0,0,0,0,0,0,0,0,0,0,0,0,0,0,0,0,0,0,0,0,0,0,0,0,0,0,0,0,0,0,0,0,0,0,0,0,0,0,0,0,0,0,0,0,0,0,0,0,0,0,0,0,0,0,0,0,0,0,0,0,0,0,0,0,0,0,0,0,0,0,0,0,0,0,0,0,0,0,0,0,0,0,0,0,0,0,0,0,0,0,0,0,0,0,0,0,0,0,0,0,0,0,0,0,0,0,0,0,0,0,0,0,0,0,0,0,0,0,0,0,0,0,0,0,0,0,0,
0,0,0,0,0,0,0,0,0,0,0,0,0,0,0,0,0,0,0,0,0,0,0,0,0,0,0,0,0,0,0,0,0,0,0,0,0,0,0,0,0,0,0,0,0,0,0,0,0,0,0,0,0,0,0,0,0,0,0,0,0,0,0,0,0,0,0,0,0,0,0,0,0,0,0,0,0,0,0,0,0,0,0,0,0,0,0,0,0,0,0,0,0,0,0,0,0,0,0,0,0,0,0,0,0,0,0,0,0,0,0,0,0,0,0,0,0,0,0,0,0,0,0,0,0,0,0,0,0,0,0,0,0,0,0,0,0,0,0,0,0,0,0,0,0,0,0,0,0,0,0,0,0,0,0,0,0,0,0,0,0,0,0,0,0,0,0,0,0,0,0,0,0,0,0,0,0,0,0,0,0,0,0,0,0,0,0,0,0,0,0,0,0,0,0,0,0,0,0,0,0,0,0,0,0,0,0,0,0,0,0,0,0,0,0,0,0,0,0,0,0,0,0,0,0,0,0,0,0,0,0,0,0,0,0,0,0,0,0,0,
0,0,0,0,0,0,0,0,0,0,0,0,0,0,0,0,0,0,0,0,0,0,0,0,0,0,0,0,0,0,0,0,0,0,0,0,0,0,0,0,0,0,0,0,0,0,0,0,0,0,0,0,0,0,0,0,0,0,0,0,0,0,0,0,0,0,0,0,0,0,0,0,0,0,0,0,0,0,0,0,0,0,0,0,0,0,0,0,0,0,0,0,0,0,0,0,0,0,0,0,0,0,0,0,0,0,0,0,0,0,0,0,0,0,0,0,0,0,0,0,0,0,0,0,0,0,0,0,0,0,0,0,0,0,0,0,0,0,0,0,0,0,0,0,0,0,0,0,0,0,0,0,0,0,0,0,0,0,0,0,0,0,0,0,0,0,0,0,0,0,0,0,0,0,0,0,0,0,0,0,0,0,0,0,0,0,0,0,0,0,0,0,0,0,0,0,0,0,0,0,0,0,0,0,0,0,0,0,0,0,0,0,0,0,0,0,0,0,0,0,0,0,0,0,0,0,0,0,0,0,0,0,0,0,0,0,0,0,0,0,
0,0,0,0,0,0,0,0,0,0,0,0,0,0,0,0,0,0,0,0,0,0,0,0,0,0,0,0,0,0,0,0,0,0,0,0,0,0,0,0,0,0,0,0,0,0,0,0,0,0,0,0,0,0,0,0,0,0,0,0,0,0,0,0,0,0,0,0,0,0,0,0,0,0,0,0,0,0,0,0,0,0,0,0,0,0,0,0,0,0,0,0,0,0,0,0,0,0,0,0,0,0,0,0,0,0,0,0,0,0,0,0,0,0,0,0,0,0,0,0,0,0,0,0,0,0,0,0,0,0,0,0,0,0,0,0,0,0,0,0,0,0,0,0,0,0,0,0,0,0,0,0,0,0,0,0,0,0,0,0,0,0,0,0,0,0,0,0,0,0,0,0,0,0,0,0,0,0,0,0,0,0,0,0,0,0,0,0,0,0,0,0,0,0,0,0,0,0,0,0,0,0,0,0,0,0,0,0,0,0,0,0,0,0,0,0,0,0,0,0,0,0,0,0,0,0,0,0,0,0,0,0,0,0,0,0,0,0,0,0,
0,0,0,0,0,0,0,0,0,0,0,0,0,0,0,0,0,0,0,0,0,0,0,0,0,0,0,0,0,0,0,0,0,0,0,0,0,0,0,0,0,0,0,0,0,0,0,0,0,0,0,0,0,0,0,0,0,0,0,0,0,0,0,0,0,0,0,0,0,0,0,0,0,0,0,0,0,0,0,0,0,0,0,0,0,0,0,0,0,0,0,0,0,0,0,0,0,0,0,0,0,0,0,0,0,0,0,0,0,0,0,0,0,0,0,0,0,0,0,0,0,0,0,0,0,0,0,0,0,0,0,0,0,0,0,0,0,0,0,0,0,0,0,0,0,0,0,0,0,0,0,0,0,0,0,0,0,0,0,0,0,0,0,0,0,0,0,0,0,0,0,0,0,0,0,0,0,0,0,0,0,0,0,0,0,0,0,0,0,0,0,0,0,0,0,0,0,0,0,0,0,0,0,0,0,0,0,0,0,0,0,0,0,0,0,0,0,0,0,0,0,0,0,0,0,0,0,0,0,0,0,0,0,0,0,0,0,0,0,0,
0,0,0,0,0,0,0,0,0,0,0,0,0,0,0,0,0,0,0,0,0,0,0,0,0,0,0,0,0,0,0,0,0,0,0,0,0,0,0,0,0,0,0,0,0,0,0,0,0,0,0,0,0,0,0,0,0,0,0,0,0,0,0,0,0,0,0,0,0,0,0,0,0,0,0,2,91,91,91,91,91,91,91,91,91,91,91,91,3,0,0,0,0,0,0,0,0,0,0,0,0,0,0,0,0,0,0,0,0,0,0,0,0,0,0,0,0,0,0,0,0,0,0,0,0,0,0,0,0,0,0,0,0,0,0,0,0,0,0,0,0,0,0,0,0,0,0,0,0,0,0,0,0,0,0,0,0,0,0,0,0,0,0,0,0,0,0,0,0,0,0,0,0,0,0,0,0,0,0,0,0,0,0,0,0,0,0,0,0,0,0,0,0,0,0,0,0,0,0,0,0,0,0,0,0,0,0,0,0,0,0,0,0,0,0,0,0,0,0,0,0,0,0,0,0,0,0,0,0,0,0,0,0,0,0,0,0,0,0,0,
0,0,0,0,0,0,0,0,0,0,0,0,0,0,0,0,0,0,0,0,0,0,0,0,0,0,0,0,0,0,0,0,0,0,0,0,0,0,0,0,0,0,0,0,0,0,0,0,0,0,0,0,0,0,0,0,0,0,0,0,0,0,0,0,0,0,0,0,0,0,0,0,0,0,0,92,0,0,0,0,0,0,0,0,0,0,0,0,92,0,0,0,0,0,0,0,0,0,0,0,0,0,0,0,0,0,0,0,0,0,0,0,0,0,0,0,0,0,0,0,0,0,0,0,0,0,0,0,0,0,0,0,0,0,0,0,0,0,0,0,0,0,0,0,0,0,0,0,0,0,0,0,0,0,0,0,0,0,0,0,0,0,0,0,0,0,0,0,0,0,0,0,0,0,0,0,0,0,0,0,0,0,0,0,0,0,0,0,0,0,0,0,0,0,0,0,0,0,0,0,0,0,0,0,0,0,0,0,0,0,0,0,0,0,0,0,0,0,0,0,0,0,0,0,0,0,0,0,0,0,0,0,0,0,0,0,0,0,0,0,
0,0,0,0,0,0,0,0,0,0,0,0,0,0,0,0,0,0,0,0,0,0,0,0,0,0,0,0,0,0,0,0,0,0,0,0,0,0,0,0,0,0,0,0,0,0,0,0,0,0,0,0,0,0,0,0,0,0,0,0,0,0,0,0,0,0,0,0,0,0,0,0,0,0,0,92,0,0,0,0,0,0,0,0,0,0,0,0,52,91,91,91,91,91,91,91,91,91,91,91,91,91,91,91,91,91,91,91,91,3,0,0,0,0,0,0,0,0,0,0,0,0,0,0,0,0,0,0,0,0,0,0,0,0,0,0,0,0,0,0,0,0,0,0,0,0,0,0,0,0,0,0,0,0,0,0,0,0,0,0,0,0,0,0,0,0,0,0,0,0,0,0,0,0,0,0,0,0,0,0,0,0,0,0,0,0,0,0,0,0,0,0,0,0,0,0,0,0,0,0,0,0,0,0,0,0,0,0,0,0,0,0,0,0,0,0,0,0,0,0,0,0,0,0,0,0,0,0,0,0,0,0,0,0,0,0,0,0,0,0,
0,0,0,0,0,0,0,0,0,0,0,0,0,0,0,0,0,0,0,0,0,0,0,0,0,0,0,0,0,0,0,0,0,0,0,0,0,0,0,0,0,0,0,0,0,0,0,0,0,0,0,0,0,0,0,0,0,0,0,0,0,0,0,0,0,0,0,0,0,0,0,0,0,0,0,92,0,0,0,0,0,0,0,0,0,0,0,0,92,0,0,0,0,0,0,0,0,0,0,0,0,0,0,0,0,0,0,0,0,92,0,0,0,0,0,0,0,0,0,0,0,0,0,0,0,0,0,0,0,0,0,0,0,0,0,0,0,0,0,0,0,0,0,0,0,0,0,0,0,0,0,0,0,0,0,0,0,0,0,0,0,0,0,0,0,0,0,0,0,0,0,0,0,0,0,0,0,0,0,0,0,0,0,0,0,0,0,0,0,0,0,0,0,0,0,0,0,0,0,0,0,0,0,0,0,0,0,0,0,0,0,0,0,0,0,0,0,0,0,0,0,0,0,0,0,0,0,0,0,0,0,0,0,0,0,0,0,0,0,0,
0,0,0,0,0,0,0,0,0,0,0,0,0,0,0,0,0,0,0,0,0,0,0,0,0,0,0,0,0,0,0,0,0,0,0,0,0,0,0,0,0,0,0,0,0,0,0,0,0,0,0,0,0,0,0,0,0,0,0,0,0,0,0,0,0,0,0,0,0,0,0,0,0,0,0,92,0,0,0,0,0,0,0,0,0,0,0,0,92,0,0,0,0,0,0,0,0,0,0,0,0,0,0,0,0,0,0,0,0,92,0,0,0,0,0,0,0,0,0,0,0,0,0,0,0,0,0,0,0,0,0,0,0,0,0,0,0,0,0,0,0,0,0,0,0,0,0,0,0,0,0,0,0,0,0,0,0,0,0,0,0,0,0,0,0,0,0,0,0,0,0,0,0,0,0,0,0,0,0,0,0,0,0,0,0,0,0,0,0,0,0,0,0,0,0,0,0,0,0,0,0,0,0,0,0,0,0,0,0,0,0,0,0,0,0,0,0,0,0,0,0,0,0,0,0,0,0,0,0,0,0,0,0,0,0,0,0,0,0,0,
0,0,0,0,0,0,0,0,0,0,0,0,0,0,0,0,0,0,0,0,0,0,0,0,0,0,0,0,0,0,0,0,0,0,0,0,0,0,0,0,0,0,0,0,0,0,0,0,0,0,0,0,0,0,0,0,0,0,0,0,0,0,0,0,0,0,0,0,0,0,0,0,0,0,0,92,0,0,0,0,0,0,0,0,0,0,0,0,92,0,0,0,0,0,0,0,0,0,0,0,0,0,0,0,0,0,0,0,0,92,0,0,0,0,0,0,0,0,0,0,0,0,0,0,0,0,0,0,0,0,0,0,0,0,0,0,0,0,0,0,0,0,0,0,0,0,0,0,0,0,0,0,0,0,0,0,0,0,0,0,0,0,0,0,0,0,0,0,0,0,0,0,0,0,0,0,0,0,0,0,0,0,0,0,0,0,0,0,0,0,0,0,0,0,0,0,0,0,0,0,0,0,0,0,0,0,0,0,0,0,0,0,0,0,0,0,0,0,0,0,0,0,0,0,0,0,0,0,0,0,0,0,0,0,0,0,0,0,0,0,
0,0,0,0,0,0,0,0,0,0,0,0,0,0,0,0,0,0,0,0,0,0,0,0,0,0,0,0,0,0,0,0,0,0,0,0,0,0,0,0,0,0,0,0,0,0,0,0,0,0,0,0,0,0,0,0,0,0,0,0,0,0,0,0,0,0,0,0,0,0,0,0,0,0,0,92,0,0,0,0,0,0,0,0,0,0,0,0,92,0,0,0,0,0,0,0,0,0,0,0,0,0,0,0,0,0,0,0,0,92,0,0,0,0,0,0,0,0,0,0,0,0,0,0,0,0,0,0,0,0,0,0,0,0,0,0,0,0,0,0,0,0,0,0,0,0,0,0,0,0,0,0,0,0,0,0,0,0,0,0,0,0,0,0,0,0,0,0,0,0,0,0,0,0,0,0,0,0,0,0,0,0,0,0,0,0,0,0,0,0,0,0,0,0,0,0,0,0,0,0,0,0,0,0,0,0,0,0,0,0,0,0,0,0,0,0,0,0,0,0,0,0,0,0,0,0,0,0,0,0,0,0,0,0,0,0,0,0,0,0,
0,0,0,0,0,0,0,0,0,0,0,0,0,0,0,0,0,0,0,0,0,0,0,0,0,0,0,0,0,0,0,0,0,0,0,0,0,0,0,0,0,0,0,0,0,0,0,0,0,0,0,0,0,0,0,0,0,0,0,0,0,0,0,0,0,0,0,0,0,0,0,0,0,0,0,92,0,0,0,0,0,0,0,0,0,0,0,0,92,0,0,0,0,0,0,0,0,0,0,0,0,0,0,0,0,0,0,0,0,92,0,0,0,0,0,0,0,0,0,0,0,0,0,0,0,0,0,0,0,0,0,0,0,0,0,0,0,0,0,0,0,0,0,0,0,0,0,0,0,0,0,0,0,0,0,0,0,0,0,0,0,0,0,0,0,0,0,0,0,0,0,0,0,0,0,0,0,0,0,0,0,0,0,0,0,0,0,0,0,0,0,0,0,0,0,0,0,0,0,0,0,0,0,0,0,0,0,0,0,0,0,0,0,0,0,0,0,0,0,0,0,0,0,0,0,0,0,0,0,0,0,0,0,0,0,0,0,0,0,0,
0,0,0,0,0,0,0,0,0,0,0,0,0,0,0,0,0,0,0,0,0,0,0,0,0,0,0,0,0,0,0,0,0,0,0,0,0,0,0,0,0,0,0,0,0,0,0,0,0,0,0,0,0,0,0,0,0,0,0,0,0,0,0,0,0,0,0,0,0,0,0,0,0,0,0,92,0,0,0,0,0,0,0,0,0,0,0,0,95,0,0,0,0,0,0,0,0,0,0,0,0,0,0,0,0,0,0,0,0,92,0,0,0,0,0,0,0,0,0,0,0,0,0,0,0,0,0,0,0,0,0,0,0,0,0,0,0,0,0,0,0,0,0,0,0,0,0,0,0,0,0,0,0,0,0,0,0,0,0,0,0,0,0,0,0,0,0,0,0,0,0,0,0,0,0,0,0,0,0,0,0,0,0,0,0,0,0,0,0,0,0,0,0,0,0,0,0,0,0,0,0,0,0,0,0,0,0,0,0,0,0,0,0,0,0,0,0,0,0,0,0,0,0,0,0,0,0,0,0,0,0,0,0,0,0,0,0,0,0,0,
0,0,0,0,0,0,0,0,0,0,0,0,0,0,0,0,0,0,0,0,0,0,0,0,0,0,0,0,0,0,0,0,0,0,0,0,0,0,0,0,0,0,0,0,0,0,0,0,0,0,0,0,0,0,0,0,0,0,0,0,0,0,0,0,0,0,0,0,0,0,0,0,0,0,0,92,0,0,0,0,0,0,0,0,0,0,0,0,0,0,0,0,0,0,0,0,0,0,0,0,0,0,0,0,0,0,0,0,0,92,0,0,0,0,0,0,0,0,0,0,0,0,0,0,0,0,0,0,0,0,0,0,0,0,0,0,0,0,0,0,0,0,0,0,0,0,0,0,0,0,0,0,0,0,0,0,0,0,0,0,0,0,0,0,0,0,0,0,0,0,0,0,0,0,0,0,0,0,0,0,0,0,0,0,0,0,0,0,0,0,0,0,0,0,0,0,0,0,0,0,0,0,0,0,0,0,0,0,0,0,0,0,0,0,0,0,0,0,0,0,0,0,0,0,0,0,0,0,0,0,0,0,0,0,0,0,0,0,0,0,
0,0,0,0,0,0,0,0,0,0,0,0,0,0,0,0,0,0,0,0,0,0,0,0,0,0,0,0,0,0,0,0,0,0,0,0,0,0,0,0,0,0,0,0,0,0,0,0,0,0,0,0,0,0,0,0,0,0,0,0,0,0,0,0,0,0,0,0,0,0,0,0,0,0,0,92,0,0,0,0,0,0,0,0,0,0,0,0,0,0,0,0,0,0,0,0,0,0,0,0,0,0,0,0,0,0,0,0,0,92,0,0,0,0,0,0,0,0,0,0,0,0,0,0,0,0,0,0,0,0,0,0,0,0,0,0,0,0,0,0,0,0,0,0,0,0,0,0,0,0,0,0,0,0,0,0,0,0,0,0,0,0,0,0,0,0,0,0,0,0,0,0,0,0,0,0,0,0,0,0,0,0,0,0,0,0,0,0,0,0,0,0,0,0,0,0,0,0,0,0,0,0,0,0,0,0,0,0,0,0,0,0,0,0,0,0,0,0,0,0,0,0,0,0,0,0,0,0,0,0,0,0,0,0,0,0,0,0,0,0,
0,0,0,0,0,0,0,0,0,0,0,0,0,0,0,0,0,0,0,0,0,0,0,0,0,0,0,0,0,0,0,0,0,0,0,0,0,0,0,0,0,0,0,0,0,0,0,0,0,0,0,0,0,0,0,0,0,0,0,0,0,0,0,0,0,0,0,0,0,0,0,0,0,0,0,52,91,91,91,91,91,91,91,91,91,91,91,91,3,0,0,0,0,0,0,0,0,0,0,0,0,0,0,0,0,0,0,0,0,92,0,0,0,0,0,0,0,0,0,0,0,0,0,0,0,0,0,0,0,0,0,0,0,0,0,0,0,0,0,0,0,0,0,0,0,0,0,0,0,0,0,0,0,0,0,0,0,0,0,0,0,0,0,0,0,0,0,0,0,0,0,0,0,0,0,0,0,0,0,0,0,0,0,0,0,0,0,0,0,0,0,0,0,0,0,0,0,0,0,0,0,0,0,0,0,0,0,0,0,0,0,0,0,0,0,0,0,0,0,0,0,0,0,0,0,0,0,0,0,0,0,0,0,0,0,0,0,0,0,0,
0,0,0,0,0,0,0,0,0,0,0,0,0,0,0,0,0,0,0,0,0,0,0,0,0,0,0,0,0,0,0,0,0,0,0,0,0,0,0,0,0,0,0,0,0,0,0,0,0,0,0,0,0,0,0,0,0,0,0,0,0,0,0,0,0,0,0,0,0,0,0,0,0,0,0,92,0,0,0,0,0,0,0,0,0,0,0,0,92,0,0,0,0,0,0,0,0,0,0,0,0,0,0,0,0,0,0,0,0,92,0,0,0,0,0,0,0,0,0,0,0,0,0,0,0,0,0,0,0,0,0,0,0,0,0,0,0,0,0,0,0,0,0,0,0,0,0,0,0,0,0,0,0,0,0,0,0,0,0,0,0,0,0,0,0,0,0,0,0,0,0,0,0,0,0,0,0,0,0,0,0,0,0,0,0,0,0,0,0,0,0,0,0,0,0,0,0,0,0,0,0,0,0,0,0,0,0,0,0,0,0,0,0,0,0,0,0,0,0,0,0,0,0,0,0,0,0,0,0,0,0,0,0,0,0,0,0,0,0,0,
0,0,0,0,0,0,0,0,0,0,0,0,0,0,0,0,0,0,0,0,0,0,0,0,0,0,0,0,0,0,0,0,0,0,0,0,0,0,0,0,0,0,0,0,0,0,0,0,0,0,0,0,0,0,0,0,0,0,0,0,0,0,0,0,0,0,0,0,0,0,0,0,0,0,0,92,0,0,0,0,0,0,0,0,0,0,0,0,92,0,0,0,0,0,0,0,0,0,0,0,0,0,0,0,0,0,0,0,0,92,0,0,0,0,0,0,0,0,0,0,0,0,0,0,0,0,0,0,0,0,0,0,0,0,0,0,0,0,0,0,0,0,0,0,0,0,0,0,0,0,0,0,0,0,0,0,0,0,0,0,0,0,0,0,0,0,0,0,0,0,0,0,0,0,0,0,0,0,0,0,0,0,0,0,0,0,0,0,0,0,0,0,0,0,0,0,0,0,0,0,0,0,0,0,0,0,0,0,0,0,0,0,0,0,0,0,0,0,0,0,0,0,0,0,0,0,0,0,0,0,0,0,0,0,0,0,0,0,0,0,
0,0,0,0,0,0,0,0,0,0,0,0,0,0,0,0,0,0,0,0,0,0,0,0,0,0,0,0,0,0,0,0,0,0,0,0,0,0,0,0,0,0,0,0,0,0,0,0,0,0,0,0,0,0,0,0,0,0,0,0,0,0,0,0,0,0,0,0,0,0,0,0,0,0,0,92,0,0,0,0,0,0,0,0,0,0,0,0,47,91,91,91,91,91,91,91,91,91,91,51,0,0,0,49,91,91,91,91,91,98,3,0,0,0,0,0,0,0,0,0,0,0,0,0,0,0,0,0,0,0,0,0,0,0,0,0,0,0,0,0,0,0,0,0,0,0,0,0,0,0,0,0,0,0,0,0,0,0,0,0,0,0,0,0,0,0,0,0,0,0,0,0,0,0,0,0,0,0,0,0,0,0,0,0,0,0,0,0,0,0,0,0,0,0,0,0,0,0,0,0,0,0,0,0,0,0,0,0,0,0,0,0,0,0,0,0,0,0,0,0,0,0,0,0,0,0,0,0,0,0,0,0,0,0,0,0,0,0,0,0,
0,0,0,0,0,0,0,0,0,0,0,0,0,0,0,0,0,0,0,0,0,0,0,0,0,0,0,0,0,0,0,0,0,0,0,0,0,0,0,0,0,0,0,0,0,0,0,0,0,0,0,0,0,0,0,0,0,0,0,0,0,0,0,0,0,0,0,0,0,0,0,0,0,0,0,92,0,0,0,0,0,0,0,0,0,0,0,0,0,0,0,0,0,0,0,0,0,0,0,0,0,0,0,0,0,0,0,0,0,0,92,0,0,0,0,0,0,0,0,0,0,0,0,0,0,0,0,0,0,0,0,0,0,0,0,0,0,0,0,0,0,0,0,0,0,0,0,0,0,0,0,0,0,0,0,0,0,0,0,0,0,0,0,0,0,0,0,0,0,0,0,0,0,0,0,0,0,0,0,0,0,0,0,0,0,0,0,0,0,0,0,0,0,0,0,0,0,0,0,0,0,0,0,0,0,0,0,0,0,0,0,0,0,0,0,0,0,0,0,0,0,0,0,0,0,0,0,0,0,0,0,0,0,0,0,0,0,0,0,0,
0,0,0,0,0,0,0,0,0,0,0,0,0,0,0,0,0,0,0,0,0,0,0,0,0,0,0,0,0,0,0,0,0,0,0,0,0,0,0,0,0,0,0,0,0,0,0,0,0,0,0,0,0,0,0,0,0,0,0,0,0,0,0,0,0,0,0,0,0,0,0,0,0,0,0,92,0,0,0,0,0,0,0,0,0,0,0,0,0,0,0,0,0,0,0,0,0,0,0,0,0,0,0,0,0,0,0,0,0,0,92,0,0,0,0,0,0,0,0,0,0,0,0,0,0,0,0,0,0,0,0,0,0,0,0,0,0,0,0,0,0,0,0,0,0,0,0,0,0,0,0,0,0,0,0,0,0,0,0,0,0,0,0,0,0,0,0,0,0,0,0,0,0,0,0,0,0,0,0,0,0,0,0,0,0,0,0,0,0,0,0,0,0,0,0,0,0,0,0,0,0,0,0,0,0,0,0,0,0,0,0,0,0,0,0,0,0,0,0,0,0,0,0,0,0,0,0,0,0,0,0,0,0,0,0,0,0,0,0,0,
0,0,0,0,0,0,0,0,0,0,0,0,0,0,0,0,0,0,0,0,0,0,0,0,0,0,0,0,0,0,0,0,0,0,0,0,0,0,0,0,0,0,0,0,0,0,0,0,0,0,0,0,0,0,0,0,0,0,0,0,0,0,0,0,0,0,0,0,0,0,0,0,0,0,0,92,0,0,0,0,0,0,0,0,0,0,0,0,0,0,0,0,0,0,0,0,0,0,0,0,0,0,0,0,0,0,0,0,0,0,92,0,0,0,0,0,0,0,0,0,0,0,0,0,0,0,0,0,0,0,0,0,0,0,0,0,0,0,0,0,0,0,0,0,0,0,0,0,0,0,0,0,0,0,0,0,0,0,0,0,0,0,0,0,0,0,0,0,0,0,0,0,0,0,0,0,0,0,0,0,0,0,0,0,0,0,0,0,0,0,0,0,0,0,0,0,0,0,0,0,0,0,0,0,0,0,0,0,0,0,0,0,0,0,0,0,0,0,0,0,0,0,0,0,0,0,0,0,0,0,0,0,0,0,0,0,0,0,0,0,
0,0,0,0,0,0,0,0,0,0,0,0,0,0,0,0,0,0,0,0,0,0,0,0,0,0,0,0,0,0,0,0,0,0,0,0,0,0,0,0,0,0,0,0,0,0,0,0,0,0,0,0,0,0,0,0,0,0,0,0,0,0,0,0,0,0,0,0,0,0,0,0,0,0,0,92,0,0,0,0,0,0,0,0,0,0,0,0,0,0,0,0,0,0,0,0,0,0,0,0,0,0,0,0,0,0,0,0,0,0,92,0,0,0,0,0,0,0,0,0,0,0,0,0,0,0,0,0,0,0,0,0,0,0,0,0,0,0,0,0,0,0,0,0,0,0,0,0,0,0,0,0,0,0,0,0,0,0,0,0,0,0,0,0,0,0,0,0,0,0,0,0,0,0,0,0,0,0,0,0,0,0,0,0,0,0,0,0,0,0,0,0,0,0,0,0,0,0,0,0,0,0,0,0,0,0,0,0,0,0,0,0,0,0,0,0,0,0,0,0,0,0,0,0,0,0,0,0,0,0,0,0,0,0,0,0,0,0,0,0,
0,0,0,0,0,0,0,0,0,0,0,0,0,0,0,0,0,0,0,0,0,0,0,0,0,0,0,0,0,0,0,0,0,0,0,0,0,0,0,0,0,0,0,0,0,0,0,0,0,0,0,0,0,0,0,0,0,0,0,0,0,0,0,0,0,0,0,0,0,0,0,0,0,0,0,92,0,0,0,0,0,0,0,0,0,0,0,0,0,0,0,0,0,0,0,0,0,0,0,0,0,0,0,0,0,0,0,0,0,0,92,0,0,0,0,0,0,0,0,0,0,0,0,0,0,0,0,0,0,0,0,0,0,0,0,0,0,0,0,0,0,0,0,0,0,0,0,0,0,0,0,0,0,0,0,0,0,0,0,0,0,0,0,0,0,0,0,0,0,0,0,0,0,0,0,0,0,0,0,0,0,0,0,0,0,0,0,0,0,0,0,0,0,0,0,0,0,0,0,0,0,0,0,0,0,0,0,0,0,0,0,0,0,0,0,0,0,0,0,0,0,0,0,0,0,0,0,0,0,0,0,0,0,0,0,0,0,0,0,0,
0,0,0,0,0,0,0,0,0,0,0,0,0,0,0,0,0,0,0,0,0,0,0,0,0,0,0,0,0,0,0,0,0,0,0,0,0,0,0,0,0,0,0,0,0,0,0,0,0,0,0,0,0,0,0,0,0,0,0,0,0,0,0,0,0,0,0,0,0,0,0,0,0,0,0,92,0,0,0,0,0,0,0,0,0,0,0,0,0,0,0,0,0,0,0,0,0,0,0,0,0,0,0,0,0,0,0,0,0,0,92,0,0,0,0,0,0,0,0,0,0,0,0,0,0,0,0,0,0,0,0,0,0,0,0,0,0,0,0,0,0,0,0,0,0,0,0,0,0,0,0,0,0,0,0,0,0,0,0,0,0,0,0,0,0,0,0,0,0,0,0,0,0,0,0,0,0,0,0,0,0,0,0,0,0,0,0,0,0,0,0,0,0,0,0,0,0,0,0,0,0,0,0,0,0,0,0,0,0,0,0,0,0,0,0,0,0,0,0,0,0,0,0,0,0,0,0,0,0,0,0,0,0,0,0,0,0,0,0,0,
0,0,0,0,0,0,0,0,0,0,0,0,0,0,0,0,0,0,0,0,0,0,0,0,0,0,0,0,0,0,0,0,0,0,0,0,0,0,0,0,0,0,0,0,0,0,0,0,0,0,0,0,0,0,0,0,0,0,0,0,0,0,0,0,0,0,0,0,0,0,0,0,0,0,0,92,0,0,0,0,0,0,0,0,0,0,0,0,0,0,0,0,0,0,0,0,0,0,0,0,0,0,0,0,0,0,0,0,0,0,92,0,0,0,0,0,0,0,0,0,0,0,0,0,0,0,0,0,0,0,0,0,0,0,0,0,0,0,0,0,0,0,0,0,0,0,0,0,0,0,0,0,0,0,0,0,0,0,0,0,0,0,0,0,0,0,0,0,0,0,0,0,0,0,0,0,0,0,0,0,0,0,0,0,0,0,0,0,0,0,0,0,0,0,0,0,0,0,0,0,0,0,0,0,0,0,0,0,0,0,0,0,0,0,0,0,0,0,0,0,0,0,0,0,0,0,0,0,0,0,0,0,0,0,0,0,0,0,0,0,
0,0,0,0,0,0,0,0,0,0,0,0,0,0,0,0,0,0,0,0,0,0,0,0,0,0,0,0,0,0,0,0,0,0,0,0,0,0,0,0,0,0,0,0,0,0,0,0,0,0,0,0,0,0,0,0,0,0,0,0,0,0,0,0,0,0,0,0,0,0,0,0,0,0,0,92,0,0,0,0,0,0,0,0,0,0,0,0,0,0,0,0,0,0,0,0,0,0,0,0,0,0,0,0,0,0,0,0,0,0,92,0,0,0,0,0,0,0,0,0,0,0,0,0,0,0,0,0,0,0,0,0,0,0,0,0,0,0,0,0,0,0,0,0,0,0,0,0,0,0,0,0,0,0,0,0,0,0,0,0,0,0,0,0,0,0,0,0,0,0,0,0,0,0,0,0,0,0,0,0,0,0,0,0,0,0,0,0,0,0,0,0,0,0,0,0,0,0,0,0,0,0,0,0,0,0,0,0,0,0,0,0,0,0,0,0,0,0,0,0,0,0,0,0,0,0,0,0,0,0,0,0,0,0,0,0,0,0,0,0,
0,0,0,0,0,0,0,0,0,0,0,0,0,0,0,0,0,0,0,0,0,0,0,0,0,0,0,0,0,0,0,0,0,0,0,0,0,0,0,0,0,0,0,0,0,0,0,0,0,0,0,0,0,0,0,0,0,0,0,0,0,0,0,0,0,0,0,0,0,0,0,0,0,0,0,92,0,0,0,0,0,0,0,0,0,0,0,0,0,0,0,0,0,0,0,0,0,0,0,0,0,0,0,0,0,0,0,0,0,0,92,0,0,0,0,0,0,0,0,0,0,0,0,0,0,0,0,0,0,0,0,0,0,0,0,0,0,0,0,0,0,0,0,0,0,0,0,0,0,0,0,0,0,0,0,0,0,0,0,0,0,0,0,0,0,0,0,0,0,0,2,91,91,91,91,91,91,91,91,91,91,91,91,91,91,91,91,91,91,91,91,91,91,91,91,91,91,91,91,3,0,0,0,0,0,0,0,0,0,0,0,0,0,0,0,0,0,0,0,0,0,0,0,0,0,0,0,0,0,0,0,0,0,0,0,0,0,0,0,0,
0,0,0,0,0,0,0,0,0,0,0,0,0,0,0,0,0,0,0,0,0,0,0,0,0,0,0,0,0,0,0,0,0,0,0,0,0,0,0,0,0,0,0,0,0,0,0,0,0,0,0,0,0,0,0,0,0,0,0,0,0,0,0,0,0,0,0,0,0,0,0,0,0,0,0,92,0,0,0,0,0,0,0,0,0,0,0,0,0,0,0,0,0,0,0,0,0,0,0,0,0,0,0,0,0,0,0,0,0,0,92,0,0,0,0,0,0,0,0,0,0,0,0,0,0,0,0,0,0,0,0,0,0,0,0,0,0,0,0,0,0,0,0,0,0,0,0,0,0,0,0,0,0,0,0,0,0,0,0,0,0,0,0,0,0,0,0,0,0,0,92,0,0,0,0,0,0,0,0,0,0,0,0,0,0,0,0,0,0,0,0,0,0,0,0,0,0,0,0,92,0,0,0,0,0,0,0,0,0,0,0,0,0,0,0,0,0,0,0,0,0,0,0,0,0,0,0,0,0,0,0,0,0,0,0,0,0,0,0,0,
0,0,0,0,0,0,0,0,0,0,0,0,0,0,0,0,0,0,0,0,0,0,0,0,0,0,0,0,0,0,0,0,0,0,0,0,0,0,0,0,0,0,0,0,0,0,0,0,0,0,0,0,0,0,0,0,0,0,0,0,0,0,0,0,0,0,0,0,0,0,0,0,0,0,0,47,91,91,91,91,91,91,91,91,91,91,91,91,91,91,91,91,91,91,91,91,91,91,91,91,91,91,91,91,91,91,51,0,0,0,95,0,0,0,0,0,0,0,0,0,0,0,0,0,0,0,0,0,0,0,0,0,0,0,0,0,0,0,0,0,0,0,0,0,0,0,0,0,0,0,0,0,0,0,0,0,0,0,0,0,0,0,0,0,0,0,0,0,0,0,92,0,0,0,0,0,0,0,0,0,0,0,0,0,0,0,0,0,0,0,0,0,0,0,0,0,0,0,0,92,0,0,0,0,0,0,0,0,0,0,0,0,0,0,0,0,0,0,0,0,0,0,0,0,0,0,0,0,0,0,0,0,0,0,0,0,0,0,0,0,
0,0,0,0,0,0,0,0,0,0,0,0,0,0,0,0,0,0,0,0,0,0,0,0,0,0,0,0,0,0,0,0,0,0,0,0,0,0,0,0,0,0,0,0,0,0,0,0,0,0,0,0,0,0,0,0,0,0,0,0,0,0,0,0,0,0,0,0,0,0,0,0,0,0,0,0,0,0,0,0,0,0,0,0,0,0,0,0,0,0,0,0,0,0,0,0,0,0,0,0,0,0,0,0,0,0,0,0,0,0,0,0,0,0,0,0,0,0,0,0,0,0,0,0,0,0,0,0,0,0,0,0,0,0,0,0,0,0,0,0,0,0,0,0,0,0,0,0,0,0,0,0,0,0,0,0,0,0,0,0,0,0,0,0,0,0,0,0,0,0,92,0,0,0,0,0,0,0,0,0,0,0,0,0,0,0,0,0,0,0,0,0,0,0,0,0,0,0,0,92,0,0,0,0,0,0,0,0,0,0,0,0,0,0,0,0,0,0,0,0,0,0,0,0,0,0,0,0,0,0,0,0,0,0,0,0,0,0,0,0,
0,0,0,0,0,0,0,0,0,0,0,0,0,0,0,0,0,0,0,0,0,0,0,0,0,0,0,0,0,0,0,0,0,0,0,0,0,0,0,0,0,0,0,0,0,0,0,0,0,0,0,0,0,0,0,0,0,0,0,0,0,0,0,0,0,0,0,0,0,0,0,0,0,0,0,0,0,0,0,0,0,0,0,0,0,0,0,0,0,0,0,0,0,0,0,0,0,0,0,0,0,0,0,0,0,0,0,0,0,0,0,0,0,0,0,0,0,0,0,0,0,0,0,0,0,0,0,0,0,0,0,0,0,0,0,0,0,0,0,0,0,0,0,0,0,0,0,0,0,0,0,0,0,0,0,0,0,0,0,0,0,0,0,0,0,0,0,0,0,0,92,0,0,0,0,0,0,0,0,0,0,0,0,0,0,0,0,0,0,0,0,0,0,0,0,0,0,0,0,92,0,0,0,0,0,0,0,0,0,0,0,0,0,0,0,0,0,0,0,0,0,0,0,0,0,0,0,0,0,0,0,0,0,0,0,0,0,0,0,0,
0,0,0,0,0,0,0,0,0,0,0,0,0,0,0,0,0,0,0,0,0,0,0,0,0,0,0,0,0,0,0,0,0,0,0,0,0,0,0,0,0,0,0,0,0,0,0,0,0,0,0,0,0,0,0,0,0,0,0,0,0,0,0,0,0,0,0,0,0,0,0,0,0,0,0,2,91,91,91,91,91,91,91,91,91,91,91,91,91,91,91,91,91,91,91,91,91,91,3,0,0,0,0,0,0,0,0,0,0,0,0,0,0,0,0,0,0,0,0,0,0,0,0,0,0,0,0,0,0,0,0,0,0,0,0,0,0,0,0,0,0,0,0,0,0,0,0,0,0,0,0,0,0,0,0,0,0,0,0,0,0,0,0,0,0,0,0,0,0,0,92,0,0,0,0,0,0,0,0,0,0,0,0,0,0,0,0,0,0,0,0,0,0,0,0,0,0,0,0,92,0,0,0,0,0,0,0,0,0,0,0,0,0,0,0,0,0,0,0,0,0,0,0,0,0,0,0,0,0,0,0,0,0,0,0,0,0,0,0,0,
0,0,0,0,0,0,0,0,0,0,0,0,0,0,0,0,0,0,0,0,0,0,0,0,0,0,0,0,0,0,0,0,0,0,0,0,0,0,0,0,0,0,0,0,0,0,0,0,0,0,0,0,0,0,0,0,0,0,0,0,0,0,0,0,0,0,0,0,0,0,0,0,0,0,0,92,0,0,0,0,0,0,0,0,0,0,0,0,0,0,0,0,0,0,0,0,0,0,92,0,0,0,0,0,0,0,0,0,0,0,0,0,0,0,0,0,0,0,0,0,0,0,0,0,0,0,0,0,0,0,0,0,0,0,0,0,0,0,0,0,0,0,0,0,0,0,0,0,0,0,0,0,0,0,0,0,0,0,0,0,0,0,0,0,0,0,0,0,0,0,92,0,0,0,0,0,0,0,0,0,0,0,0,0,0,0,0,0,0,0,0,0,0,0,0,0,0,0,0,92,0,0,0,0,0,0,0,0,0,0,0,0,0,0,0,0,0,0,0,0,0,0,0,0,0,0,0,0,0,0,0,0,0,0,0,0,0,0,0,0,
0,0,0,0,0,0,0,0,0,0,0,0,0,0,0,0,0,0,0,0,0,0,0,0,0,0,0,0,0,0,0,0,0,0,0,0,0,0,0,0,0,0,0,0,0,0,0,0,0,0,0,0,0,0,0,0,0,0,0,0,0,0,0,0,0,0,0,0,0,0,0,0,0,0,0,92,0,0,0,0,0,0,0,0,0,0,0,0,0,0,0,0,0,0,0,0,0,0,92,0,0,0,0,0,0,0,0,0,0,0,0,0,0,0,0,0,0,0,0,0,0,0,0,0,0,0,0,0,0,0,0,0,0,0,0,0,0,0,0,0,0,0,0,0,0,0,0,0,0,0,0,0,0,0,0,0,0,0,0,0,0,0,0,0,0,0,0,0,0,0,92,0,0,0,0,0,0,0,0,0,0,0,0,0,0,0,0,0,0,0,0,0,0,0,0,0,0,0,0,92,0,0,0,0,0,0,0,0,0,0,0,0,0,0,0,0,0,0,0,0,0,0,0,0,0,0,0,0,0,0,0,0,0,0,0,0,0,0,0,0,
0,0,0,0,0,0,0,0,0,0,0,0,0,0,0,0,0,0,0,0,0,0,0,0,0,0,0,0,0,0,0,0,0,0,0,0,0,0,0,0,0,0,0,0,0,0,0,0,0,0,0,0,0,0,0,0,0,0,0,0,0,0,0,0,0,0,0,0,0,0,0,0,0,0,0,92,0,0,0,0,0,0,0,0,0,0,0,0,0,0,0,0,0,0,0,0,0,0,92,0,0,0,0,0,0,0,0,0,0,0,0,0,0,0,0,0,0,0,0,0,0,0,0,0,0,0,0,0,0,0,0,0,0,0,0,0,0,0,0,0,0,0,0,0,0,0,0,0,0,0,0,0,0,0,0,0,0,0,0,0,0,0,0,0,0,0,0,0,0,0,92,0,0,0,0,0,0,0,0,0,0,0,0,0,0,0,0,0,0,0,0,0,0,0,0,0,0,0,0,92,0,0,0,0,0,0,0,0,0,0,0,0,0,0,0,0,0,0,0,0,0,0,0,0,0,0,0,0,0,0,0,0,0,0,0,0,0,0,0,0,
0,0,0,0,0,0,0,0,0,0,0,0,0,0,0,0,0,0,0,0,0,0,0,0,0,0,0,0,0,0,0,0,0,0,0,0,0,0,0,0,0,0,0,0,0,0,0,0,0,0,0,0,0,0,0,0,0,0,0,0,0,0,0,0,0,0,0,0,0,0,0,0,0,0,0,92,0,0,0,0,0,0,0,0,0,0,0,0,0,0,0,0,0,0,0,0,0,0,92,0,0,0,0,0,0,0,0,0,0,0,0,0,0,0,0,0,0,0,0,0,0,0,0,0,0,0,0,0,0,0,0,0,0,0,0,0,0,0,0,0,0,0,0,0,0,0,0,0,0,0,0,0,0,0,0,0,0,0,0,0,0,0,0,0,0,0,0,0,0,0,92,0,0,0,0,0,0,0,0,0,0,0,0,0,0,0,0,0,0,0,0,0,0,0,0,0,0,0,0,92,0,0,0,0,0,0,0,0,0,0,0,0,0,0,0,0,0,0,0,0,0,0,0,0,0,0,0,0,0,0,0,0,0,0,0,0,0,0,0,0,
0,0,0,0,0,0,0,0,0,0,0,0,0,0,0,0,0,0,0,0,0,0,0,0,0,0,0,0,0,0,0,0,0,0,0,0,0,0,0,0,0,0,0,0,0,0,0,0,0,0,0,0,0,0,0,0,0,0,0,0,0,0,0,0,0,0,0,0,0,0,0,0,0,0,0,92,0,0,0,0,0,0,0,0,0,0,0,0,0,0,0,0,0,0,0,0,0,0,92,0,0,0,0,0,0,0,0,0,0,0,0,0,0,0,0,0,0,0,0,0,0,0,0,0,0,0,0,0,0,0,0,0,0,0,0,0,0,0,0,0,0,0,0,0,0,0,0,0,0,0,0,0,0,0,0,0,0,0,0,0,0,0,0,0,0,0,0,0,0,0,92,0,0,0,0,0,0,0,0,0,0,0,0,0,0,0,0,0,0,0,0,0,0,0,0,0,0,0,0,92,0,0,0,0,0,0,0,0,0,0,0,0,0,0,0,0,0,0,0,0,0,0,0,0,0,0,0,0,0,0,0,0,0,0,0,0,0,0,0,0,
0,0,0,0,0,0,0,0,0,0,0,0,0,0,0,0,0,0,0,0,0,0,0,0,0,0,0,0,0,0,0,0,0,0,0,0,0,0,0,0,0,0,0,0,0,0,0,0,0,0,0,0,0,0,0,0,0,0,0,0,0,0,2,91,91,91,91,91,91,91,91,91,91,91,91,54,0,0,0,0,0,0,0,0,0,0,0,0,0,0,0,0,0,0,0,0,0,0,92,0,0,0,0,0,0,0,0,0,0,0,0,0,0,0,0,0,0,0,0,0,0,0,0,0,0,0,0,0,0,0,0,0,0,0,0,0,0,0,0,0,0,0,0,0,0,0,0,0,0,0,0,0,0,0,0,0,0,0,0,0,0,0,0,0,0,0,0,0,0,0,92,0,0,0,0,0,0,0,0,0,0,0,0,0,0,0,0,0,0,0,0,0,0,0,0,0,0,0,0,92,0,0,0,0,0,0,0,0,0,0,0,0,0,0,0,0,0,0,0,0,0,0,0,0,0,0,0,0,0,0,0,0,0,0,0,0,0,0,0,0,
0,0,0,0,0,0,0,0,0,0,0,0,0,0,0,0,0,0,0,0,0,0,0,0,0,0,0,0,0,0,0,0,0,0,0,0,0,0,0,0,0,0,0,0,0,0,0,0,0,0,0,0,0,0,0,0,0,0,0,0,0,0,92,0,0,0,0,0,0,0,0,0,0,0,0,92,0,0,0,0,0,0,0,0,0,0,0,0,0,0,0,0,0,0,0,0,0,0,92,0,0,0,0,0,0,0,0,0,0,0,0,0,0,0,0,0,0,0,0,0,0,0,0,0,0,0,0,0,0,0,0,0,0,0,0,0,0,0,0,0,0,0,0,0,0,0,0,0,0,0,0,0,0,0,0,0,0,0,0,0,0,0,0,0,0,0,0,0,0,0,92,0,0,0,0,0,0,0,0,0,0,0,0,0,0,0,0,0,0,0,0,0,0,0,0,0,0,0,0,92,0,0,0,0,0,0,0,0,0,0,0,0,0,0,0,0,0,0,0,0,0,0,0,0,0,0,0,0,0,0,0,0,0,0,0,0,0,0,0,0,
0,0,0,0,0,0,0,0,0,0,0,0,0,0,0,0,0,0,0,0,0,0,0,0,0,0,0,0,0,0,0,0,0,0,0,0,0,0,0,0,0,0,0,0,0,0,0,0,0,0,0,0,0,0,0,0,0,0,0,0,0,0,92,0,0,0,0,0,0,0,0,0,0,0,0,92,0,0,0,0,0,0,0,0,0,0,0,0,0,0,0,0,0,0,0,0,0,0,92,0,0,0,0,0,0,0,0,0,0,0,0,0,0,0,0,0,0,0,0,0,0,0,0,0,0,0,0,0,0,0,0,0,0,0,0,0,0,0,0,0,0,0,0,0,0,0,0,0,0,0,0,0,0,0,0,0,0,0,0,0,0,0,0,0,0,0,0,0,0,0,92,0,0,0,0,0,0,0,0,0,0,0,0,0,0,0,0,0,0,0,0,0,0,0,0,0,0,0,0,92,0,0,0,0,0,0,0,0,0,0,0,0,0,0,0,0,0,0,0,0,0,0,0,0,0,0,0,0,0,0,0,0,0,0,0,0,0,0,0,0,
0,0,0,0,0,0,0,0,0,0,0,0,0,0,0,0,0,0,0,0,0,0,0,0,0,0,0,0,0,0,0,0,0,0,0,0,0,0,0,0,0,0,0,0,0,0,0,0,0,0,0,0,0,0,0,0,0,0,0,0,0,0,92,0,0,0,0,0,0,0,0,0,0,0,0,92,0,0,0,0,0,0,0,0,0,0,0,0,0,0,0,0,0,0,0,0,0,0,92,0,0,0,0,0,0,0,0,0,0,0,0,0,0,0,0,0,0,0,0,0,0,0,0,0,0,0,0,0,0,0,0,0,0,0,0,0,0,0,0,0,0,0,0,0,0,0,0,0,0,0,0,0,0,0,0,0,0,0,0,0,0,0,0,0,0,0,0,0,0,0,92,0,0,0,0,0,0,0,0,0,0,0,0,0,0,0,0,0,0,0,0,0,0,0,0,0,0,0,0,92,0,0,0,0,0,0,0,0,0,0,0,0,0,0,0,0,0,0,0,0,0,0,0,0,0,0,0,0,0,0,0,0,0,0,0,0,0,0,0,0,
0,0,0,0,0,0,0,0,0,0,0,0,0,0,0,0,0,0,0,0,0,0,0,0,0,0,0,0,0,0,0,0,0,0,0,0,0,0,0,0,0,0,0,0,0,0,0,0,0,0,0,0,0,0,0,0,0,0,0,0,0,0,92,0,0,0,0,0,0,0,0,0,0,0,0,92,0,0,0,0,0,0,0,0,0,0,0,0,0,0,0,0,0,0,0,0,0,0,92,0,0,0,0,0,0,0,0,0,0,0,0,0,0,0,0,0,0,0,0,0,0,0,0,0,0,0,0,0,0,0,0,0,0,0,0,0,0,0,0,0,0,0,0,0,0,0,0,0,0,0,0,0,0,0,0,0,0,0,0,0,0,0,0,0,0,0,0,0,0,0,92,0,0,0,0,0,0,0,0,0,0,0,0,0,0,0,0,0,0,0,0,0,0,0,0,0,0,0,0,92,0,0,0,0,0,0,0,0,0,0,0,0,0,0,0,0,0,0,0,0,0,0,0,0,0,0,0,0,0,0,0,0,0,0,0,0,0,0,0,0,
0,0,0,0,0,0,0,0,0,0,0,0,0,0,0,0,0,0,0,0,0,0,0,0,0,0,0,0,0,0,0,0,0,0,0,0,0,0,0,0,0,0,0,0,0,0,0,0,0,0,0,0,0,0,0,0,0,0,0,0,0,0,92,0,0,0,0,0,0,0,0,0,0,0,0,92,0,0,0,0,0,0,0,0,0,0,0,0,0,0,0,0,0,0,0,0,0,0,92,0,0,0,0,0,0,0,0,0,0,0,0,0,0,0,0,0,0,0,0,0,0,0,0,0,0,0,0,0,0,0,0,0,0,0,0,0,0,0,0,0,0,0,0,0,0,0,0,0,0,0,0,0,0,0,0,0,0,0,0,0,0,0,0,0,0,0,0,0,0,0,92,0,0,0,0,0,0,0,0,0,0,0,0,0,0,0,0,0,0,0,0,0,0,0,0,0,0,0,0,92,0,0,0,0,0,0,0,0,0,0,0,0,0,0,0,0,0,0,0,0,0,0,0,0,0,0,0,0,0,0,0,0,0,0,0,0,0,0,0,0,
0,0,0,0,0,0,0,0,0,0,0,0,0,0,0,0,0,0,0,0,0,0,0,0,0,0,0,0,0,0,0,0,0,0,0,0,0,0,0,0,0,0,0,0,0,0,0,0,0,0,0,0,0,0,0,0,0,0,0,0,0,0,92,0,0,0,0,0,0,0,0,0,0,0,0,92,0,0,0,0,0,0,0,0,0,0,0,0,0,0,0,0,0,0,0,0,0,0,92,0,0,0,0,0,0,0,0,0,0,0,0,0,0,0,0,0,0,0,0,0,0,0,0,0,0,0,0,0,0,0,0,0,0,0,0,0,0,0,0,0,0,0,0,0,0,0,0,0,0,0,0,0,0,0,0,0,0,0,0,0,0,0,0,0,0,0,0,0,0,0,92,0,0,0,0,0,0,0,0,0,0,0,0,0,0,0,0,0,0,0,0,0,0,0,0,0,0,0,0,92,0,0,0,0,0,0,0,0,0,0,0,0,0,0,0,0,0,0,0,0,0,0,0,0,0,0,0,0,0,0,0,0,0,0,0,0,0,0,0,0,
0,0,0,0,0,0,0,0,0,0,0,0,0,0,0,0,0,0,0,0,0,0,0,0,0,0,0,0,0,0,0,0,0,0,0,0,0,0,0,0,0,0,0,0,0,0,0,0,0,0,0,0,0,0,0,0,0,0,0,0,0,0,92,0,0,0,0,0,0,0,0,0,0,0,0,95,0,0,0,0,0,0,0,0,0,0,0,0,0,0,0,0,0,0,0,0,0,0,92,0,0,0,0,0,0,0,0,0,0,0,0,0,0,0,0,0,0,0,0,0,0,0,0,0,0,0,0,0,0,0,0,0,0,0,0,0,0,0,0,0,0,0,0,0,0,0,0,0,0,0,0,0,0,0,0,0,0,0,0,0,0,0,0,0,0,0,0,0,0,0,92,0,0,0,0,0,0,0,0,0,0,0,0,0,0,0,0,0,0,0,0,0,0,0,0,0,0,0,0,92,0,0,0,0,0,0,0,0,0,0,0,0,0,0,0,0,0,0,0,0,0,0,0,0,0,0,0,0,0,0,0,0,0,0,0,0,0,0,0,0,
0,0,0,0,0,0,0,0,0,0,0,0,0,0,0,0,0,0,0,0,0,0,0,0,0,0,0,0,0,0,0,0,0,0,0,0,0,0,0,0,0,0,0,0,0,0,0,0,0,0,0,0,0,0,0,0,0,0,0,0,0,0,92,0,0,0,0,0,0,0,0,0,0,0,0,0,0,0,0,0,0,0,0,0,0,0,0,0,0,0,0,0,0,0,0,0,0,0,92,0,0,0,0,0,0,0,0,0,0,0,0,0,0,0,0,0,0,0,0,0,0,0,0,0,0,0,0,0,0,0,0,0,0,0,0,0,0,0,0,0,0,0,0,0,0,0,0,0,0,0,0,0,0,0,0,0,0,0,0,0,0,0,0,0,0,0,0,0,0,0,47,91,91,91,91,91,91,91,91,91,91,91,91,91,91,3,0,0,0,0,0,0,0,0,0,0,0,0,0,92,0,0,0,0,0,0,0,0,0,0,0,0,0,0,0,0,0,0,0,0,0,0,0,0,0,0,0,0,0,0,0,0,0,0,0,0,0,0,0,0,
0,0,0,0,0,0,0,0,0,0,0,0,0,0,0,0,0,0,0,0,0,0,0,0,0,0,0,0,0,0,0,0,0,0,0,0,0,0,0,0,0,0,0,0,0,0,0,0,0,0,0,0,0,0,0,0,0,0,0,0,0,0,92,0,0,0,0,0,0,0,0,0,0,0,0,0,0,0,0,0,0,0,0,0,0,0,0,0,0,0,0,0,0,0,0,0,0,0,92,0,0,0,0,0,0,0,0,0,0,0,0,0,0,0,0,0,0,0,0,0,0,0,0,0,0,0,0,0,0,0,0,0,0,0,0,0,0,0,0,0,0,0,0,0,0,0,0,0,0,0,0,0,0,0,0,0,0,0,0,0,0,0,0,0,0,0,0,0,0,0,0,0,0,0,0,0,0,0,0,0,0,0,0,0,0,92,0,0,0,0,0,0,0,0,0,0,0,0,0,92,0,0,0,0,0,0,0,0,0,0,0,0,0,0,0,0,0,0,0,0,0,0,0,0,0,0,0,0,0,0,0,0,0,0,0,0,0,0,0,0,
0,0,0,0,0,0,0,0,0,0,0,0,0,0,0,0,0,0,0,0,0,0,0,0,0,0,0,0,0,0,0,0,0,0,0,0,0,0,0,0,0,0,0,0,0,0,0,0,0,0,0,0,0,0,0,0,0,0,0,0,0,0,92,0,0,0,0,0,0,0,0,0,0,0,0,5,0,0,0,0,0,0,0,0,0,0,0,0,0,0,0,0,0,0,0,0,0,0,92,0,0,0,0,0,0,0,0,0,0,0,0,0,0,0,0,0,0,0,0,0,0,0,0,0,0,0,0,0,0,0,0,0,0,0,0,0,0,0,0,0,0,0,0,0,0,0,0,0,0,0,0,0,0,0,0,0,0,0,0,0,0,0,0,0,0,0,0,0,0,0,0,0,0,0,0,0,0,0,0,0,0,0,0,0,0,92,0,0,0,0,0,0,0,0,0,0,0,0,0,92,0,0,0,0,0,0,0,0,0,0,0,0,0,0,0,0,0,0,0,0,0,0,0,0,0,0,0,0,0,0,0,0,0,0,0,0,0,0,0,0,
0,0,0,0,0,0,0,0,0,0,0,0,0,0,0,0,0,0,0,0,0,0,0,0,0,0,0,0,0,0,0,0,0,0,0,0,0,0,0,0,0,0,0,0,0,0,0,0,0,0,0,0,0,0,0,0,0,0,0,0,0,0,47,91,91,91,91,91,91,91,91,91,91,91,91,98,91,91,91,91,91,91,91,91,91,91,91,51,0,0,0,49,91,91,91,91,91,91,48,0,0,0,0,0,0,0,0,0,0,0,0,0,0,0,0,0,0,0,0,0,0,0,0,0,0,0,0,0,0,0,0,0,0,0,0,0,0,0,0,0,0,0,0,0,0,0,0,0,0,0,0,0,0,0,0,0,0,0,0,0,0,0,0,0,0,0,0,0,0,0,0,0,0,0,0,0,0,0,0,0,0,0,0,0,0,95,0,0,0,0,0,0,0,0,0,0,0,0,0,92,0,0,0,0,0,0,0,0,0,0,0,0,0,0,0,0,0,0,0,0,0,0,0,0,0,0,0,0,0,0,0,0,0,0,0,0,0,0,0,0,
0,0,0,0,0,0,0,0,0,0,0,0,0,0,0,0,0,0,0,0,0,0,0,0,0,0,0,0,0,0,0,0,0,0,0,0,0,0,0,0,0,0,0,0,0,0,0,0,0,0,0,0,0,0,0,0,0,0,0,0,0,0,0,0,0,0,0,0,0,0,0,0,0,0,0,0,0,0,0,0,0,0,0,0,0,0,0,0,0,0,0,0,0,0,0,0,0,0,0,0,0,0,0,0,0,0,0,0,0,0,0,0,0,0,0,0,0,0,0,0,0,0,0,0,0,0,0,0,0,0,0,0,0,0,0,0,0,0,0,0,0,0,0,0,0,0,0,0,0,0,0,0,0,0,0,0,0,0,0,0,0,0,0,0,0,0,0,0,0,0,0,0,0,0,0,0,0,0,0,0,0,0,0,0,0,0,0,0,0,0,0,0,0,0,0,0,0,0,0,92,0,0,0,0,0,0,0,0,0,0,0,0,0,0,0,0,0,0,0,0,0,0,0,0,0,0,0,0,0,0,0,0,0,0,0,0,0,0,0,0,
0,0,0,0,0,0,0,0,0,0,0,0,0,0,0,0,0,0,0,0,0,0,0,0,0,0,0,0,0,0,0,0,0,0,0,0,0,0,0,0,0,0,0,0,0,0,0,0,0,0,0,0,0,0,0,0,0,0,0,0,0,0,0,0,0,0,0,0,0,0,0,0,0,0,0,0,0,0,0,0,0,0,0,0,0,0,0,0,0,0,0,0,0,0,0,0,0,0,0,0,0,0,0,0,0,0,0,0,0,0,0,0,0,0,0,0,0,0,0,0,0,0,0,0,0,0,0,0,0,0,0,0,0,0,0,0,0,0,0,0,0,0,0,0,0,0,0,0,0,0,0,0,0,0,0,0,0,0,0,0,0,0,0,0,0,0,0,0,0,0,0,0,0,0,0,0,0,0,0,0,0,0,0,0,0,0,0,0,0,0,0,0,0,0,0,0,0,0,0,92,0,0,0,0,0,0,0,0,0,0,0,0,0,0,0,0,0,0,0,0,0,0,0,0,0,0,0,0,0,0,0,0,0,0,0,0,0,0,0,0,
0,0,0,0,0,0,0,0,0,0,0,0,0,0,0,0,0,0,0,0,0,0,0,0,0,0,0,0,0,0,0,0,0,0,0,0,0,0,0,0,0,0,0,0,0,0,0,0,0,0,0,0,0,0,0,0,0,0,0,0,0,0,0,0,0,0,0,0,0,0,0,0,0,0,0,0,0,0,0,0,0,0,0,0,0,0,0,0,0,0,0,0,0,0,0,0,0,0,0,0,0,0,0,0,0,0,0,0,0,0,0,0,0,0,0,0,0,0,0,0,0,0,0,0,0,0,0,0,0,0,0,0,0,0,0,0,0,0,0,0,0,0,0,0,0,0,0,0,0,0,0,0,0,0,0,0,0,0,0,0,0,0,0,0,0,0,0,0,0,0,0,0,0,0,0,0,0,0,0,0,0,0,0,0,0,0,0,0,0,0,0,0,0,0,0,0,0,0,0,92,0,0,0,0,0,0,0,0,0,0,0,0,0,0,0,0,0,0,0,0,0,0,0,0,0,0,0,0,0,0,0,0,0,0,0,0,0,0,0,0,
0,0,0,0,0,0,0,0,0,0,0,0,0,0,0,0,0,0,0,0,0,0,0,0,0,0,0,0,0,0,0,0,0,0,0,0,0,0,0,0,0,0,0,0,0,0,0,0,0,0,0,0,0,0,0,0,0,0,0,0,0,0,0,0,0,0,0,0,0,0,0,0,0,0,0,0,0,0,0,0,0,0,0,0,0,0,0,0,0,0,0,0,0,0,0,0,0,0,0,0,0,0,0,0,0,0,0,0,0,0,0,0,0,0,0,0,0,0,0,0,0,0,0,0,0,0,0,0,0,0,0,0,0,0,0,0,0,0,0,0,0,0,0,0,0,0,0,0,0,0,0,0,0,0,0,0,0,0,0,0,0,0,0,0,0,0,0,0,0,0,0,0,0,0,0,0,0,0,0,0,0,0,0,0,0,5,0,0,0,0,0,0,0,0,0,0,0,0,0,92,0,0,0,0,0,0,0,0,0,0,0,0,0,0,0,0,0,0,0,0,0,0,0,0,0,0,0,0,0,0,0,0,0,0,0,0,0,0,0,0,
0,0,0,0,0,0,0,0,0,0,0,0,0,0,0,0,0,0,0,0,0,0,0,0,0,0,0,0,0,0,0,0,0,0,0,0,0,0,0,0,0,0,0,0,0,0,0,0,0,0,0,0,0,0,0,0,0,0,0,0,0,0,0,0,0,0,0,0,0,0,0,0,0,0,0,0,0,0,0,0,0,0,0,0,0,0,0,0,0,0,0,0,0,0,0,0,0,0,0,0,0,0,0,0,0,0,0,0,0,0,0,0,0,0,0,0,0,0,0,0,0,0,0,0,0,0,0,0,0,0,0,0,0,0,0,0,0,0,0,0,0,0,0,0,0,0,0,0,0,0,0,0,0,0,0,0,0,0,0,0,0,0,0,0,0,0,0,0,0,0,0,0,0,0,0,0,0,0,0,0,0,0,0,0,0,92,0,0,0,0,0,0,0,0,0,0,0,0,0,92,0,0,0,0,0,0,0,0,0,0,0,0,0,0,0,0,0,0,0,0,0,0,0,0,0,0,0,0,0,0,0,0,0,0,0,0,0,0,0,0,
0,0,0,0,0,0,0,0,0,0,0,0,0,0,0,0,0,0,0,0,0,0,0,0,0,0,0,0,0,0,0,0,0,0,0,0,0,0,0,0,0,0,0,0,0,0,0,0,0,0,0,0,0,0,0,0,0,0,0,0,0,0,0,0,0,0,0,0,0,0,0,0,0,0,0,0,0,0,0,0,0,0,0,0,0,0,0,0,0,0,0,0,0,0,0,0,0,0,0,0,0,0,0,0,0,0,0,0,0,0,0,0,0,0,0,0,0,0,0,0,0,0,0,0,0,0,0,0,0,0,0,0,0,0,0,0,0,0,0,0,0,0,0,0,0,0,0,0,0,0,0,0,0,0,0,0,0,0,0,0,0,0,0,0,0,0,0,0,0,0,0,0,0,0,0,0,0,0,0,0,0,0,0,0,0,47,91,91,91,91,91,91,91,91,91,91,91,91,91,48,0,0,0,0,0,0,0,0,0,0,0,0,0,0,0,0,0,0,0,0,0,0,0,0,0,0,0,0,0,0,0,0,0,0,0,0,0,0,0,0,
0,0,0,0,0,0,0,0,0,0,0,0,0,0,0,0,0,0,0,0,0,0,0,0,0,0,0,0,0,0,0,0,0,0,0,0,0,0,0,0,0,0,0,0,0,0,0,0,0,0,0,0,0,0,0,0,0,0,0,0,0,0,0,0,0,0,0,0,0,0,0,0,0,0,0,0,0,0,0,0,0,0,0,0,0,0,0,0,0,0,0,0,0,0,0,0,0,0,0,0,0,0,0,0,0,0,0,0,0,0,0,0,0,0,0,0,0,0,0,0,0,0,0,0,0,0,0,0,0,0,0,0,0,0,0,0,0,0,0,0,0,0,0,0,0,0,0,0,0,0,0,0,0,0,0,0,0,0,0,0,0,0,0,0,0,0,0,0,0,0,0,0,0,0,0,0,0,0,0,0,0,0,0,0,0,0,0,0,0,0,0,0,0,0,0,0,0,0,0,0,0,0,0,0,0,0,0,0,0,0,0,0,0,0,0,0,0,0,0,0,0,0,0,0,0,0,0,0,0,0,0,0,0,0,0,0,0,0,0,0,
0,0,0,0,0,0,0,0,0,0,0,0,0,0,0,0,0,0,0,0,0,0,0,0,0,0,0,0,0,0,0,0,0,0,0,0,0,0,0,0,0,0,0,0,0,0,0,0,0,0,0,0,0,0,0,0,0,0,0,0,0,0,0,0,0,0,0,0,0,0,0,0,0,0,0,0,0,0,0,0,0,0,0,0,0,0,0,0,0,0,0,0,0,0,0,0,0,0,0,0,0,0,0,0,0,0,0,0,0,0,0,0,0,0,0,0,0,0,0,0,0,0,0,0,0,0,0,0,0,0,0,0,0,0,0,0,0,0,0,0,0,0,0,0,0,0,0,0,0,0,0,0,0,0,0,0,0,0,0,0,0,0,0,0,0,0,0,0,0,0,0,0,0,0,0,0,0,0,0,0,0,0,0,0,0,0,0,0,0,0,0,0,0,0,0,0,0,0,0,0,0,0,0,0,0,0,0,0,0,0,0,0,0,0,0,0,0,0,0,0,0,0,0,0,0,0,0,0,0,0,0,0,0,0,0,0,0,0,0,0,
0,0,0,0,0,0,0,0,0,0,0,0,0,0,0,0,0,0,0,0,0,0,0,0,0,0,0,0,0,0,0,0,0,0,0,0,0,0,0,0,0,0,0,0,0,0,0,0,0,0,0,0,0,0,0,0,0,0,0,0,0,0,0,0,0,0,0,0,0,0,0,0,0,0,0,0,0,0,0,0,0,0,0,0,0,0,0,0,0,0,0,0,0,0,0,0,0,0,0,0,0,0,0,0,0,0,0,0,0,0,0,0,0,0,0,0,0,0,0,0,0,0,0,0,0,0,0,0,0,0,0,0,0,0,0,0,0,0,0,0,0,0,0,0,0,0,0,0,0,0,0,0,0,0,0,0,0,0,0,0,0,0,0,0,0,0,0,0,0,0,0,0,0,0,0,0,0,0,0,0,0,0,0,0,0,0,0,0,0,0,0,0,0,0,0,0,0,0,0,0,0,0,0,0,0,0,0,0,0,0,0,0,0,0,0,0,0,0,0,0,0,0,0,0,0,0,0,0,0,0,0,0,0,0,0,0,0,0,0,0,
0,0,0,0,0,0,0,0,0,0,0,0,0,0,0,0,0,0,0,0,0,0,0,0,0,0,0,0,0,0,0,0,0,0,0,0,0,0,0,0,0,0,0,0,0,0,0,0,0,0,0,0,0,0,0,0,0,0,0,0,0,0,0,0,0,0,0,0,0,0,0,0,0,0,0,0,0,0,0,0,0,0,0,0,0,0,0,0,0,0,0,0,0,0,0,0,0,0,0,0,0,0,0,0,0,0,0,0,0,0,0,0,0,0,0,0,0,0,0,0,0,0,0,0,0,0,0,0,0,0,0,0,0,0,0,0,0,0,0,0,0,0,0,0,0,0,0,0,0,0,0,0,0,0,0,0,0,0,0,0,0,0,0,0,0,0,0,0,0,0,0,0,0,0,0,0,0,0,0,0,0,0,0,0,0,0,0,0,0,0,0,0,0,0,0,0,0,0,0,0,0,0,0,0,0,0,0,0,0,0,0,0,0,0,0,0,0,0,0,0,0,0,0,0,0,0,0,0,0,0,0,0,0,0,0,0,0,0,0,0,
0,0,0,0,0,0,0,0,0,0,0,0,0,0,0,0,0,0,0,0,0,0,0,0,0,0,0,0,0,0,0,0,0,0,0,0,0,0,0,0,0,0,0,0,0,0,0,0,0,0,0,0,0,0,0,0,0,0,0,0,0,0,0,0,0,0,0,0,0,0,0,0,0,0,0,0,0,0,0,0,0,0,0,0,0,0,0,0,0,0,0,0,0,0,0,0,0,0,0,0,0,0,0,0,0,0,0,0,0,0,0,0,0,0,0,0,0,0,0,0,0,0,0,0,0,0,0,0,0,0,0,0,0,0,0,0,0,0,0,0,0,0,0,0,0,0,0,0,0,0,0,0,0,0,0,0,0,0,0,0,0,0,0,0,0,0,0,0,0,0,0,0,0,0,0,0,0,0,0,0,0,0,0,0,0,0,0,0,0,0,0,0,0,0,0,0,0,0,0,0,0,0,0,0,0,0,0,0,0,0,0,0,0,0,0,0,0,0,0,0,0,0,0,0,0,0,0,0,0,0,0,0,0,0,0,0,0,0,0,0,
0,0,0,0,0,0,0,0,0,0,0,0,0,0,0,0,0,0,0,0,0,0,0,0,0,0,0,0,0,0,0,0,0,0,0,0,0,0,0,0,0,0,0,0,0,0,0,0,0,0,0,0,0,0,0,0,0,0,0,0,0,0,0,0,0,0,0,0,0,0,0,0,0,0,0,0,0,0,0,0,0,0,0,0,0,0,0,0,0,0,0,0,0,0,0,0,0,0,0,0,0,0,0,0,0,0,0,0,0,0,0,0,0,0,0,0,0,0,0,0,0,0,0,0,0,0,0,0,0,0,0,0,0,0,0,0,0,0,0,0,0,0,0,0,0,0,0,0,0,0,0,0,0,0,0,0,0,0,0,0,0,0,0,0,0,0,0,0,0,0,0,0,0,0,0,0,0,0,0,0,0,0,0,0,0,0,0,0,0,0,0,0,0,0,0,0,0,0,0,0,0,0,0,0,0,0,0,0,0,0,0,0,0,0,0,0,0,0,0,0,0,0,0,0,0,0,0,0,0,0,0,0,0,0,0,0,0,0,0,0,
0,0,0,0,0,0,0,0,0,0,0,0,0,0,0,0,0,0,0,0,0,0,0,0,0,0,0,0,0,0,0,0,0,0,0,0,0,0,0,0,0,0,0,0,0,0,0,0,0,0,0,0,0,0,0,0,0,0,0,0,0,0,0,0,0,0,0,0,0,0,0,0,0,0,0,0,0,0,0,0,0,0,0,0,0,0,0,0,0,0,0,0,0,0,0,0,0,0,0,0,0,0,0,0,0,0,0,0,0,0,0,0,0,0,0,0,0,0,0,0,0,0,0,0,0,0,0,0,0,0,0,0,0,0,0,0,0,0,0,0,0,0,0,0,0,0,0,0,0,0,0,0,0,0,0,0,0,0,0,0,0,0,0,0,0,0,0,0,0,0,0,0,0,0,0,0,0,0,0,0,0,0,0,0,0,0,0,0,0,0,0,0,0,0,0,0,0,0,0,0,0,0,0,0,0,0,0,0,0,0,0,0,0,0,0,0,0,0,0,0,0,0,0,0,0,0,0,0,0,0,0,0,0,0,0,0,0,0,0,0,
0,0,0,0,0,0,0,0,0,0,0,0,0,0,0,0,0,0,0,0,0,0,0,0,0,0,0,0,0,0,0,0,0,0,0,0,0,0,0,0,0,0,0,0,0,0,0,0,0,0,0,0,0,0,0,0,0,0,0,0,0,0,0,0,0,0,0,0,0,0,0,0,0,0,0,0,0,0,0,0,0,0,0,0,0,0,0,0,0,0,0,0,0,0,0,0,0,0,0,0,0,0,0,0,0,0,0,0,0,0,0,0,0,0,0,0,0,0,0,0,0,0,0,0,0,0,0,0,0,0,0,0,0,0,0,0,0,0,0,0,0,0,0,0,0,0,0,0,0,0,0,0,0,0,0,0,0,0,0,0,0,0,0,0,0,0,0,0,0,0,0,0,0,0,0,0,0,0,0,0,0,0,0,0,0,0,0,0,0,0,0,0,0,0,0,0,0,0,0,0,0,0,0,0,0,0,0,0,0,0,0,0,0,0,0,0,0,0,0,0,0,0,0,0,0,0,0,0,0,0,0,0,0,0,0,0,0,0,0,0,
0,0,0,0,0,0,0,0,0,0,0,0,0,0,0,0,0,0,0,0,0,0,0,0,0,0,0,0,0,0,0,0,0,0,0,0,0,0,0,0,0,0,0,0,0,0,0,0,0,0,0,0,0,0,0,0,0,0,0,0,0,0,0,0,0,0,0,0,0,0,0,0,0,0,0,0,0,0,0,0,0,0,0,0,0,0,0,0,0,0,0,0,0,0,0,0,0,0,0,0,0,0,0,0,0,0,0,0,0,0,0,0,0,0,0,0,0,0,0,0,0,0,0,0,0,0,0,0,0,0,0,0,0,0,0,0,0,0,0,0,0,0,0,0,0,0,0,0,0,0,0,0,0,0,0,0,0,0,0,0,0,0,0,0,0,0,0,0,0,0,0,0,0,0,0,0,0,0,0,0,0,0,0,0,0,0,0,0,0,0,0,0,0,0,0,0,0,0,0,0,0,0,0,0,0,0,0,0,0,0,0,0,0,0,0,0,0,0,0,0,0,0,0,0,0,0,0,0,0,0,0,0,0,0,0,0,0,0,0,0,
0,0,0,0,0,0,0,0,0,0,0,0,0,0,0,0,0,0,0,0,0,0,0,0,0,0,0,0,0,0,0,0,0,0,0,0,0,0,0,0,0,0,0,0,0,0,0,0,0,0,0,0,0,0,0,0,0,0,0,0,0,0,0,0,0,0,0,0,0,0,0,0,0,0,0,0,0,0,0,0,0,0,0,0,0,0,0,0,0,0,0,0,0,0,0,0,0,0,0,0,0,0,0,0,0,0,0,0,0,0,0,0,0,0,0,0,0,0,0,0,0,0,0,0,0,0,0,0,0,0,0,0,0,0,0,0,0,0,0,0,0,0,0,0,0,0,0,0,0,0,0,0,0,0,0,0,0,0,0,0,0,0,0,0,0,0,0,0,0,0,0,0,0,0,0,0,0,0,0,0,0,0,0,0,0,0,0,0,0,0,0,0,0,0,0,0,0,0,0,0,0,0,0,0,0,0,0,0,0,0,0,0,0,0,0,0,0,0,0,0,0,0,0,0,0,0,0,0,0,0,0,0,0,0,0,0,0,0,0,0,
0,0,0,0,0,0,0,0,0,0,0,0,0,0,0,0,0,0,0,0,0,0,0,0,0,0,0,0,0,0,0,0,0,0,0,0,0,0,0,0,0,0,0,0,0,0,0,0,0,0,0,0,0,0,0,0,0,0,0,0,0,0,0,0,0,0,0,0,0,0,0,0,0,0,0,0,0,0,0,0,0,0,0,0,0,0,0,0,0,0,0,0,0,0,0,0,0,0,0,0,0,0,0,0,0,0,0,0,0,0,0,0,0,0,0,0,0,0,0,0,0,0,0,0,0,0,0,0,0,0,0,0,0,0,0,0,0,0,0,0,0,0,0,0,0,0,0,0,0,0,0,0,0,0,0,0,0,0,0,0,0,0,0,0,0,0,0,0,0,0,0,0,0,0,0,0,0,0,0,0,0,0,0,0,0,0,0,0,0,0,0,0,0,0,0,0,0,0,0,0,0,0,0,0,0,0,0,0,0,0,0,0,0,0,0,0,0,0,0,0,0,0,0,0,0,0,0,0,0,0,0,0,0,0,0,0,0,0,0,0,
0,0,0,0,0,0,0,0,0,0,0,0,0,0,0,0,0,0,0,0,0,0,0,0,0,0,0,0,0,0,0,0,0,0,0,0,0,0,0,0,0,0,0,0,0,0,0,0,0,0,0,0,0,0,0,0,0,0,0,0,0,0,0,0,0,0,0,0,0,0,0,0,0,0,0,0,0,0,0,0,0,0,0,0,0,0,0,0,0,0,0,0,0,0,0,0,0,0,0,0,0,0,0,0,0,0,0,0,0,0,0,0,0,0,0,0,0,0,0,0,0,0,0,0,0,0,0,0,0,0,0,0,0,0,0,0,0,0,0,0,0,0,0,0,0,0,0,0,0,0,0,0,0,0,0,0,0,0,0,0,0,0,0,0,0,0,0,0,0,0,0,0,0,0,0,0,0,0,0,0,0,0,0,0,0,0,0,0,0,0,0,0,0,0,0,0,0,0,0,0,0,0,0,0,0,0,0,0,0,0,0,0,0,0,0,0,0,0,0,0,0,0,0,0,0,0,0,0,0,0,0,0,0,0,0,0,0,0,0,0,
0,0,0,0,0,0,0,0,0,0,0,0,0,0,0,0,0,0,0,0,0,0,0,0,0,0,0,0,0,0,0,0,0,0,0,0,0,0,0,0,0,0,0,0,0,0,0,0,0,0,0,0,0,0,0,0,0,0,0,0,0,0,0,0,0,0,0,0,0,0,0,0,0,0,0,0,0,0,0,0,0,0,0,0,0,0,0,0,0,0,0,0,0,0,0,0,0,0,0,0,0,0,0,0,0,0,0,0,0,0,0,0,0,0,0,0,0,0,0,0,0,0,0,0,0,0,0,0,0,0,0,0,0,0,0,0,0,0,0,0,0,0,0,0,0,0,0,0,0,0,0,0,0,0,0,0,0,0,0,0,0,0,0,0,0,0,0,0,0,0,0,0,0,0,0,0,0,0,0,0,0,0,0,0,0,0,0,0,0,0,0,0,0,0,0,0,0,0,0,0,0,0,0,0,0,0,0,0,0,0,0,0,0,0,0,0,0,0,0,0,0,0,0,0,0,0,0,0,0,0,0,0,0,0,0,0,0,0,0,0,
0,0,0,0,0,0,0,0,0,0,0,0,0,0,0,0,0,0,0,0,0,0,0,0,0,0,0,0,0,0,0,0,0,0,0,0,0,0,0,0,0,0,0,0,0,0,0,0,0,0,0,0,0,0,0,0,0,0,0,0,0,0,0,0,0,0,0,0,0,0,0,0,0,0,0,0,0,0,0,0,0,0,0,0,0,0,0,0,0,0,0,0,0,0,0,0,0,0,0,0,0,0,0,0,0,0,0,0,0,0,0,0,0,0,0,0,0,0,0,0,0,0,0,0,0,0,0,0,0,0,0,0,0,0,0,0,0,0,0,0,0,0,0,0,0,0,0,0,0,0,0,0,0,0,0,0,0,0,0,0,0,0,0,0,0,0,0,0,0,0,0,0,0,0,0,0,0,0,0,0,0,0,0,0,0,0,0,0,0,0,0,0,0,0,0,0,0,0,0,0,0,0,0,0,0,0,0,0,0,0,0,0,0,0,0,0,0,0,0,0,0,0,0,0,0,0,0,0,0,0,0,0,0,0,0,0,0,0,0,0,
0,0,0,0,0,0,0,0,0,0,0,0,0,0,0,0,0,0,0,0,0,0,0,0,0,0,0,0,0,0,0,0,0,0,0,0,0,0,0,0,0,0,0,0,0,0,0,0,0,0,0,0,0,0,0,0,0,0,0,0,0,0,0,0,0,0,0,0,0,0,0,0,0,0,0,0,0,0,0,0,0,0,0,0,0,0,0,0,0,0,0,0,0,0,0,0,0,0,0,0,0,0,0,0,0,0,0,0,0,0,0,0,0,0,0,0,0,0,0,0,0,0,0,0,0,0,0,0,0,0,0,0,0,0,0,0,0,0,0,0,0,0,0,0,0,0,0,0,0,0,0,0,0,0,0,0,0,0,0,0,0,0,0,0,0,0,0,0,0,0,0,0,0,0,0,0,0,0,0,0,0,0,0,0,0,0,0,0,0,0,0,0,0,0,0,0,0,0,0,0,0,0,0,0,0,0,0,0,0,0,0,0,0,0,0,0,0,0,0,0,0,0,0,0,0,0,0,0,0,0,0,0,0,0,0,0,0,0,0,0,
0,0,0,0,0,0,0,0,0,0,0,0,0,0,0,0,0,0,0,0,0,0,0,0,0,0,0,0,0,0,0,0,0,0,0,0,0,0,0,0,0,0,0,0,0,0,0,0,0,0,0,0,0,0,0,0,0,0,0,0,0,0,0,0,0,0,0,0,0,0,0,0,0,0,0,0,0,0,0,0,0,0,0,0,0,0,0,0,0,0,0,0,0,0,0,0,0,0,0,0,0,0,0,0,0,0,0,0,0,0,0,0,0,0,0,0,0,0,0,0,0,0,0,0,0,0,0,0,0,0,0,0,0,0,0,0,0,0,0,0,0,0,0,0,0,0,0,0,0,0,0,0,0,0,0,0,0,0,0,0,0,0,0,0,0,0,0,0,0,0,0,0,0,0,0,0,0,0,0,0,0,0,0,0,0,0,0,0,0,0,0,0,0,0,0,0,0,0,0,0,0,0,0,0,0,0,0,0,0,0,0,0,0,0,0,0,0,0,0,0,0,0,0,0,0,0,0,0,0,0,0,0,0,0,0,0,0,0,0,0,
0,0,0,0,0,0,0,0,0,0,0,0,0,0,0,0,0,0,0,0,0,0,0,0,0,0,0,0,0,0,0,0,0,0,0,0,0,0,0,0,0,0,0,0,0,0,0,0,0,0,0,0,0,0,0,0,0,0,0,0,0,0,0,0,0,0,0,0,0,0,0,0,0,0,0,0,0,0,0,0,0,0,0,0,0,0,0,0,0,0,0,0,0,0,0,0,0,0,0,0,0,0,0,0,0,0,0,0,0,0,0,0,0,0,0,0,0,0,0,0,0,0,0,0,0,0,0,0,0,0,0,0,0,0,0,0,0,0,0,0,0,0,0,0,0,0,0,0,0,0,0,0,0,0,0,0,0,0,0,0,0,0,0,0,0,0,0,0,0,0,0,0,0,0,0,0,0,0,0,0,0,0,0,0,0,0,0,0,0,0,0,0,0,0,0,0,0,0,0,0,0,0,0,0,0,0,0,0,0,0,0,0,0,0,0,0,0,0,0,0,0,0,0,0,0,0,0,0,0,0,0,0,0,0,0,0,0,0,0,0,
0,0,0,0,0,0,0,0,0,0,0,0,0,0,0,0,0,0,0,0,0,0,0,0,0,0,0,0,0,0,0,0,0,0,0,0,0,0,0,0,0,0,0,0,0,0,0,0,0,0,0,0,0,0,0,0,0,0,0,0,0,0,0,0,0,0,0,0,0,0,0,0,0,0,0,0,0,0,0,0,0,0,0,0,0,0,0,0,0,0,0,0,0,0,0,0,0,0,0,0,0,0,0,0,0,0,0,0,0,0,0,0,0,0,0,0,0,0,0,0,0,0,0,0,0,0,0,0,0,0,0,0,0,0,0,0,0,0,0,0,0,0,0,0,0,0,0,0,0,0,0,0,0,0,0,0,0,0,0,0,0,0,0,0,0,0,0,0,0,0,0,0,0,0,0,0,0,0,0,0,0,0,0,0,0,0,0,0,0,0,0,0,0,0,0,0,0,0,0,0,0,0,0,0,0,0,0,0,0,0,0,0,0,0,0,0,0,0,0,0,0,0,0,0,0,0,0,0,0,0,0,0,0,0,0,0,0,0,0,0,
0,0,0,0,0,0,0,0,0,0,0,0,0,0,0,0,0,0,0,0,0,0,0,0,0,0,0,0,0,0,0,0,0,0,0,0,0,0,0,0,0,0,0,0,0,0,0,0,0,0,0,0,0,0,0,0,0,0,0,0,0,0,0,0,0,0,0,0,0,0,0,0,0,0,0,0,0,0,0,0,0,0,0,0,0,0,0,0,0,0,0,0,0,0,0,0,0,0,0,0,0,0,0,0,0,0,0,0,0,0,0,0,0,0,0,0,0,0,0,0,0,0,0,0,0,0,0,0,0,0,0,0,0,0,0,0,0,0,0,0,0,0,0,0,0,0,0,0,0,0,0,0,0,0,0,0,0,0,0,0,0,0,0,0,0,0,0,0,0,0,0,0,0,0,0,0,0,0,0,0,0,0,0,0,0,0,0,0,0,0,0,0,0,0,0,0,0,0,0,0,0,0,0,0,0,0,0,0,0,0,0,0,0,0,0,0,0,0,0,0,0,0,0,0,0,0,0,0,0,0,0,0,0,0,0,0,0,0,0,0,
0,0,0,0,0,0,0,0,0,0,0,0,0,0,0,0,0,0,0,0,0,0,0,0,0,0,0,0,0,0,0,0,0,0,0,0,0,0,0,0,0,0,0,0,0,0,0,0,0,0,0,0,0,0,0,0,0,0,0,0,0,0,0,0,0,0,0,0,0,0,0,0,0,0,0,0,0,0,0,0,0,0,0,0,0,0,0,0,0,0,0,0,0,0,0,0,0,0,0,0,0,0,0,0,0,0,0,0,0,0,0,0,0,0,0,0,0,0,0,0,0,0,0,0,0,0,0,0,0,0,0,0,0,0,0,0,0,0,0,0,0,0,0,0,0,0,0,0,0,0,0,0,0,0,0,0,0,0,0,0,0,0,0,0,0,0,0,0,0,0,0,0,0,0,0,0,0,0,0,0,0,0,0,0,0,0,0,0,0,0,0,0,0,0,0,0,0,0,0,0,0,0,0,0,0,0,0,0,0,0,0,0,0,0,0,0,0,0,0,0,0,0,0,0,0,0,0,0,0,0,0,0,0,0,0,0,0,0,0,0,
0,0,0,0,0,0,0,0,0,0,0,0,0,0,0,0,0,0,0,0,0,0,0,0,0,0,0,0,0,0,0,0,0,0,0,0,0,0,0,0,0,0,0,0,0,0,0,0,0,0,0,0,0,0,0,0,0,0,0,0,0,0,0,0,0,0,0,0,0,0,0,0,0,0,0,0,0,0,0,0,0,0,0,0,0,0,0,0,0,0,0,0,0,0,0,0,0,0,0,0,0,0,0,0,0,0,0,0,0,0,0,0,0,0,0,0,0,0,0,0,0,0,0,0,0,0,0,0,0,0,0,0,0,0,0,0,0,0,0,0,0,0,0,0,0,0,0,0,0,0,0,0,0,0,0,0,0,0,0,0,0,0,0,0,0,0,0,0,0,0,0,0,0,0,0,0,0,0,0,0,0,0,0,0,0,0,0,0,0,0,0,0,0,0,0,0,0,0,0,0,0,0,0,0,0,0,0,0,0,0,0,0,0,0,0,0,0,0,0,0,0,0,0,0,0,0,0,0,0,0,0,0,0,0,0,0,0,0,0,0,
0,0,0,0,0,0,0,0,0,0,0,0,0,0,0,0,0,0,0,0,0,0,0,0,0,0,0,0,0,0,0,0,0,0,0,0,0,0,0,0,0,0,0,0,0,0,0,0,0,0,0,0,0,0,0,0,0,0,0,0,0,0,0,0,0,0,0,0,0,0,0,0,0,0,0,0,0,0,0,0,0,0,0,0,0,0,0,0,0,0,0,0,0,0,0,0,0,0,0,0,0,0,0,0,0,0,0,0,0,0,0,0,0,0,0,0,0,0,0,0,0,0,0,0,0,0,0,0,0,0,0,0,0,0,0,0,0,0,0,0,0,0,0,0,0,0,0,0,0,0,0,0,0,0,0,0,0,0,0,0,0,0,0,0,0,0,0,0,0,0,0,0,0,0,0,0,0,0,0,0,0,0,0,0,0,0,0,0,0,0,0,0,0,0,0,0,0,0,0,0,0,0,0,0,0,0,0,0,0,0,0,0,0,0,0,0,0,0,0,0,0,0,0,0,0,0,0,0,0,0,0,0,0,0,0,0,0,0,0,0,
0,0,0,0,0,0,0,0,0,0,0,0,0,0,0,0,0,0,0,0,0,0,0,0,0,0,0,0,0,0,0,0,0,0,0,0,0,0,0,0,0,0,0,0,0,0,0,0,0,0,0,0,0,0,0,0,0,0,0,0,0,0,0,0,0,0,0,0,0,0,0,0,0,0,0,0,0,0,0,0,0,0,0,0,0,0,0,0,0,0,0,0,0,0,0,0,0,0,0,0,0,0,0,0,0,0,0,0,0,0,0,0,0,0,0,0,0,0,0,0,0,0,0,0,0,0,0,0,0,0,0,0,0,0,0,0,0,0,0,0,0,0,0,0,0,0,0,0,0,0,0,0,0,0,0,0,0,0,0,0,0,0,0,0,0,0,0,0,0,0,0,0,0,0,0,0,0,0,0,0,0,0,0,0,0,0,0,0,0,0,0,0,0,0,0,0,0,0,0,0,0,0,0,0,0,0,0,0,0,0,0,0,0,0,0,0,0,0,0,0,0,0,0,0,0,0,0,0,0,0,0,0,0,0,0,0,0,0,0,0,
0,0,0,0,0,0,0,0,0,0,0,0,0,0,0,0,0,0,0,0,0,0,0,0,0,0,0,0,0,0,0,0,0,0,0,0,0,0,0,0,0,0,0,0,0,0,0,0,0,0,0,0,0,0,0,0,0,0,0,0,0,0,0,0,0,0,0,0,0,0,0,0,0,0,0,0,0,0,0,0,0,0,0,0,0,0,0,0,0,0,0,0,0,0,0,0,0,0,0,0,0,0,0,0,0,0,0,0,0,0,0,0,0,0,0,0,0,0,0,0,0,0,0,0,0,0,0,0,0,0,0,0,0,0,0,0,0,0,0,0,0,0,0,0,0,0,0,0,0,0,0,0,0,0,0,0,0,0,0,0,0,0,0,0,0,0,0,0,0,0,0,0,0,0,0,0,0,0,0,0,0,0,0,0,0,0,0,0,0,0,0,0,0,0,0,0,0,0,0,0,0,0,0,0,0,0,0,0,0,0,0,0,0,0,0,0,0,0,0,0,0,0,0,0,0,0,0,0,0,0,0,0,0,0,0,0,0,0,0,0,
0,0,0,0,0,0,0,0,0,0,0,0,0,0,0,0,0,0,0,0,0,0,0,0,0,0,0,0,0,0,0,0,0,0,0,0,0,0,0,0,0,0,0,0,0,0,0,0,0,0,0,0,0,0,0,0,0,0,0,0,0,0,0,0,0,0,0,0,0,0,0,0,0,0,0,0,0,0,0,0,0,0,0,0,0,0,0,0,0,0,0,0,0,0,0,0,0,0,0,0,0,0,0,0,0,0,0,0,0,0,0,0,0,0,0,0,0,0,0,0,0,0,0,0,0,0,0,0,0,0,0,0,0,0,0,0,0,0,0,0,0,0,0,0,0,0,0,0,0,0,0,0,0,0,0,0,0,0,0,0,0,0,0,0,0,0,0,0,0,0,0,0,0,0,0,0,0,0,0,0,0,0,0,0,0,0,0,0,0,0,0,0,0,0,0,0,0,0,0,0,0,0,0,0,0,0,0,0,0,0,0,0,0,0,0,0,0,0,0,0,0,0,0,0,0,0,0,0,0,0,0,0,0,0,0,0,0,0,0,0,
0,0,0,0,0,0,0,0,0,0,0,0,0,0,0,0,0,0,0,0,0,0,0,0,0,0,0,0,0,0,0,0,0,0,0,0,0,0,0,0,0,0,0,0,0,0,0,0,0,0,0,0,0,0,0,0,0,0,0,0,0,0,0,0,0,0,0,0,0,0,0,0,0,0,0,0,0,0,0,0,0,0,0,0,0,0,0,0,0,0,0,0,0,0,0,0,0,0,0,0,0,0,0,0,0,0,0,0,0,0,0,0,0,0,0,0,0,0,0,0,0,0,0,0,0,0,0,0,0,0,0,0,0,0,0,0,0,0,0,0,0,0,0,0,0,0,0,0,0,0,0,0,0,0,0,0,0,0,0,0,0,0,0,0,0,0,0,0,0,0,0,0,0,0,0,0,0,0,0,0,0,0,0,0,0,0,0,0,0,0,0,0,0,0,0,0,0,0,0,0,0,0,0,0,0,0,0,0,0,0,0,0,0,0,0,0,0,0,0,0,0,0,0,0,0,0,0,0,0,0,0,0,0,0,0,0,0,0,0,0,
0,0,0,0,0,0,0,0,0,0,0,0,0,0,0,0,0,0,0,0,0,0,0,0,0,0,0,0,0,0,0,0,0,0,0,0,0,0,0,0,0,0,0,0,0,0,0,0,0,0,0,0,0,0,0,0,0,0,0,0,0,0,0,0,0,0,0,0,0,0,0,0,0,0,0,0,0,0,0,0,0,0,0,0,0,0,0,0,0,0,0,0,0,0,0,0,0,0,0,0,0,0,0,0,0,0,0,0,0,0,0,0,0,0,0,0,0,0,0,0,0,0,0,0,0,0,0,0,0,0,0,0,0,0,0,0,0,0,0,0,0,0,0,0,0,0,0,0,0,0,0,0,0,0,0,0,0,0,0,0,0,0,0,0,0,0,0,0,0,0,0,0,0,0,0,0,0,0,0,0,0,0,0,0,0,0,0,0,0,0,0,0,0,0,0,0,0,0,0,0,0,0,0,0,0,0,0,0,0,0,0,0,0,0,0,0,0,0,0,0,0,0,0,0,0,0,0,0,0,0,0,0,0,0,0,0,0,0,0,0,
0,0,0,0,0,0,0,0,0,0,0,0,0,0,0,0,0,0,0,0,0,0,0,0,0,0,0,0,0,0,0,0,0,0,0,0,0,0,0,0,0,0,0,0,0,0,0,0,0,0,0,0,0,0,0,0,0,0,0,0,0,0,0,0,0,0,0,0,0,0,0,0,0,0,0,0,0,0,0,0,0,0,0,0,0,0,0,0,0,0,0,0,0,0,0,0,0,0,0,0,0,0,0,0,0,0,0,0,0,0,0,0,0,0,0,0,0,0,0,0,0,0,0,0,0,0,0,0,0,0,0,0,0,0,0,0,0,0,0,0,0,0,0,0,0,0,0,0,0,0,0,0,0,0,0,0,0,0,0,0,0,0,0,0,0,0,0,0,0,0,0,0,0,0,0,0,0,0,0,0,0,0,0,0,0,0,0,0,0,0,0,0,0,0,0,0,0,0,0,0,0,0,0,0,0,0,0,0,0,0,0,0,0,0,0,0,0,0,0,0,0,0,0,0,0,0,0,0,0,0,0,0,0,0,0,0,0,0,0,0,
0,0,0,0,0,0,0,0,0,0,0,0,0,0,0,0,0,0,0,0,0,0,0,0,0,0,0,0,0,0,0,0,0,0,0,0,0,0,0,0,0,0,0,0,0,0,0,0,0,0,0,0,0,0,0,0,0,0,0,0,0,0,0,0,0,0,0,0,0,0,0,0,0,0,0,0,0,0,0,0,0,0,0,0,0,0,0,0,0,0,0,0,0,0,0,0,0,0,0,0,0,0,0,0,0,0,0,0,0,0,0,0,0,0,0,0,0,0,0,0,0,0,0,0,0,0,0,0,0,0,0,0,0,0,0,0,0,0,0,0,0,0,0,0,0,0,0,0,0,0,0,0,0,0,0,0,0,0,0,0,0,0,0,0,0,0,0,0,0,0,0,0,0,0,0,0,0,0,0,0,0,0,0,0,0,0,0,0,0,0,0,0,0,0,0,0,0,0,0,0,0,0,0,0,0,0,0,0,0,0,0,0,0,0,0,0,0,0,0,0,0,0,0,0,0,0,0,0,0,0,0,0,0,0,0,0,0,0,0,0,
0,0,0,0,0,0,0,0,0,0,0,0,0,0,0,0,0,0,0,0,0,0,0,0,0,0,0,0,0,0,0,0,0,0,0,0,0,0,0,0,0,0,0,0,0,0,0,0,0,0,0,0,0,0,0,0,0,0,0,0,0,0,0,0,0,0,0,0,0,0,0,0,0,0,0,0,0,0,0,0,0,0,0,0,0,0,0,0,0,0,0,0,0,0,0,0,0,0,0,0,0,0,0,0,0,0,0,0,0,0,0,0,0,0,0,0,0,0,0,0,0,0,0,0,0,0,0,0,0,0,0,0,0,0,0,0,0,0,0,0,0,0,0,0,0,0,0,0,0,0,0,0,0,0,0,0,0,0,0,0,0,0,0,0,0,0,0,0,0,0,0,0,0,0,0,0,0,0,0,0,0,0,0,0,0,0,0,0,0,0,0,0,0,0,0,0,0,0,0,0,0,0,0,0,0,0,0,0,0,0,0,0,0,0,0,0,0,0,0,0,0,0,0,0,0,0,0,0,0,0,0,0,0,0,0,0,0,0,0,0,
0,0,0,0,0,0,0,0,0,0,0,0,0,0,0,0,0,0,0,0,0,0,0,0,0,0,0,0,0,0,0,0,0,0,0,0,0,0,0,0,0,0,0,0,0,0,0,0,0,0,0,0,0,0,0,0,0,0,0,0,0,0,0,0,0,0,0,0,0,0,0,0,0,0,0,0,0,0,0,0,0,0,0,0,0,0,0,0,0,0,0,0,0,0,0,0,0,0,0,0,0,0,0,0,0,0,0,0,0,0,0,0,0,0,0,0,0,0,0,0,0,0,0,0,0,0,0,0,0,0,0,0,0,0,0,0,0,0,0,0,0,0,0,0,0,0,0,0,0,0,0,0,0,0,0,0,0,0,0,0,0,0,0,0,0,0,0,0,0,0,0,0,0,0,0,0,0,0,0,0,0,0,0,0,0,0,0,0,0,0,0,0,0,0,0,0,0,0,0,0,0,0,0,0,0,0,0,0,0,0,0,0,0,0,0,0,0,0,0,0,0,0,0,0,0,0,0,0,0,0,0,0,0,0,0,0,0,0,0,0,
0,0,0,0,0,0,0,0,0,0,0,0,0,0,0,0,0,0,0,0,0,0,0,0,0,0,0,0,0,0,0,0,0,0,0,0,0,0,0,0,0,0,0,0,0,0,0,0,0,0,0,0,0,0,0,0,0,0,0,0,0,0,0,0,0,0,0,0,0,0,0,0,0,0,0,0,0,0,0,0,0,0,0,0,0,0,0,0,0,0,0,0,0,0,0,0,0,0,0,0,0,0,0,0,0,0,0,0,0,0,0,0,0,0,0,0,0,0,0,0,0,0,0,0,0,0,0,0,0,0,0,0,0,0,0,0,0,0,0,0,0,0,0,0,0,0,0,0,0,0,0,0,0,0,0,0,0,0,0,0,0,0,0,0,0,0,0,0,0,0,0,0,0,0,0,0,0,0,0,0,0,0,0,0,0,0,0,0,0,0,0,0,0,0,0,0,0,0,0,0,0,0,0,0,0,0,0,0,0,0,0,0,0,0,0,0,0,0,0,0,0,0,0,0,0,0,0,0,0,0,0,0,0,0,0,0,0,0,0,0,
0,0,0,0,0,0,0,0,0,0,0,0,0,0,0,0,0,0,0,0,0,0,0,0,0,0,0,0,0,0,0,0,0,0,0,0,0,0,0,0,0,0,0,0,0,0,0,0,0,0,0,0,0,0,0,0,0,0,0,0,0,0,0,0,0,0,0,0,0,0,0,0,0,0,0,0,0,0,0,0,0,0,0,0,0,0,0,0,0,0,0,0,0,0,0,0,0,0,0,0,0,0,0,0,0,0,0,0,0,0,0,0,0,0,0,0,0,0,0,0,0,0,0,0,0,0,0,0,0,0,0,0,0,0,0,0,0,0,0,0,0,0,0,0,0,0,0,0,0,0,0,0,0,0,0,0,0,0,0,0,0,0,0,0,0,0,0,0,0,0,0,0,0,0,0,0,0,0,0,0,0,0,0,0,0,0,0,0,0,0,0,0,0,0,0,0,0,0,0,0,0,0,0,0,0,0,0,0,0,0,0,0,0,0,0,0,0,0,0,0,0,0,0,0,0,0,0,0,0,0,0,0,0,0,0,0,0,0,0,0,
0,0,0,0,0,0,0,0,0,0,0,0,0,0,0,0,0,0,0,0,0,0,0,0,0,0,0,0,0,0,0,0,0,0,0,0,0,0,0,0,0,0,0,0,0,0,0,0,0,0,0,0,0,0,0,0,0,0,0,0,0,0,0,0,0,0,0,0,0,0,0,0,0,0,0,0,0,0,0,0,0,0,0,0,0,0,0,0,0,0,0,0,0,0,0,0,0,0,0,0,0,0,0,0,0,0,0,0,0,0,0,0,0,0,0,0,0,0,0,0,0,0,0,0,0,0,0,0,0,0,0,0,0,0,0,0,0,0,0,0,0,0,0,0,0,0,0,0,0,0,0,0,0,0,0,0,0,0,0,0,0,0,0,0,0,0,0,0,0,0,0,0,0,0,0,0,0,0,0,0,0,0,0,0,0,0,0,0,0,0,0,0,0,0,0,0,0,0,0,0,0,0,0,0,0,0,0,0,0,0,0,0,0,0,0,0,0,0,0,0,0,0,0,0,0,0,0,0,0,0,0,0,0,0,0,0,0,0,0,0,
0,0,0,0,0,0,0,0,0,0,0,0,0,0,0,0,0,0,0,0,0,0,0,0,0,0,0,0,0,0,0,0,0,0,0,0,0,0,0,0,0,0,0,0,0,0,0,0,0,0,0,0,0,0,0,0,0,0,0,0,0,0,0,0,0,0,0,0,0,0,0,0,0,0,0,0,0,0,0,0,0,0,0,0,0,0,0,0,0,0,0,0,0,0,0,0,0,0,0,0,0,0,0,0,0,0,0,0,0,0,0,0,0,0,0,0,0,0,0,0,0,0,0,0,0,0,0,0,0,0,0,0,0,0,0,0,0,0,0,0,0,0,0,0,0,0,0,0,0,0,0,0,0,0,0,0,0,0,0,0,0,0,0,0,0,0,0,0,0,0,0,0,0,0,0,0,0,0,0,0,0,0,0,0,0,0,0,0,0,0,0,0,0,0,0,0,0,0,0,0,0,0,0,0,0,0,0,0,0,0,0,0,0,0,0,0,0,0,0,0,0,0,0,0,0,0,0,0,0,0,0,0,0,0,0,0,0,0,0,0,
0,0,0,0,0,0,0,0,0,0,0,0,0,0,0,0,0,0,0,0,0,0,0,0,0,0,0,0,0,0,0,0,0,0,0,0,0,0,0,0,0,0,0,0,0,0,0,0,0,0,0,0,0,0,0,0,0,0,0,0,0,0,0,0,0,0,0,0,0,0,0,0,0,0,0,0,0,0,0,0,0,0,0,0,0,0,0,0,0,0,0,0,0,0,0,0,0,0,0,0,0,0,0,0,0,0,0,0,0,0,0,0,0,0,0,0,0,0,0,0,0,0,0,0,0,0,0,0,0,0,0,0,0,0,0,0,0,0,0,0,0,0,0,0,0,0,0,0,0,0,0,0,0,0,0,0,0,0,0,0,0,0,0,0,0,0,0,0,0,0,0,0,0,0,0,0,0,0,0,0,0,0,0,0,0,0,0,0,0,0,0,0,0,0,0,0,0,0,0,0,0,0,0,0,0,0,0,0,0,0,0,0,0,0,0,0,0,0,0,0,0,0,0,0,0,0,0,0,0,0,0,0,0,0,0,0,0,0,0,0,
0,0,0,0,0,0,0,0,0,0,0,0,0,0,0,0,0,0,0,0,0,0,0,0,0,0,0,0,0,0,0,0,0,0,0,0,0,0,0,0,0,0,0,0,0,0,0,0,0,0,0,0,0,0,0,0,0,0,0,0,0,0,0,0,0,0,0,0,0,0,0,0,0,0,0,0,0,0,0,0,0,0,0,0,0,0,0,0,0,0,0,0,0,0,0,0,0,0,0,0,0,0,0,0,0,0,0,0,0,0,0,0,0,0,0,0,0,0,0,0,0,0,0,0,0,0,0,0,0,0,0,0,0,0,0,0,0,0,0,0,0,0,0,0,0,0,0,0,0,0,0,0,0,0,0,0,0,0,0,0,0,0,0,0,0,0,0,0,0,0,0,0,0,0,0,0,0,0,0,0,0,0,0,0,0,0,0,0,0,0,0,0,0,0,0,0,0,0,0,0,0,0,0,0,0,0,0,0,0,0,0,0,0,0,0,0,0,0,0,0,0,0,0,0,0,0,0,0,0,0,0,0,0,0,0,0,0,0,0,0,
0,0,0,0,0,0,0,0,0,0,0,0,0,0,0,0,0,0,0,0,0,0,0,0,0,0,0,0,0,0,0,0,0,0,0,0,0,0,0,0,0,0,0,0,0,0,0,0,0,0,0,0,0,0,0,0,0,0,0,0,0,0,0,0,0,0,0,0,0,0,0,0,0,0,0,0,0,0,0,0,0,0,0,0,0,0,0,0,0,0,0,0,0,0,0,0,0,0,0,0,0,0,0,0,0,0,0,0,0,0,0,0,0,0,0,0,0,0,0,0,0,0,0,0,0,0,0,0,0,0,0,0,0,0,0,0,0,0,0,0,0,0,0,0,0,0,0,0,0,0,0,0,0,0,0,0,0,0,0,0,0,0,0,0,0,0,0,0,0,0,0,0,0,0,0,0,0,0,0,0,0,0,0,0,0,0,0,0,0,0,0,0,0,0,0,0,0,0,0,0,0,0,0,0,0,0,0,0,0,0,0,0,0,0,0,0,0,0,0,0,0,0,0,0,0,0,0,0,0,0,0,0,0,0,0,0,0,0,0,0,
0,0,0,0,0,0,0,0,0,0,0,0,0,0,0,0,0,0,0,0,0,0,0,0,0,0,0,0,0,0,0,0,0,0,0,0,0,0,0,0,0,0,0,0,0,0,0,0,0,0,0,0,0,0,0,0,0,0,0,0,0,0,0,0,0,0,0,0,0,0,0,0,0,0,0,0,0,0,0,0,0,0,0,0,0,0,0,0,0,0,0,0,0,0,0,0,0,0,0,0,0,0,0,0,0,0,0,0,0,0,0,0,0,0,0,0,0,0,0,0,0,0,0,0,0,0,0,0,0,0,0,0,0,0,0,0,0,0,0,0,0,0,0,0,0,0,0,0,0,0,0,0,0,0,0,0,0,0,0,0,0,0,0,0,0,0,0,0,0,0,0,0,0,0,0,0,0,0,0,0,0,0,0,0,0,0,0,0,0,0,0,0,0,0,0,0,0,0,0,0,0,0,0,0,0,0,0,0,0,0,0,0,0,0,0,0,0,0,0,0,0,0,0,0,0,0,0,0,0,0,0,0,0,0,0,0,0,0,0,0,
0,0,0,0,0,0,0,0,0,0,0,0,0,0,0,0,0,0,0,0,0,0,0,0,0,0,0,0,0,0,0,0,0,0,0,0,0,0,0,0,0,0,0,0,0,0,0,0,0,0,0,0,0,0,0,0,0,0,0,0,0,0,0,0,0,0,0,0,0,0,0,0,0,0,0,0,0,0,0,0,0,0,0,0,0,0,0,0,0,0,0,0,0,0,0,0,0,0,0,0,0,0,0,0,0,0,0,0,0,0,0,0,0,0,0,0,0,0,0,0,0,0,0,0,0,0,0,0,0,0,0,0,0,0,0,0,0,0,0,0,0,0,0,0,0,0,0,0,0,0,0,0,0,0,0,0,0,0,0,0,0,0,0,0,0,0,0,0,0,0,0,0,0,0,0,0,0,0,0,0,0,0,0,0,0,0,0,0,0,0,0,0,0,0,0,0,0,0,0,0,0,0,0,0,0,0,0,0,0,0,0,0,0,0,0,0,0,0,0,0,0,0,0,0,0,0,0,0,0,0,0,0,0,0,0,0,0,0,0,0,
0,0,0,0,0,0,0,0,0,0,0,0,0,0,0,0,0,0,0,0,0,0,0,0,0,0,0,0,0,0,0,0,0,0,0,0,0,0,0,0,0,0,0,0,0,0,0,0,0,0,0,0,0,0,0,0,0,0,0,0,0,0,0,0,0,0,0,0,0,0,0,0,0,0,0,0,0,0,0,0,0,0,0,0,0,0,0,0,0,0,0,0,0,0,0,0,0,0,0,0,0,0,0,0,0,0,0,0,0,0,0,0,0,0,0,0,0,0,0,0,0,0,0,0,0,0,0,0,0,0,0,0,0,0,0,0,0,0,0,0,0,0,0,0,0,0,0,0,0,0,0,0,0,0,0,0,0,0,0,0,0,0,0,0,0,0,0,0,0,0,0,0,0,0,0,0,0,0,0,0,0,0,0,0,0,0,0,0,0,0,0,0,0,0,0,0,0,0,0,0,0,0,0,0,0,0,0,0,0,0,0,0,0,0,0,0,0,0,0,0,0,0,0,0,0,0,0,0,0,0,0,0,0,0,0,0,0,0,0,0,
0,0,0,0,0,0,0,0,0,0,0,0,0,0,0,0,0,0,0,0,0,0,0,0,0,0,0,0,0,0,0,0,0,0,0,0,0,0,0,0,0,0,0,0,0,0,0,0,0,0,0,0,0,0,0,0,0,0,0,0,0,0,0,0,0,0,0,0,0,0,0,0,0,0,0,0,0,0,0,0,0,0,0,0,0,0,0,0,0,0,0,0,0,0,0,0,0,0,0,0,0,0,0,0,0,0,0,0,0,0,0,0,0,0,0,0,0,0,0,0,0,0,0,0,0,0,0,0,0,0,0,0,0,0,0,0,0,0,0,0,0,0,0,0,0,0,0,0,0,0,0,0,0,0,0,0,0,0,0,0,0,0,0,0,0,0,0,0,0,0,0,0,0,0,0,0,0,0,0,0,0,0,0,0,0,0,0,0,0,0,0,0,0,0,0,0,0,0,0,0,0,0,0,0,0,0,0,0,0,0,0,0,0,0,0,0,0,0,0,0,0,0,0,0,0,0,0,0,0,0,0,0,0,0,0,0,0,0,0,0,
0,0,0,0,0,0,0,0,0,0,0,0,0,0,0,0,0,0,0,0,0,0,0,0,0,0,0,0,0,0,0,0,0,0,0,0,0,0,0,0,0,0,0,0,0,0,0,0,0,0,0,0,0,0,0,0,0,0,0,0,0,0,0,0,0,0,0,0,0,0,0,0,0,0,0,0,0,0,0,0,0,0,0,0,0,0,0,0,0,0,0,0,0,0,0,0,0,0,0,0,0,0,0,0,0,0,0,0,0,0,0,0,0,0,0,0,0,0,0,0,0,0,0,0,0,0,0,0,0,0,0,0,0,0,0,0,0,0,0,0,0,0,0,0,0,0,0,0,0,0,0,0,0,0,0,0,0,0,0,0,0,0,0,0,0,0,0,0,0,0,0,0,0,0,0,0,0,0,0,0,0,0,0,0,0,0,0,0,0,0,0,0,0,0,0,0,0,0,0,0,0,0,0,0,0,0,0,0,0,0,0,0,0,0,0,0,0,0,0,0,0,0,0,0,0,0,0,0,0,0,0,0,0,0,0,0,0,0,0,0,
0,0,0,0,0,0,0,0,0,0,0,0,0,0,0,0,0,0,0,0,0,0,0,0,0,0,0,0,0,0,0,0,0,0,0,0,0,0,0,0,0,0,0,0,0,0,0,0,0,0,0,0,0,0,0,0,0,0,0,0,0,0,0,0,0,0,0,0,0,0,0,0,0,0,0,0,0,0,0,0,0,0,0,0,0,0,0,0,0,0,0,0,0,0,0,0,0,0,0,0,0,0,0,0,0,0,0,0,0,0,0,0,0,0,0,0,0,0,0,0,0,0,0,0,0,0,0,0,0,0,0,0,0,0,0,0,0,0,0,0,0,0,0,0,0,0,0,0,0,0,0,0,0,0,0,0,0,0,0,0,0,0,0,0,0,0,0,0,0,0,0,0,0,0,0,0,0,0,0,0,0,0,0,0,0,0,0,0,0,0,0,0,0,0,0,0,0,0,0,0,0,0,0,0,0,0,0,0,0,0,0,0,0,0,0,0,0,0,0,0,0,0,0,0,0,0,0,0,0,0,0,0,0,0,0,0,0,0,0,0,
0,0,0,0,0,0,0,0,0,0,0,0,0,0,0,0,0,0,0,0,0,0,0,0,0,0,0,0,0,0,0,0,0,0,0,0,0,0,0,0,0,0,0,0,0,0,0,0,0,0,0,0,0,0,0,0,0,0,0,0,0,0,0,0,0,0,0,0,0,0,0,0,0,0,0,0,0,0,0,0,0,0,0,0,0,0,0,0,0,0,0,0,0,0,0,0,0,0,0,0,0,0,0,0,0,0,0,0,0,0,0,0,0,0,0,0,0,0,0,0,0,0,0,0,0,0,0,0,0,0,0,0,0,0,0,0,0,0,0,0,0,0,0,0,0,0,0,0,0,0,0,0,0,0,0,0,0,0,0,0,0,0,0,0,0,0,0,0,0,0,0,0,0,0,0,0,0,0,0,0,0,0,0,0,0,0,0,0,0,0,0,0,0,0,0,0,0,0,0,0,0,0,0,0,0,0,0,0,0,0,0,0,0,0,0,0,0,0,0,0,0,0,0,0,0,0,0,0,0,0,0,0,0,0,0,0,0,0,0,0,
0,0,0,0,0,0,0,0,0,0,0,0,0,0,0,0,0,0,0,0,0,0,0,0,0,0,0,0,0,0,0,0,0,0,0,0,0,0,0,0,0,0,0,0,0,0,0,0,0,0,0,0,0,0,0,0,0,0,0,0,0,0,0,0,0,0,0,0,0,0,0,0,0,0,0,0,0,0,0,0,0,0,0,0,0,0,0,0,0,0,0,0,0,0,0,0,0,0,0,0,0,0,0,0,0,0,0,0,0,0,0,0,0,0,0,0,0,0,0,0,0,0,0,0,0,0,0,0,0,0,0,0,0,0,0,0,0,0,0,0,0,0,0,0,0,0,0,0,0,0,0,0,0,0,0,0,0,0,0,0,0,0,0,0,0,0,0,0,0,0,0,0,0,0,0,0,0,0,0,0,0,0,0,0,0,0,0,0,0,0,0,0,0,0,0,0,0,0,0,0,0,0,0,0,0,0,0,0,0,0,0,0,0,0,0,0,0,0,0,0,0,0,0,0,0,0,0,0,0,0,0,0,0,0,0,0,0,0,0,0,
0,0,0,0,0,0,0,0,0,0,0,0,0,0,0,0,0,0,0,0,0,0,0,0,0,0,0,0,0,0,0,0,0,0,0,0,0,0,0,0,0,0,0,0,0,0,0,0,0,0,0,0,0,0,0,0,0,0,0,0,0,0,0,0,0,0,0,0,0,0,0,0,0,0,0,0,0,0,0,0,0,0,0,0,0,0,0,0,0,0,0,0,0,0,0,0,0,0,0,0,0,0,0,0,0,0,0,0,0,0,0,0,0,0,0,0,0,0,0,0,0,0,0,0,0,0,0,0,0,0,0,0,0,0,0,0,0,0,0,0,0,0,0,0,0,0,0,0,0,0,0,0,0,0,0,0,0,0,0,0,0,0,0,0,0,0,0,0,0,0,0,0,0,0,0,0,0,0,0,0,0,0,0,0,0,0,0,0,0,0,0,0,0,0,0,0,0,0,0,0,0,0,0,0,0,0,0,0,0,0,0,0,0,0,0,0,0,0,0,0,0,0,0,0,0,0,0,0,0,0,0,0,0,0,0,0,0,0,0,0,
0,0,0,0,0,0,0,0,0,0,0,0,0,0,0,0,0,0,0,0,0,0,0,0,0,0,0,0,0,0,0,0,0,0,0,0,0,0,0,0,0,0,0,0,0,0,0,0,0,0,0,0,0,0,0,0,0,0,0,0,0,0,0,0,0,0,0,0,0,0,0,0,0,0,0,0,0,0,0,0,0,0,0,0,0,0,0,0,0,0,0,0,0,0,0,0,0,0,0,0,0,0,0,0,0,0,0,0,0,0,0,0,0,0,0,0,0,0,0,0,0,0,0,0,0,0,0,0,0,0,0,0,0,0,0,0,0,0,0,0,0,0,0,0,0,0,0,0,0,0,0,0,0,0,0,0,0,0,0,0,0,0,0,0,0,0,0,0,0,0,0,0,0,0,0,0,0,0,0,0,0,0,0,0,0,0,0,0,0,0,0,0,0,0,0,0,0,0,0,0,0,0,0,0,0,0,0,0,0,0,0,0,0,0,0,0,0,0,0,0,0,0,0,0,0,0,0,0,0,0,0,0,0,0,0,0,0,0,0,0,
0,0,0,0,0,0,0,0,0,0,0,0,0,0,0,0,0,0,0,0,0,0,0,0,0,0,0,0,0,0,0,0,0,0,0,0,0,0,0,0,0,0,0,0,0,0,0,0,0,0,0,0,0,0,0,0,0,0,0,0,0,0,0,0,0,0,0,0,0,0,0,0,0,0,0,0,0,0,0,0,0,0,0,0,0,0,0,0,0,0,0,0,0,0,0,0,0,0,0,0,0,0,0,0,0,0,0,0,0,0,0,0,0,0,0,0,0,0,0,0,0,0,0,0,0,0,0,0,0,0,0,0,0,0,0,0,0,0,0,0,0,0,0,0,0,0,0,0,0,0,0,0,0,0,0,0,0,0,0,0,0,0,0,0,0,0,0,0,0,0,0,0,0,0,0,0,0,0,0,0,0,0,0,0,0,0,0,0,0,0,0,0,0,0,0,0,0,0,0,0,0,0,0,0,0,0,0,0,0,0,0,0,0,0,0,0,0,0,0,0,0,0,0,0,0,0,0,0,0,0,0,0,0,0,0,0,0,0,0,0,
0,0,0,0,0,0,0,0,0,0,0,0,0,0,0,0,0,0,0,0,0,0,0,0,0,0,0,0,0,0,0,0,0,0,0,0,0,0,0,0,0,0,0,0,0,0,0,0,0,0,0,0,0,0,0,0,0,0,0,0,0,0,0,0,0,0,0,0,0,0,0,0,0,0,0,0,0,0,0,0,0,0,0,0,0,0,0,0,0,0,0,0,0,0,0,0,0,0,0,0,0,0,0,0,0,0,0,0,0,0,0,0,0,0,0,0,0,0,0,0,0,0,0,0,0,0,0,0,0,0,0,0,0,0,0,0,0,0,0,0,0,0,0,0,0,0,0,0,0,0,0,0,0,0,0,0,0,0,0,0,0,0,0,0,0,0,0,0,0,0,0,0,0,0,0,0,0,0,0,0,0,0,0,0,0,0,0,0,0,0,0,0,0,0,0,0,0,0,0,0,0,0,0,0,0,0,0,0,0,0,0,0,0,0,0,0,0,0,0,0,0,0,0,0,0,0,0,0,0,0,0,0,0,0,0,0,0,0,0,0,
0,0,0,0,0,0,0,0,0,0,0,0,0,0,0,0,0,0,0,0,0,0,0,0,0,0,0,0,0,0,0,0,0,0,0,0,0,0,0,0,0,0,0,0,0,0,0,0,0,0,0,0,0,0,0,0,0,0,0,0,0,0,0,0,0,0,0,0,0,0,0,0,0,0,0,0,0,0,0,0,0,0,0,0,0,0,0,0,0,0,0,0,0,0,0,0,0,0,0,0,0,0,0,0,0,0,0,0,0,0,0,0,0,0,0,0,0,0,0,0,0,0,0,0,0,0,0,0,0,0,0,0,0,0,0,0,0,0,0,0,0,0,0,0,0,0,0,0,0,0,0,0,0,0,0,0,0,0,0,0,0,0,0,0,0,0,0,0,0,0,0,0,0,0,0,0,0,0,0,0,0,0,0,0,0,0,0,0,0,0,0,0,0,0,0,0,0,0,0,0,0,0,0,0,0,0,0,0,0,0,0,0,0,0,0,0,0,0,0,0,0,0,0,0,0,0,0,0,0,0,0,0,0,0,0,0,0,0,0,0,
0,0,0,0,0,0,0,0,0,0,0,0,0,0,0,0,0,0,0,0,0,0,0,0,0,0,0,0,0,0,0,0,0,0,0,0,0,0,0,0,0,0,0,0,0,0,0,0,0,0,0,0,0,0,0,0,0,0,0,0,0,0,0,0,0,0,0,0,0,0,0,0,0,0,0,0,0,0,0,0,0,0,0,0,0,0,0,0,0,0,0,0,0,0,0,0,0,0,0,0,0,0,0,0,0,0,0,0,0,0,0,0,0,0,0,0,0,0,0,0,0,0,0,0,0,0,0,0,0,0,0,0,0,0,0,0,0,0,0,0,0,0,0,0,0,0,0,0,0,0,0,0,0,0,0,0,0,0,0,0,0,0,0,0,0,0,0,0,0,0,0,0,0,0,0,0,0,0,0,0,0,0,0,0,0,0,0,0,0,0,0,0,0,0,0,0,0,0,0,0,0,0,0,0,0,0,0,0,0,0,0,0,0,0,0,0,0,0,0,0,0,0,0,0,0,0,0,0,0,0,0,0,0,0,0,0,0,0,0,0,
0,0,0,0,0,0,0,0,0,0,0,0,0,0,0,0,0,0,0,0,0,0,0,0,0,0,0,0,0,0,0,0,0,0,0,0,0,0,0,0,0,0,0,0,0,0,0,0,0,0,0,0,0,0,0,0,0,0,0,0,0,0,0,0,0,0,0,0,0,0,0,0,0,0,0,0,0,0,0,0,0,0,0,0,0,0,0,0,0,0,0,0,0,0,0,0,0,0,0,0,0,0,0,0,0,0,0,0,0,0,0,0,0,0,0,0,0,0,0,0,0,0,0,0,0,0,0,0,0,0,0,0,0,0,0,0,0,0,0,0,0,0,0,0,0,0,0,0,0,0,0,0,0,0,0,0,0,0,0,0,0,0,0,0,0,0,0,0,0,0,0,0,0,0,0,0,0,0,0,0,0,0,0,0,0,0,0,0,0,0,0,0,0,0,0,0,0,0,0,0,0,0,0,0,0,0,0,0,0,0,0,0,0,0,0,0,0,0,0,0,0,0,0,0,0,0,0,0,0,0,0,0,0,0,0,0,0,0,0,0,
0,0,0,0,0,0,0,0,0,0,0,0,0,0,0,0,0,0,0,0,0,0,0,0,0,0,0,0,0,0,0,0,0,0,0,0,0,0,0,0,0,0,0,0,0,0,0,0,0,0,0,0,0,0,0,0,0,0,0,0,0,0,0,0,0,0,0,0,0,0,0,0,0,0,0,0,0,0,0,0,0,0,0,0,0,0,0,0,0,0,0,0,0,0,0,0,0,0,0,0,0,0,0,0,0,0,0,0,0,0,0,0,0,0,0,0,0,0,0,0,0,0,0,0,0,0,0,0,0,0,0,0,0,0,0,0,0,0,0,0,0,0,0,0,0,0,0,0,0,0,0,0,0,0,0,0,0,0,0,0,0,0,0,0,0,0,0,0,0,0,0,0,0,0,0,0,0,0,0,0,0,0,0,0,0,0,0,0,0,0,0,0,0,0,0,0,0,0,0,0,0,0,0,0,0,0,0,0,0,0,0,0,0,0,0,0,0,0,0,0,0,0,0,0,0,0,0,0,0,0,0,0,0,0,0,0,0,0,0,0,
0,0,0,0,0,0,0,0,0,0,0,0,0,0,0,0,0,0,0,0,0,0,0,0,0,0,0,0,0,0,0,0,0,0,0,0,0,0,0,0,0,0,0,0,0,0,0,0,0,0,0,0,0,0,0,0,0,0,0,0,0,0,0,0,0,0,0,0,0,0,0,0,0,0,0,0,0,0,0,0,0,0,0,0,0,0,0,0,0,0,0,0,0,0,0,0,0,0,0,0,0,0,0,0,0,0,0,0,0,0,0,0,0,0,0,0,0,0,0,0,0,0,0,0,0,0,0,0,0,0,0,0,0,0,0,0,0,0,0,0,0,0,0,0,0,0,0,0,0,0,0,0,0,0,0,0,0,0,0,0,0,0,0,0,0,0,0,0,0,0,0,0,0,0,0,0,0,0,0,0,0,0,0,0,0,0,0,0,0,0,0,0,0,0,0,0,0,0,0,0,0,0,0,0,0,0,0,0,0,0,0,0,0,0,0,0,0,0,0,0,0,0,0,0,0,0,0,0,0,0,0,0,0,0,0,0,0,0,0,0,
0,0,0,0,0,0,0,0,0,0,0,0,0,0,0,0,0,0,0,0,0,0,0,0,0,0,0,0,0,0,0,0,0,0,0,0,0,0,0,0,0,0,0,0,0,0,0,0,0,0,0,0,0,0,0,0,0,0,0,0,0,0,0,0,0,0,0,0,0,0,0,0,0,0,0,0,0,0,0,0,0,0,0,0,0,0,0,0,0,0,0,0,0,0,0,0,0,0,0,0,0,0,0,0,0,0,0,0,0,0,0,0,0,0,0,0,0,0,0,0,0,0,0,0,0,0,0,0,0,0,0,0,0,0,0,0,0,0,0,0,0,0,0,0,0,0,0,0,0,0,0,0,0,0,0,0,0,0,0,0,0,0,0,0,0,0,0,0,0,0,0,0,0,0,0,0,0,0,0,0,0,0,0,0,0,0,0,0,0,0,0,0,0,0,0,0,0,0,0,0,0,0,0,0,0,0,0,0,0,0,0,0,0,0,0,0,0,0,0,0,0,0,0,0,0,0,0,0,0,0,0,0,0,0,0,0,0,0,0,0,
0,0,0,0,0,0,0,0,0,0,0,0,0,0,0,0,0,0,0,0,0,0,0,0,0,0,0,0,0,0,0,0,0,0,0,0,0,0,0,0,0,0,0,0,0,0,0,0,0,0,0,0,0,0,0,0,0,0,0,0,0,0,0,0,0,0,0,0,0,0,0,0,0,0,0,0,0,0,0,0,0,0,0,0,0,0,0,0,0,0,0,0,0,0,0,0,0,0,0,0,0,0,0,0,0,0,0,0,0,0,0,0,0,0,0,0,0,0,0,0,0,0,0,0,0,0,0,0,0,0,0,0,0,0,0,0,0,0,0,0,0,0,0,0,0,0,0,0,0,0,0,0,0,0,0,0,0,0,0,0,0,0,0,0,0,0,0,0,0,0,0,0,0,0,0,0,0,0,0,0,0,0,0,0,0,0,0,0,0,0,0,0,0,0,0,0,0,0,0,0,0,0,0,0,0,0,0,0,0,0,0,0,0,0,0,0,0,0,0,0,0,0,0,0,0,0,0,0,0,0,0,0,0,0,0,0,0,0,0,0,
0,0,0,0,0,0,0,0,0,0,0,0,0,0,0,0,0,0,0,0,0,0,0,0,0,0,0,0,0,0,0,0,0,0,0,0,0,0,0,0,0,0,0,0,0,0,0,0,0,0,0,0,0,0,0,0,0,0,0,0,0,0,0,0,0,0,0,0,0,0,0,0,0,0,0,0,0,0,0,0,0,0,0,0,0,0,0,0,0,0,0,0,0,0,0,0,0,0,0,0,0,0,0,0,0,0,0,0,0,0,0,0,0,0,0,0,0,0,0,0,0,0,0,0,0,0,0,0,0,0,0,0,0,0,0,0,0,0,0,0,0,0,0,0,0,0,0,0,0,0,0,0,0,0,0,0,0,0,0,0,0,0,0,0,0,0,0,0,0,0,0,0,0,0,0,0,0,0,0,0,0,0,0,0,0,0,0,0,0,0,0,0,0,0,0,0,0,0,0,0,0,0,0,0,0,0,0,0,0,0,0,0,0,0,0,0,0,0,0,0,0,0,0,0,0,0,0,0,0,0,0,0,0,0,0,0,0,0,0,0,
0,0,0,0,0,0,0,0,0,0,0,0,0,0,0,0,0,0,0,0,0,0,0,0,0,0,0,0,0,0,0,0,0,0,0,0,0,0,0,0,0,0,0,0,0,0,0,0,0,0,0,0,0,0,0,0,0,0,0,0,0,0,0,0,0,0,0,0,0,0,0,0,0,0,0,0,0,0,0,0,0,0,0,0,0,0,0,0,0,0,0,0,0,0,0,0,0,0,0,0,0,0,0,0,0,0,0,0,0,0,0,0,0,0,0,0,0,0,0,0,0,0,0,0,0,0,0,0,0,0,0,0,0,0,0,0,0,0,0,0,0,0,0,0,0,0,0,0,0,0,0,0,0,0,0,0,0,0,0,0,0,0,0,0,0,0,0,0,0,0,0,0,0,0,0,0,0,0,0,0,0,0,0,0,0,0,0,0,0,0,0,0,0,0,0,0,0,0,0,0,0,0,0,0,0,0,0,0,0,0,0,0,0,0,0,0,0,0,0,0,0,0,0,0,0,0,0,0,0,0,0,0,0,0,0,0,0,0,0,0,
0,0,0,0,0,0,0,0,0,0,0,0,0,0,0,0,0,0,0,0,0,0,0,0,0,0,0,0,0,0,0,0,0,0,0,0,0,0,0,0,0,0,0,0,0,0,0,0,0,0,0,0,0,0,0,0,0,0,0,0,0,0,0,0,0,0,0,0,0,0,0,0,0,0,0,0,0,0,0,0,0,0,0,0,0,0,0,0,0,0,0,0,0,0,0,0,0,0,0,0,0,0,0,0,0,0,0,0,0,0,0,0,0,0,0,0,0,0,0,0,0,0,0,0,0,0,0,0,0,0,0,0,0,0,0,0,0,0,0,0,0,0,0,0,0,0,0,0,0,0,0,0,0,0,0,0,0,0,0,0,0,0,0,0,0,0,0,0,0,0,0,0,0,0,0,0,0,0,0,0,0,0,0,0,0,0,0,0,0,0,0,0,0,0,0,0,0,0,0,0,0,0,0,0,0,0,0,0,0,0,0,0,0,0,0,0,0,0,0,0,0,0,0,0,0,0,0,0,0,0,0,0,0,0,0,0,0,0,0,0,
0,0,0,0,0,0,0,0,0,0,0,0,0,0,0,0,0,0,0,0,0,0,0,0,0,0,0,0,0,0,0,0,0,0,0,0,0,0,0,0,0,0,0,0,0,0,0,0,0,0,0,0,0,0,0,0,0,0,0,0,0,0,0,0,0,0,0,0,0,0,0,0,0,0,0,0,0,0,0,0,0,0,0,0,0,0,0,0,0,0,0,0,0,0,0,0,0,0,0,0,0,0,0,0,0,0,0,0,0,0,0,0,0,0,0,0,0,0,0,0,0,0,0,0,0,0,0,0,0,0,0,0,0,0,0,0,0,0,0,0,0,0,0,0,0,0,0,0,0,0,0,0,0,0,0,0,0,0,0,0,0,0,0,0,0,0,0,0,0,0,0,0,0,0,0,0,0,0,0,0,0,0,0,0,0,0,0,0,0,0,0,0,0,0,0,0,0,0,0,0,0,0,0,0,0,0,0,0,0,0,0,0,0,0,0,0,0,0,0,0,0,0,0,0,0,0,0,0,0,0,0,0,0,0,0,0,0,0,0,0,
0,0,0,0,0,0,0,0,0,0,0,0,0,0,0,0,0,0,0,0,0,0,0,0,0,0,0,0,0,0,0,0,0,0,0,0,0,0,0,0,0,0,0,0,0,0,0,0,0,0,0,0,0,0,0,0,0,0,0,0,0,0,0,0,0,0,0,0,0,0,0,0,0,0,0,0,0,0,0,0,0,0,0,0,0,0,0,0,0,0,0,0,0,0,0,0,0,0,0,0,0,0,0,0,0,0,0,0,0,0,0,0,0,0,0,0,0,0,0,0,0,0,0,0,0,0,0,0,0,0,0,0,0,0,0,0,0,0,0,0,0,0,0,0,0,0,0,0,0,0,0,0,0,0,0,0,0,0,0,0,0,0,0,0,0,0,0,0,0,0,0,0,0,0,0,0,0,0,0,0,0,0,0,0,0,0,0,0,0,0,0,0,0,0,0,0,0,0,0,0,0,0,0,0,0,0,0,0,0,0,0,0,0,0,0,0,0,0,0,0,0,0,0,0,0,0,0,0,0,0,0,0,0,0,0,0,0,0,0,0,
0,0,0,0,0,0,0,0,0,0,0,0,0,0,0,0,0,0,0,0,0,0,0,0,0,0,0,0,0,0,0,0,0,0,0,0,0,0,0,0,0,0,0,0,0,0,0,0,0,0,0,0,0,0,0,0,0,0,0,0,0,0,0,0,0,0,0,0,0,0,0,0,0,0,0,0,0,0,0,0,0,0,0,0,0,0,0,0,0,0,0,0,0,0,0,0,0,0,0,0,0,0,0,0,0,0,0,0,0,0,0,0,0,0,0,0,0,0,0,0,0,0,0,0,0,0,0,0,0,0,0,0,0,0,0,0,0,0,0,0,0,0,0,0,0,0,0,0,0,0,0,0,0,0,0,0,0,0,0,0,0,0,0,0,0,0,0,0,0,0,0,0,0,0,0,0,0,0,0,0,0,0,0,0,0,0,0,0,0,0,0,0,0,0,0,0,0,0,0,0,0,0,0,0,0,0,0,0,0,0,0,0,0,0,0,0,0,0,0,0,0,0,0,0,0,0,0,0,0,0,0,0,0,0,0,0,0,0,0,0,
0,0,0,0,0,0,0,0,0,0,0,0,0,0,0,0,0,0,0,0,0,0,0,0,0,0,0,0,0,0,0,0,0,0,0,0,0,0,0,0,0,0,0,0,0,0,0,0,0,0,0,0,0,0,0,0,0,0,0,0,0,0,0,0,0,0,0,0,0,0,0,0,0,0,0,0,0,0,0,0,0,0,0,0,0,0,0,0,0,0,0,0,0,0,0,0,0,0,0,0,0,0,0,0,0,0,0,0,0,0,0,0,0,0,0,0,0,0,0,0,0,0,0,0,0,0,0,0,0,0,0,0,0,0,0,0,0,0,0,0,0,0,0,0,0,0,0,0,0,0,0,0,0,0,0,0,0,0,0,0,0,0,0,0,0,0,0,0,0,0,0,0,0,0,0,0,0,0,0,0,0,0,0,0,0,0,0,0,0,0,0,0,0,0,0,0,0,0,0,0,0,0,0,0,0,0,0,0,0,0,0,0,0,0,0,0,0,0,0,0,0,0,0,0,0,0,0,0,0,0,0,0,0,0,0,0,0,0,0,0,
0,0,0,0,0,0,0,0,0,0,0,0,0,0,0,0,0,0,0,0,0,0,0,0,0,0,0,0,0,0,0,0,0,0,0,0,0,0,0,0,0,0,0,0,0,0,0,0,0,0,0,0,0,0,0,0,0,0,0,0,0,0,0,0,0,0,0,0,0,0,0,0,0,0,0,0,0,0,0,0,0,0,0,0,0,0,0,0,0,0,0,0,0,0,0,0,0,0,0,0,0,0,0,0,0,0,0,0,0,0,0,0,0,0,0,0,0,0,0,0,0,0,0,0,0,0,0,0,0,0,0,0,0,0,0,0,0,0,0,0,0,0,0,0,0,0,0,0,0,0,0,0,0,0,0,0,0,0,0,0,0,0,0,0,0,0,0,0,0,0,0,0,0,0,0,0,0,0,0,0,0,0,0,0,0,0,0,0,0,0,0,0,0,0,0,0,0,0,0,0,0,0,0,0,0,0,0,0,0,0,0,0,0,0,0,0,0,0,0,0,0,0,0,0,0,0,0,0,0,0,0,0,0,0,0,0,0,0,0,0,
0,0,0,0,0,0,0,0,0,0,0,0,0,0,0,0,0,0,0,0,0,0,0,0,0,0,0,0,0,0,0,0,0,0,0,0,0,0,0,0,0,0,0,0,0,0,0,0,0,0,0,0,0,0,0,0,0,0,0,0,0,0,0,0,0,0,0,0,0,0,0,0,0,0,0,0,0,0,0,0,0,0,0,0,0,0,0,0,0,0,0,0,0,0,0,0,0,0,0,0,0,0,0,0,0,0,0,0,0,0,0,0,0,0,0,0,0,0,0,0,0,0,0,0,0,0,0,0,0,0,0,0,0,0,0,0,0,0,0,0,0,0,0,0,0,0,0,0,0,0,0,0,0,0,0,0,0,0,0,0,0,0,0,0,0,0,0,0,0,0,0,0,0,0,0,0,0,0,0,0,0,0,0,0,0,0,0,0,0,0,0,0,0,0,0,0,0,0,0,0,0,0,0,0,0,0,0,0,0,0,0,0,0,0,0,0,0,0,0,0,0,0,0,0,0,0,0,0,0,0,0,0,0,0,0,0,0,0,0,0,
0,0,0,0,0,0,0,0,0,0,0,0,0,0,0,0,0,0,0,0,0,0,0,0,0,0,0,0,0,0,0,0,0,0,0,0,0,0,0,0,0,0,0,0,0,0,0,0,0,0,0,0,0,0,0,0,0,0,0,0,0,0,0,0,0,0,0,0,0,0,0,0,0,0,0,0,0,0,0,0,0,0,0,0,0,0,0,0,0,0,0,0,0,0,0,0,0,0,0,0,0,0,0,0,0,0,0,0,0,0,0,0,0,0,0,0,0,0,0,0,0,0,0,0,0,0,0,0,0,0,0,0,0,0,0,0,0,0,0,0,0,0,0,0,0,0,0,0,0,0,0,0,0,0,0,0,0,0,0,0,0,0,0,0,0,0,0,0,0,0,0,0,0,0,0,0,0,0,0,0,0,0,0,0,0,0,0,0,0,0,0,0,0,0,0,0,0,0,0,0,0,0,0,0,0,0,0,0,0,0,0,0,0,0,0,0,0,0,0,0,0,0,0,0,0,0,0,0,0,0,0,0,0,0,0,0,0,0,0,0,
0,0,0,0,0,0,0,0,0,0,0,0,0,0,0,0,0,0,0,0,0,0,0,0,0,0,0,0,0,0,0,0,0,0,0,0,0,0,0,0,0,0,0,0,0,0,0,0,0,0,0,0,0,0,0,0,0,0,0,0,0,0,0,0,0,0,0,0,0,0,0,0,0,0,0,0,0,0,0,0,0,0,0,0,0,0,0,0,0,0,0,0,0,0,0,0,0,0,0,0,0,0,0,0,0,0,0,0,0,0,0,0,0,0,0,0,0,0,0,0,0,0,0,0,0,0,0,0,0,0,0,0,0,0,0,0,0,0,0,0,0,0,0,0,0,0,0,0,0,0,0,0,0,0,0,0,0,0,0,0,0,0,0,0,0,0,0,0,0,0,0,0,0,0,0,0,0,0,0,0,0,0,0,0,0,0,0,0,0,0,0,0,0,0,0,0,0,0,0,0,0,0,0,0,0,0,0,0,0,0,0,0,0,0,0,0,0,0,0,0,0,0,0,0,0,0,0,0,0,0,0,0,0,0,0,0,0,0,0,0,
0,0,0,0,0,0,0,0,0,0,0,0,0,0,0,0,0,0,0,0,0,0,0,0,0,0,0,0,0,0,0,0,0,0,0,0,0,0,0,0,0,0,0,0,0,0,0,0,0,0,0,0,0,0,0,0,0,0,0,0,0,0,0,0,0,0,0,0,0,0,0,0,0,0,0,0,0,0,0,0,0,0,0,0,0,0,0,0,0,0,0,0,0,0,0,0,0,0,0,0,0,0,0,0,0,0,0,0,0,0,0,0,0,0,0,0,0,0,0,0,0,0,0,0,0,0,0,0,0,0,0,0,0,0,0,0,0,0,0,0,0,0,0,0,0,0,0,0,0,0,0,0,0,0,0,0,0,0,0,0,0,0,0,0,0,0,0,0,0,0,0,0,0,0,0,0,0,0,0,0,0,0,0,0,0,0,0,0,0,0,0,0,0,0,0,0,0,0,0,0,0,0,0,0,0,0,0,0,0,0,0,0,0,0,0,0,0,0,0,0,0,0,0,0,0,0,0,0,0,0,0,0,0,0,0,0,0,0,0,0,
0,0,0,0,0,0,0,0,0,0,0,0,0,0,0,0,0,0,0,0,0,0,0,0,0,0,0,0,0,0,0,0,0,0,0,0,0,0,0,0,0,0,0,0,0,0,0,0,0,0,0,0,0,0,0,0,0,0,0,0,0,0,0,0,0,0,0,0,0,0,0,0,0,0,0,0,0,0,0,0,0,0,0,0,0,0,0,0,0,0,0,0,0,0,0,0,0,0,0,0,0,0,0,0,0,0,0,0,0,0,0,0,0,0,0,0,0,0,0,0,0,0,0,0,0,0,0,0,0,0,0,0,0,0,0,0,0,0,0,0,0,0,0,0,0,0,0,0,0,0,0,0,0,0,0,0,0,0,0,0,0,0,0,0,0,0,0,0,0,0,0,0,0,0,0,0,0,0,0,0,0,0,0,0,0,0,0,0,0,0,0,0,0,0,0,0,0,0,0,0,0,0,0,0,0,0,0,0,0,0,0,0,0,0,0,0,0,0,0,0,0,0,0,0,0,0,0,0,0,0,0,0,0,0,0,0,0,0,0,0,
0,0,0,0,0,0,0,0,0,0,0,0,0,0,0,0,0,0,0,0,0,0,0,0,0,0,0,0,0,0,0,0,0,0,0,0,0,0,0,0,0,0,0,0,0,0,0,0,0,0,0,0,0,0,0,0,0,0,0,0,0,0,0,0,0,0,0,0,0,0,0,0,0,0,0,0,0,0,0,0,0,0,0,0,0,0,0,0,0,0,0,0,0,0,0,0,0,0,0,0,0,0,0,0,0,0,0,0,0,0,0,0,0,0,0,0,0,0,0,0,0,0,0,0,0,0,0,0,0,0,0,0,0,0,0,0,0,0,0,0,0,0,0,0,0,0,0,0,0,0,0,0,0,0,0,0,0,0,0,0,0,0,0,0,0,0,0,0,0,0,0,0,0,0,0,0,0,0,0,0,0,0,0,0,0,0,0,0,0,0,0,0,0,0,0,0,0,0,0,0,0,0,0,0,0,0,0,0,0,0,0,0,0,0,0,0,0,0,0,0,0,0,0,0,0,0,0,0,0,0,0,0,0,0,0,0,0,0,0,0,
0,0,0,0,0,0,0,0,0,0,0,0,0,0,0,0,0,0,0,0,0,0,0,0,0,0,0,0,0,0,0,0,0,0,0,0,0,0,0,0,0,0,0,0,0,0,0,0,0,0,0,0,0,0,0,0,0,0,0,0,0,0,0,0,0,0,0,0,0,0,0,0,0,0,0,0,0,0,0,0,0,0,0,0,0,0,0,0,0,0,0,0,0,0,0,0,0,0,0,0,0,0,0,0,0,0,0,0,0,0,0,0,0,0,0,0,0,0,0,0,0,0,0,0,0,0,0,0,0,0,0,0,0,0,0,0,0,0,0,0,0,0,0,0,0,0,0,0,0,0,0,0,0,0,0,0,0,0,0,0,0,0,0,0,0,0,0,0,0,0,0,0,0,0,0,0,0,0,0,0,0,0,0,0,0,0,0,0,0,0,0,0,0,0,0,0,0,0,0,0,0,0,0,0,0,0,0,0,0,0,0,0,0,0,0,0,0,0,0,0,0,0,0,0,0,0,0,0,0,0,0,0,0,0,0,0,0,0,0,0,
0,0,0,0,0,0,0,0,0,0,0,0,0,0,0,0,0,0,0,0,0,0,0,0,0,0,0,0,0,0,0,0,0,0,0,0,0,0,0,0,0,0,0,0,0,0,0,0,0,0,0,0,0,0,0,0,0,0,0,0,0,0,0,0,0,0,0,0,0,0,0,0,0,0,0,0,0,0,0,0,0,0,0,0,0,0,0,0,0,0,0,0,0,0,0,0,0,0,0,0,0,0,0,0,0,0,0,0,0,0,0,0,0,0,0,0,0,0,0,0,0,0,0,0,0,0,0,0,0,0,0,0,0,0,0,0,0,0,0,0,0,0,0,0,0,0,0,0,0,0,0,0,0,0,0,0,0,0,0,0,0,0,0,0,0,0,0,0,0,0,0,0,0,0,0,0,0,0,0,0,0,0,0,0,0,0,0,0,0,0,0,0,0,0,0,0,0,0,0,0,0,0,0,0,0,0,0,0,0,0,0,0,0,0,0,0,0,0,0,0,0,0,0,0,0,0,0,0,0,0,0,0,0,0,0,0,0,0,0,0,
0,0,0,0,0,0,0,0,0,0,0,0,0,0,0,0,0,0,0,0,0,0,0,0,0,0,0,0,0,0,0,0,0,0,0,0,0,0,0,0,0,0,0,0,0,0,0,0,0,0,0,0,0,0,0,0,0,0,0,0,0,0,0,0,0,0,0,0,0,0,0,0,0,0,0,0,0,0,0,0,0,0,0,0,0,0,0,0,0,0,0,0,0,0,0,0,0,0,0,0,0,0,0,0,0,0,0,0,0,0,0,0,0,0,0,0,0,0,0,0,0,0,0,0,0,0,0,0,0,0,0,0,0,0,0,0,0,0,0,0,0,0,0,0,0,0,0,0,0,0,0,0,0,0,0,0,0,0,0,0,0,0,0,0,0,0,0,0,0,0,0,0,0,0,0,0,0,0,0,0,0,0,0,0,0,0,0,0,0,0,0,0,0,0,0,0,0,0,0,0,0,0,0,0,0,0,0,0,0,0,0,0,0,0,0,0,0,0,0,0,0,0,0,0,0,0,0,0,0,0,0,0,0,0,0,0,0,0,0,0,
0,0,0,0,0,0,0,0,0,0,0,0,0,0,0,0,0,0,0,0,0,0,0,0,0,0,0,0,0,0,0,0,0,0,0,0,0,0,0,0,0,0,0,0,0,0,0,0,0,0,0,0,0,0,0,0,0,0,0,0,0,0,0,0,0,0,0,0,0,0,0,0,0,0,0,0,0,0,0,0,0,0,0,0,0,0,0,0,0,0,0,0,0,0,0,0,0,0,0,0,0,0,0,0,0,0,0,0,0,0,0,0,0,0,0,0,0,0,0,0,0,0,0,0,0,0,0,0,0,0,0,0,0,0,0,0,0,0,0,0,0,0,0,0,0,0,0,0,0,0,0,0,0,0,0,0,0,0,0,0,0,0,0,0,0,0,0,0,0,0,0,0,0,0,0,0,0,0,0,0,0,0,0,0,0,0,0,0,0,0,0,0,0,0,0,0,0,0,0,0,0,0,0,0,0,0,0,0,0,0,0,0,0,0,0,0,0,0,0,0,0,0,0,0,0,0,0,0,0,0,0,0,0,0,0,0,0,0,0,0,
0,0,0,0,0,0,0,0,0,0,0,0,0,0,0,0,0,0,0,0,0,0,0,0,0,0,0,0,0,0,0,0,0,0,0,0,0,0,0,0,0,0,0,0,0,0,0,0,0,0,0,0,0,0,0,0,0,0,0,0,0,0,0,0,0,0,0,0,0,0,0,0,0,0,0,0,0,0,0,0,0,0,0,0,0,0,0,0,0,0,0,0,0,0,0,0,0,0,0,0,0,0,0,0,0,0,0,0,0,0,0,0,0,0,0,0,0,0,0,0,0,0,0,0,0,0,0,0,0,0,0,0,0,0,0,0,0,0,0,0,0,0,0,0,0,0,0,0,0,0,0,0,0,0,0,0,0,0,0,0,0,0,0,0,0,0,0,0,0,0,0,0,0,0,0,0,0,0,0,0,0,0,0,0,0,0,0,0,0,0,0,0,0,0,0,0,0,0,0,0,0,0,0,0,0,0,0,0,0,0,0,0,0,0,0,0,0,0,0,0,0,0,0,0,0,0,0,0,0,0,0,0,0,0,0,0,0,0,0,0,
0,0,0,0,0,0,0,0,0,0,0,0,0,0,0,0,0,0,0,0,0,0,0,0,0,0,0,0,0,0,0,0,0,0,0,0,0,0,0,0,0,0,0,0,0,0,0,0,0,0,0,0,0,0,0,0,0,0,0,0,0,0,0,0,0,0,0,0,0,0,0,0,0,0,0,0,0,0,0,0,0,0,0,0,0,0,0,0,0,0,0,0,0,0,0,0,0,0,0,0,0,0,0,0,0,0,0,0,0,0,0,0,0,0,0,0,0,0,0,0,0,0,0,0,0,0,0,0,0,0,0,0,0,0,0,0,0,0,0,0,0,0,0,0,0,0,0,0,0,0,0,0,0,0,0,0,0,0,0,0,0,0,0,0,0,0,0,0,0,0,0,0,0,0,0,0,0,0,0,0,0,0,0,0,0,0,0,0,0,0,0,0,0,0,0,0,0,0,0,0,0,0,0,0,0,0,0,0,0,0,0,0,0,0,0,0,0,0,0,0,0,0,0,0,0,0,0,0,0,0,0,0,0,0,0,0,0,0,0,0,
0,0,0,0,0,0,0,0,0,0,0,0,0,0,0,0,0,0,0,0,0,0,0,0,0,0,0,0,0,0,0,0,0,0,0,0,0,0,0,0,0,0,0,0,0,0,0,0,0,0,0,0,0,0,0,0,0,0,0,0,0,0,0,0,0,0,0,0,0,0,0,0,0,0,0,0,0,0,0,0,0,0,0,0,0,0,0,0,0,0,0,0,0,0,0,0,0,0,0,0,0,0,0,0,0,0,0,0,0,0,0,0,0,0,0,0,0,0,0,0,0,0,0,0,0,0,0,0,0,0,0,0,0,0,0,0,0,0,0,0,0,0,0,0,0,0,0,0,0,0,0,0,0,0,0,0,0,0,0,0,0,0,0,0,0,0,0,0,0,0,0,0,0,0,0,0,0,0,0,0,0,0,0,0,0,0,0,0,0,0,0,0,0,0,0,0,0,0,0,0,0,0,0,0,0,0,0,0,0,0,0,0,0,0,0,0,0,0,0,0,0,0,0,0,0,0,0,0,0,0,0,0,0,0,0,0,0,0,0,0,
0,0,0,0,0,0,0,0,0,0,0,0,0,0,0,0,0,0,0,0,0,0,0,0,0,0,0,0,0,0,0,0,0,0,0,0,0,0,0,0,0,0,0,0,0,0,0,0,0,0,0,0,0,0,0,0,0,0,0,0,0,0,0,0,0,0,0,0,0,0,0,0,0,0,0,0,0,0,0,0,0,0,0,0,0,0,0,0,0,0,0,0,0,0,0,0,0,0,0,0,0,0,0,0,0,0,0,0,0,0,0,0,0,0,0,0,0,0,0,0,0,0,0,0,0,0,0,0,0,0,0,0,0,0,0,0,0,0,0,0,0,0,0,0,0,0,0,0,0,0,0,0,0,0,0,0,0,0,0,0,0,0,0,0,0,0,0,0,0,0,0,0,0,0,0,0,0,0,0,0,0,0,0,0,0,0,0,0,0,0,0,0,0,0,0,0,0,0,0,0,0,0,0,0,0,0,0,0,0,0,0,0,0,0,0,0,0,0,0,0,0,0,0,0,0,0,0,0,0,0,0,0,0,0,0,0,0,0,0,0,
0,0,0,0,0,0,0,0,0,0,0,0,0,0,0,0,0,0,0,0,0,0,0,0,0,0,0,0,0,0,0,0,0,0,0,0,0,0,0,0,0,0,0,0,0,0,0,0,0,0,0,0,0,0,0,0,0,0,0,0,0,0,0,0,0,0,0,0,0,0,0,0,0,0,0,0,0,0,0,0,0,0,0,0,0,0,0,0,0,0,0,0,0,0,0,0,0,0,0,0,0,0,0,0,0,0,0,0,0,0,0,0,0,0,0,0,0,0,0,0,0,0,0,0,0,0,0,0,0,0,0,0,0,0,0,0,0,0,0,0,0,0,0,0,0,0,0,0,0,0,0,0,0,0,0,0,0,0,0,0,0,0,0,0,0,0,0,0,0,0,0,0,0,0,0,0,0,0,0,0,0,0,0,0,0,0,0,0,0,0,0,0,0,0,0,0,0,0,0,0,0,0,0,0,0,0,0,0,0,0,0,0,0,0,0,0,0,0,0,0,0,0,0,0,0,0,0,0,0,0,0,0,0,0,0,0,0,0,0,0,
0,0,0,0,0,0,0,0,0,0,0,0,0,0,0,0,0,0,0,0,0,0,0,0,0,0,0,0,0,0,0,0,0,0,0,0,0,0,0,0,0,0,0,0,0,0,0,0,0,0,0,0,0,0,0,0,0,0,0,0,0,0,0,0,0,0,0,0,0,0,0,0,0,0,0,0,0,0,0,0,0,0,0,0,0,0,0,0,0,0,0,0,0,0,0,0,0,0,0,0,0,0,0,0,0,0,0,0,0,0,0,0,0,0,0,0,0,0,0,0,0,0,0,0,0,0,0,0,0,0,0,0,0,0,0,0,0,0,0,0,0,0,0,0,0,0,0,0,0,0,0,0,0,0,0,0,0,0,0,0,0,0,0,0,0,0,0,0,0,0,0,0,0,0,0,0,0,0,0,0,0,0,0,0,0,0,0,0,0,0,0,0,0,0,0,0,0,0,0,0,0,0,0,0,0,0,0,0,0,0,0,0,0,0,0,0,0,0,0,0,0,0,0,0,0,0,0,0,0,0,0,0,0,0,0,0,0,0,0,0,
0,0,0,0,0,0,0,0,0,0,0,0,0,0,0,0,0,0,0,0,0,0,0,0,0,0,0,0,0,0,0,0,0,0,0,0,0,0,0,0,0,0,0,0,0,0,0,0,0,0,0,0,0,0,0,0,0,0,0,0,0,0,0,0,0,0,0,0,0,0,0,0,0,0,0,0,0,0,0,0,0,0,0,0,0,0,0,0,0,0,0,0,0,0,0,0,0,0,0,0,0,0,0,0,0,0,0,0,0,0,0,0,0,0,0,0,0,0,0,0,0,0,0,0,0,0,0,0,0,0,0,0,0,0,0,0,0,0,0,0,0,0,0,0,0,0,0,0,0,0,0,0,0,0,0,0,0,0,0,0,0,0,0,0,0,0,0,0,0,0,0,0,0,0,0,0,0,0,0,0,0,0,0,0,0,0,0,0,0,0,0,0,0,0,0,0,0,0,0,0,0,0,0,0,0,0,0,0,0,0,0,0,0,0,0,0,0,0,0,0,0,0,0,0,0,0,0,0,0,0,0,0,0,0,0,0,0,0,0,0,
0,0,0,0,0,0,0,0,0,0,0,0,0,0,0,0,0,0,0,0,0,0,0,0,0,0,0,0,0,0,0,0,0,0,0,0,0,0,0,0,0,0,0,0,0,0,0,0,0,0,0,0,0,0,0,0,0,0,0,0,0,0,0,0,0,0,0,0,0,0,0,0,0,0,0,0,0,0,0,0,0,0,0,0,0,0,0,0,0,0,0,0,0,0,0,0,0,0,0,0,0,0,0,0,0,0,0,0,0,0,0,0,0,0,0,0,0,0,0,0,0,0,0,0,0,0,0,0,0,0,0,0,0,0,0,0,0,0,0,0,0,0,0,0,0,0,0,0,0,0,0,0,0,0,0,0,0,0,0,0,0,0,0,0,0,0,0,0,0,0,0,0,0,0,0,0,0,0,0,0,0,0,0,0,0,0,0,0,0,0,0,0,0,0,0,0,0,0,0,0,0,0,0,0,0,0,0,0,0,0,0,0,0,0,0,0,0,0,0,0,0,0,0,0,0,0,0,0,0,0,0,0,0,0,0,0,0,0,0,0,
0,0,0,0,0,0,0,0,0,0,0,0,0,0,0,0,0,0,0,0,0,0,0,0,0,0,0,0,0,0,0,0,0,0,0,0,0,0,0,0,0,0,0,0,0,0,0,0,0,0,0,0,0,0,0,0,0,0,0,0,0,0,0,0,0,0,0,0,0,0,0,0,0,0,0,0,0,0,0,0,0,0,0,0,0,0,0,0,0,0,0,0,0,0,0,0,0,0,0,0,0,0,0,0,0,0,0,0,0,0,0,0,0,0,0,0,0,0,0,0,0,0,0,0,0,0,0,0,0,0,0,0,0,0,0,0,0,0,0,0,0,0,0,0,0,0,0,0,0,0,0,0,0,0,0,0,0,0,0,0,0,0,0,0,0,0,0,0,0,0,0,0,0,0,0,0,0,0,0,0,0,0,0,0,0,0,0,0,0,0,0,0,0,0,0,0,0,0,0,0,0,0,0,0,0,0,0,0,0,0,0,0,0,0,0,0,0,0,0,0,0,0,0,0,0,0,0,0,0,0,0,0,0,0,0,0,0,0,0,0,
0,0,0,0,0,0,0,0,0,0,0,0,0,0,0,0,0,0,0,0,0,0,0,0,0,0,0,0,0,0,0,0,0,0,0,0,0,0,0,0,0,0,0,0,0,0,0,0,0,0,0,0,0,0,0,0,0,0,0,0,0,0,0,0,0,0,0,0,0,0,0,0,0,0,0,0,0,0,0,0,0,0,0,0,0,0,0,0,0,0,0,0,0,0,0,0,0,0,0,0,0,0,0,0,0,0,0,0,0,0,0,0,0,0,0,0,0,0,0,0,0,0,0,0,0,0,0,0,0,0,0,0,0,0,0,0,0,0,0,0,0,0,0,0,0,0,0,0,0,0,0,0,0,0,0,0,0,0,0,0,0,0,0,0,0,0,0,0,0,0,0,0,0,0,0,0,0,0,0,0,0,0,0,0,0,0,0,0,0,0,0,0,0,0,0,0,0,0,0,0,0,0,0,0,0,0,0,0,0,0,0,0,0,0,0,0,0,0,0,0,0,0,0,0,0,0,0,0,0,0,0,0,0,0,0,0,0,0,0,0,
0,0,0,0,0,0,0,0,0,0,0,0,0,0,0,0,0,0,0,0,0,0,0,0,0,0,0,0,0,0,0,0,0,0,0,0,0,0,0,0,0,0,0,0,0,0,0,0,0,0,0,0,0,0,0,0,0,0,0,0,0,0,0,0,0,0,0,0,0,0,0,0,0,0,0,0,0,0,0,0,0,0,0,0,0,0,0,0,0,0,0,0,0,0,0,0,0,0,0,0,0,0,0,0,0,0,0,0,0,0,0,0,0,0,0,0,0,0,0,0,0,0,0,0,0,0,0,0,0,0,0,0,0,0,0,0,0,0,0,0,0,0,0,0,0,0,0,0,0,0,0,0,0,0,0,0,0,0,0,0,0,0,0,0,0,0,0,0,0,0,0,0,0,0,0,0,0,0,0,0,0,0,0,0,0,0,0,0,0,0,0,0,0,0,0,0,0,0,0,0,0,0,0,0,0,0,0,0,0,0,0,0,0,0,0,0,0,0,0,0,0,0,0,0,0,0,0,0,0,0,0,0,0,0,0,0,0,0,0,0,
0,0,0,0,0,0,0,0,0,0,0,0,0,0,0,0,0,0,0,0,0,0,0,0,0,0,0,0,0,0,0,0,0,0,0,0,0,0,0,0,0,0,0,0,0,0,0,0,0,0,0,0,0,0,0,0,0,0,0,0,0,0,0,0,0,0,0,0,0,0,0,0,0,0,0,0,0,0,0,0,0,0,0,0,0,0,0,0,0,0,0,0,0,0,0,0,0,0,0,0,0,0,0,0,0,0,0,0,0,0,0,0,0,0,0,0,0,0,0,0,0,0,0,0,0,0,0,0,0,0,0,0,0,0,0,0,0,0,0,0,0,0,0,0,0,0,0,0,0,0,0,0,0,0,0,0,0,0,0,0,0,0,0,0,0,0,0,0,0,0,0,0,0,0,0,0,0,0,0,0,0,0,0,0,0,0,0,0,0,0,0,0,0,0,0,0,0,0,0,0,0,0,0,0,0,0,0,0,0,0,0,0,0,0,0,0,0,0,0,0,0,0,0,0,0,0,0,0,0,0,0,0,0,0,0,0,0,0,0,0,
0,0,0,0,0,0,0,0,0,0,0,0,0,0,0,0,0,0,0,0,0,0,0,0,0,0,0,0,0,0,0,0,0,0,0,0,0,0,0,0,0,0,0,0,0,0,0,0,0,0,0,0,0,0,0,0,0,0,0,0,0,0,0,0,0,0,0,0,0,0,0,0,0,0,0,0,0,0,0,0,0,0,0,0,0,0,0,0,0,0,0,0,0,0,0,0,0,0,0,0,0,0,0,0,0,0,0,0,0,0,0,0,0,0,0,0,0,0,0,0,0,0,0,0,0,0,0,0,0,0,0,0,0,0,0,0,0,0,0,0,0,0,0,0,0,0,0,0,0,0,0,0,0,0,0,0,0,0,0,0,0,0,0,0,0,0,0,0,0,0,0,0,0,0,0,0,0,0,0,0,0,0,0,0,0,0,0,0,0,0,0,0,0,0,0,0,0,0,0,0,0,0,0,0,0,0,0,0,0,0,0,0,0,0,0,0,0,0,0,0,0,0,0,0,0,0,0,0,0,0,0,0,0,0,0,0,0,0,0,0,
0,0,0,0,0,0,0,0,0,0,0,0,0,0,0,0,0,0,0,0,0,0,0,0,0,0,0,0,0,0,0,0,0,0,0,0,0,0,0,0,0,0,0,0,0,0,0,0,0,0,0,0,0,0,0,0,0,0,0,0,0,0,0,0,0,0,0,0,0,0,0,0,0,0,0,0,0,0,0,0,0,0,0,0,0,0,0,0,0,0,0,0,0,0,0,0,0,0,0,0,0,0,0,0,0,0,0,0,0,0,0,0,0,0,0,0,0,0,0,0,0,0,0,0,0,0,0,0,0,0,0,0,0,0,0,0,0,0,0,0,0,0,0,0,0,0,0,0,0,0,0,0,0,0,0,0,0,0,0,0,0,0,0,0,0,0,0,0,0,0,0,0,0,0,0,0,0,0,0,0,0,0,0,0,0,0,0,0,0,0,0,0,0,0,0,0,0,0,0,0,0,0,0,0,0,0,0,0,0,0,0,0,0,0,0,0,0,0,0,0,0,0,0,0,0,0,0,0,0,0,0,0,0,0,0,0,0,0,0,0,
0,0,0,0,0,0,0,0,0,0,0,0,0,0,0,0,0,0,0,0,0,0,0,0,0,0,0,0,0,0,0,0,0,0,0,0,0,0,0,0,0,0,0,0,0,0,0,0,0,0,0,0,0,0,0,0,0,0,0,0,0,0,0,0,0,0,0,0,0,0,0,0,0,0,0,0,0,0,0,0,0,0,0,0,0,0,0,0,0,0,0,0,0,0,0,0,0,0,0,0,0,0,0,0,0,0,0,0,0,0,0,0,0,0,0,0,0,0,0,0,0,0,0,0,0,0,0,0,0,0,0,0,0,0,0,0,0,0,0,0,0,0,0,0,0,0,0,0,0,0,0,0,0,0,0,0,0,0,0,0,0,0,0,0,0,0,0,0,0,0,0,0,0,0,0,0,0,0,0,0,0,0,0,0,0,0,0,0,0,0,0,0,0,0,0,0,0,0,0,0,0,0,0,0,0,0,0,0,0,0,0,0,0,0,0,0,0,0,0,0,0,0,0,0,0,0,0,0,0,0,0,0,0,0,0,0,0,0,0,0,
0,0,0,0,0,0,0,0,0,0,0,0,0,0,0,0,0,0,0,0,0,0,0,0,0,0,0,0,0,0,0,0,0,0,0,0,0,0,0,0,0,0,0,0,0,0,0,0,0,0,0,0,0,0,0,0,0,0,0,0,0,0,0,0,0,0,0,0,0,0,0,0,0,0,0,0,0,0,0,0,0,0,0,0,0,0,0,0,0,0,0,0,0,0,0,0,0,0,0,0,0,0,0,0,0,0,0,0,0,0,0,0,0,0,0,0,0,0,0,0,0,0,0,0,0,0,0,0,0,0,0,0,0,0,0,0,0,0,0,0,0,0,0,0,0,0,0,0,0,0,0,0,0,0,0,0,0,0,0,0,0,0,0,0,0,0,0,0,0,0,0,0,0,0,0,0,0,0,0,0,0,0,0,0,0,0,0,0,0,0,0,0,0,0,0,0,0,0,0,0,0,0,0,0,0,0,0,0,0,0,0,0,0,0,0,0,0,0,0,0,0,0,0,0,0,0,0,0,0,0,0,0,0,0,0,0,0,0,0,0,
0,0,0,0,0,0,0,0,0,0,0,0,0,0,0,0,0,0,0,0,0,0,0,0,0,0,0,0,0,0,0,0,0,0,0,0,0,0,0,0,0,0,0,0,0,0,0,0,0,0,0,0,0,0,0,0,0,0,0,0,0,0,0,0,0,0,0,0,0,0,0,0,0,0,0,0,0,0,0,0,0,0,0,0,0,0,0,0,0,0,0,0,0,0,0,0,0,0,0,0,0,0,0,0,0,0,0,0,0,0,0,0,0,0,0,0,0,0,0,0,0,0,0,0,0,0,0,0,0,0,0,0,0,0,0,0,0,0,0,0,0,0,0,0,0,0,0,0,0,0,0,0,0,0,0,0,0,0,0,0,0,0,0,0,0,0,0,0,0,0,0,0,0,0,0,0,0,0,0,0,0,0,0,0,0,0,0,0,0,0,0,0,0,0,0,0,0,0,0,0,0,0,0,0,0,0,0,0,0,0,0,0,0,0,0,0,0,0,0,0,0,0,0,0,0,0,0,0,0,0,0,0,0,0,0,0,0,0,0,0,
0,0,0,0,0,0,0,0,0,0,0,0,0,0,0,0,0,0,0,0,0,0,0,0,0,0,0,0,0,0,0,0,0,0,0,0,0,0,0,0,0,0,0,0,0,0,0,0,0,0,0,0,0,0,0,0,0,0,0,0,0,0,0,0,0,0,0,0,0,0,0,0,0,0,0,0,0,0,0,0,0,0,0,0,0,0,0,0,0,0,0,0,0,0,0,0,0,0,0,0,0,0,0,0,0,0,0,0,0,0,0,0,0,0,0,0,0,0,0,0,0,0,0,0,0,0,0,0,0,0,0,0,0,0,0,0,0,0,0,0,0,0,0,0,0,0,0,0,0,0,0,0,0,0,0,0,0,0,0,0,0,0,0,0,0,0,0,0,0,0,0,0,0,0,0,0,0,0,0,0,0,0,0,0,0,0,0,0,0,0,0,0,0,0,0,0,0,0,0,0,0,0,0,0,0,0,0,0,0,0,0,0,0,0,0,0,0,0,0,0,0,0,0,0,0,0,0,0,0,0,0,0,0,0,0,0,0,0,0,0,
0,0,0,0,0,0,0,0,0,0,0,0,0,0,0,0,0,0,0,0,0,0,0,0,0,0,0,0,0,0,0,0,0,0,0,0,0,0,0,0,0,0,0,0,0,0,0,0,0,0,0,0,0,0,0,0,0,0,0,0,0,0,0,0,0,0,0,0,0,0,0,0,0,0,0,0,0,0,0,0,0,0,0,0,0,0,0,0,0,0,0,0,0,0,0,0,0,0,0,0,0,0,0,0,0,0,0,0,0,0,0,0,0,0,0,0,0,0,0,0,0,0,0,0,0,0,0,0,0,0,0,0,0,0,0,0,0,0,0,0,0,0,0,0,0,0,0,0,0,0,0,0,0,0,0,0,0,0,0,0,0,0,0,0,0,0,0,0,0,0,0,0,0,0,0,0,0,0,0,0,0,0,0,0,0,0,0,0,0,0,0,0,0,0,0,0,0,0,0,0,0,0,0,0,0,0,0,0,0,0,0,0,0,0,0,0,0,0,0,0,0,0,0,0,0,0,0,0,0,0,0,0,0,0,0,0,0,0,0,0,
0,0,0,0,0,0,0,0,0,0,0,0,0,0,0,0,0,0,0,0,0,0,0,0,0,0,0,0,0,0,0,0,0,0,0,0,0,0,0,0,0,0,0,0,0,0,0,0,0,0,0,0,0,0,0,0,0,0,0,0,0,0,0,0,0,0,0,0,0,0,0,0,0,0,0,0,0,0,0,0,0,0,0,0,0,0,0,0,0,0,0,0,0,0,0,0,0,0,0,0,0,0,0,0,0,0,0,0,0,0,0,0,0,0,0,0,0,0,0,0,0,0,0,0,0,0,0,0,0,0,0,0,0,0,0,0,0,0,0,0,0,0,0,0,0,0,0,0,0,0,0,0,0,0,0,0,0,0,0,0,0,0,0,0,0,0,0,0,0,0,0,0,0,0,0,0,0,0,0,0,0,0,0,0,0,0,0,0,0,0,0,0,0,0,0,0,0,0,0,0,0,0,0,0,0,0,0,0,0,0,0,0,0,0,0,0,0,0,0,0,0,0,0,0,0,0,0,0,0,0,0,0,0,0,0,0,0,0,0,0,
0,0,0,0,0,0,0,0,0,0,0,0,0,0,0,0,0,0,0,0,0,0,0,0,0,0,0,0,0,0,0,0,0,0,0,0,0,0,0,0,0,0,0,0,0,0,0,0,0,0,0,0,0,0,0,0,0,0,0,0,0,0,0,0,0,0,0,0,0,0,0,0,0,0,0,0,0,0,0,0,0,0,0,0,0,0,0,0,0,0,0,0,0,0,0,0,0,0,0,0,0,0,0,0,0,0,0,0,0,0,0,0,0,0,0,0,0,0,0,0,0,0,0,0,0,0,0,0,0,0,0,0,0,0,0,0,0,0,0,0,0,0,0,0,0,0,0,0,0,0,0,0,0,0,0,0,0,0,0,0,0,0,0,0,0,0,0,0,0,0,0,0,0,0,0,0,0,0,0,0,0,0,0,0,0,0,0,0,0,0,0,0,0,0,0,0,0,0,0,0,0,0,0,0,0,0,0,0,0,0,0,0,0,0,0,0,0,0,0,0,0,0,0,0,0,0,0,0,0,0,0,0,0,0,0,0,0,0,0,0,
0,0,0,0,0,0,0,0,0,0,0,0,0,0,0,0,0,0,0,0,0,0,0,0,0,0,0,0,0,0,0,0,0,0,0,0,0,0,0,0,0,0,0,0,0,0,0,0,0,0,0,0,0,0,0,0,0,0,0,0,0,0,0,0,0,0,0,0,0,0,0,0,0,0,0,0,0,0,0,0,0,0,0,0,0,0,0,0,0,0,0,0,0,0,0,0,0,0,0,0,0,0,0,0,0,0,0,0,0,0,0,0,0,0,0,0,0,0,0,0,0,0,0,0,0,0,0,0,0,0,0,0,0,0,0,0,0,0,0,0,0,0,0,0,0,0,0,0,0,0,0,0,0,0,0,0,0,0,0,0,0,0,0,0,0,0,0,0,0,0,0,0,0,0,0,0,0,0,0,0,0,0,0,0,0,0,0,0,0,0,0,0,0,0,0,0,0,0,0,0,0,0,0,0,0,0,0,0,0,0,0,0,0,0,0,0,0,0,0,0,0,0,0,0,0,0,0,0,0,0,0,0,0,0,0,0,0,0,0,0,
0,0,0,0,0,0,0,0,0,0,0,0,0,0,0,0,0,0,0,0,0,0,0,0,0,0,0,0,0,0,0,0,0,0,0,0,0,0,0,0,0,0,0,0,0,0,0,0,0,0,0,0,0,0,0,0,0,0,0,0,0,0,0,0,0,0,0,0,0,0,0,0,0,0,0,0,0,0,0,0,0,0,0,0,0,0,0,0,0,0,0,0,0,0,0,0,0,0,0,0,0,0,0,0,0,0,0,0,0,0,0,0,0,0,0,0,0,0,0,0,0,0,0,0,0,0,0,0,0,0,0,0,0,0,0,0,0,0,0,0,0,0,0,0,0,0,0,0,0,0,0,0,0,0,0,0,0,0,0,0,0,0,0,0,0,0,0,0,0,0,0,0,0,0,0,0,0,0,0,0,0,0,0,0,0,0,0,0,0,0,0,0,0,0,0,0,0,0,0,0,0,0,0,0,0,0,0,0,0,0,0,0,0,0,0,0,0,0,0,0,0,0,0,0,0,0,0,0,0,0,0,0,0,0,0,0,0,0,0,0,
0,0,0,0,0,0,0,0,0,0,0,0,0,0,0,0,0,0,0,0,0,0,0,0,0,0,0,0,0,0,0,0,0,0,0,0,0,0,0,0,0,0,0,0,0,0,0,0,0,0,0,0,0,0,0,0,0,0,0,0,0,0,0,0,0,0,0,0,0,0,0,0,0,0,0,0,0,0,0,0,0,0,0,0,0,0,0,0,0,0,0,0,0,0,0,0,0,0,0,0,0,0,0,0,0,0,0,0,0,0,0,0,0,0,0,0,0,0,0,0,0,0,0,0,0,0,0,0,0,0,0,0,0,0,0,0,0,0,0,0,0,0,0,0,0,0,0,0,0,0,0,0,0,0,0,0,0,0,0,0,0,0,0,0,0,0,0,0,0,0,0,0,0,0,0,0,0,0,0,0,0,0,0,0,0,0,0,0,0,0,0,0,0,0,0,0,0,0,0,0,0,0,0,0,0,0,0,0,0,0,0,0,0,0,0,0,0,0,0,0,0,0,0,0,0,0,0,0,0,0,0,0,0,0,0,0,0,0,0,0,
0,0,0,0,0,0,0,0,0,0,0,0,0,0,0,0,0,0,0,0,0,0,0,0,0,0,0,0,0,0,0,0,0,0,0,0,0,0,0,0,0,0,0,0,0,0,0,0,0,0,0,0,0,0,0,0,0,0,0,0,0,0,0,0,0,0,0,0,0,0,0,0,0,0,0,0,0,0,0,0,0,0,0,0,0,0,0,0,0,0,0,0,0,0,0,0,0,0,0,0,0,0,0,0,0,0,0,0,0,0,0,0,0,0,0,0,0,0,0,0,0,0,0,0,0,0,0,0,0,0,0,0,0,0,0,0,0,0,0,0,0,0,0,0,0,0,0,0,0,0,0,0,0,0,0,0,0,0,0,0,0,0,0,0,0,0,0,0,0,0,0,0,0,0,0,0,0,0,0,0,0,0,0,0,0,0,0,0,0,0,0,0,0,0,0,0,0,0,0,0,0,0,0,0,0,0,0,0,0,0,0,0,0,0,0,0,0,0,0,0,0,0,0,0,0,0,0,0,0,0,0,0,0,0,0,0,0,0,0,0,
0,0,0,0,0,0,0,0,0,0,0,0,0,0,0,0,0,0,0,0,0,0,0,0,0,0,0,0,0,0,0,0,0,0,0,0,0,0,0,0,0,0,0,0,0,0,0,0,0,0,0,0,0,0,0,0,0,0,0,0,0,0,0,0,0,0,0,0,0,0,0,0,0,0,0,0,0,0,0,0,0,0,0,0,0,0,0,0,0,0,0,0,0,0,0,0,0,0,0,0,0,0,0,0,0,0,0,0,0,0,0,0,0,0,0,0,0,0,0,0,0,0,0,0,0,0,0,0,0,0,0,0,0,0,0,0,0,0,0,0,0,0,0,0,0,0,0,0,0,0,0,0,0,0,0,0,0,0,0,0,0,0,0,0,0,0,0,0,0,0,0,0,0,0,0,0,0,0,0,0,0,0,0,0,0,0,0,0,0,0,0,0,0,0,0,0,0,0,0,0,0,0,0,0,0,0,0,0,0,0,0,0,0,0,0,0,0,0,0,0,0,0,0,0,0,0,0,0,0,0,0,0,0,0,0,0,0,0,0,0
</data>
 </layer>
 <layer id="4" name="walls2" width="240" height="240">
  <data encoding="csv">
0,0,0,0,0,0,0,0,0,0,0,0,0,0,0,0,0,0,0,0,0,0,0,0,0,0,0,0,0,0,0,0,0,0,0,0,0,0,0,0,0,0,0,0,0,0,0,0,0,0,0,0,0,0,0,0,0,0,0,0,0,0,0,0,0,0,0,0,0,0,0,0,0,0,0,0,0,0,0,0,0,0,0,0,0,0,0,0,0,0,0,0,0,0,0,0,0,0,0,0,0,0,0,0,0,0,0,0,0,0,0,0,0,0,0,0,0,0,0,0,0,0,0,0,0,0,0,0,0,0,0,0,0,0,0,0,0,0,0,0,0,0,0,0,0,0,0,0,0,0,0,0,0,0,0,0,0,0,0,0,0,0,0,0,0,0,0,0,0,0,0,0,0,0,0,0,0,0,0,0,0,0,0,0,0,0,0,0,0,0,0,0,0,0,0,0,0,0,0,0,0,0,0,0,0,0,0,0,0,0,0,0,0,0,0,0,0,0,0,0,0,0,0,0,0,0,0,0,0,0,0,0,0,0,0,0,0,0,0,0,
0,0,0,0,0,0,0,0,0,0,0,0,0,0,0,0,0,0,0,0,0,0,0,0,0,0,0,0,0,0,0,0,0,0,0,0,0,0,0,0,0,0,0,0,0,0,0,0,0,0,0,0,0,0,0,0,0,0,0,0,0,0,0,0,0,0,0,0,0,0,0,0,0,0,0,0,0,0,0,0,0,0,0,0,0,0,0,0,0,0,0,0,0,0,0,0,0,0,0,0,0,0,0,0,0,0,0,0,0,0,0,0,0,0,0,0,0,0,0,0,0,0,0,0,0,0,0,0,0,0,0,0,0,0,0,0,0,0,0,0,0,0,0,0,0,0,0,0,0,0,0,0,0,0,0,0,0,0,0,0,0,0,0,0,0,0,0,0,0,0,0,0,0,0,0,0,0,0,0,0,0,0,0,0,0,0,0,0,0,0,0,0,0,0,0,0,0,0,0,0,0,0,0,0,0,0,0,0,0,0,0,0,0,0,0,0,0,0,0,0,0,0,0,0,0,0,0,0,0,0,0,0,0,0,0,0,0,0,0,0,
0,0,0,0,0,0,0,0,0,0,0,0,0,0,0,0,0,0,0,0,0,0,0,0,0,0,0,0,0,0,0,0,0,0,0,0,0,0,0,0,0,0,0,0,0,0,0,0,0,0,0,0,0,0,0,0,0,0,0,0,0,0,0,0,0,0,0,0,0,0,0,0,0,0,0,0,0,0,0,0,0,0,0,0,0,0,0,0,0,0,0,0,0,0,0,0,0,0,0,0,0,0,0,0,0,0,0,0,0,0,0,0,0,0,0,0,0,0,0,0,0,0,0,0,0,0,0,0,0,0,0,0,0,0,0,0,0,0,0,0,0,0,0,0,0,0,0,0,0,0,0,0,0,0,0,0,0,0,0,0,0,0,0,0,0,0,0,0,0,0,0,0,0,0,0,0,0,0,0,0,0,0,0,0,0,0,0,0,0,0,0,0,0,0,0,0,0,0,0,0,0,0,0,0,0,0,0,0,0,0,0,0,0,0,0,0,0,0,0,0,0,0,0,0,0,0,0,0,0,0,0,0,0,0,0,0,0,0,0,0,
0,0,0,0,0,0,0,0,0,0,0,0,0,0,0,0,0,0,0,0,0,0,0,0,0,0,0,0,0,0,0,0,0,0,0,0,0,0,0,0,0,0,0,0,0,0,0,0,0,0,0,0,0,0,0,0,0,0,0,0,0,0,0,0,0,0,0,0,0,0,0,0,0,0,0,0,0,0,0,0,0,0,0,0,0,0,0,0,0,0,0,0,0,0,0,0,0,0,0,0,0,0,0,0,0,0,0,0,0,0,0,0,0,0,0,0,0,0,0,0,0,0,0,0,0,0,0,0,0,0,0,0,0,0,0,0,0,0,0,0,0,0,0,0,0,0,0,0,0,0,0,0,0,0,0,0,0,0,0,0,0,0,0,0,0,0,0,0,0,0,0,0,0,0,0,0,0,0,0,0,0,0,0,0,0,0,0,0,0,0,0,0,0,0,0,0,0,0,0,0,0,0,0,0,0,0,0,0,0,0,0,0,0,0,0,0,0,0,0,0,0,0,0,0,0,0,0,0,0,0,0,0,0,0,0,0,0,0,0,0,
0,0,0,0,0,0,0,0,0,0,0,0,0,0,0,0,0,0,0,0,0,0,0,0,0,0,0,0,0,0,0,0,0,0,0,0,0,0,0,0,0,0,0,0,0,0,0,0,0,0,0,0,0,0,0,0,0,0,0,0,0,0,0,0,0,0,0,0,0,0,0,0,0,0,0,0,0,0,0,0,0,0,0,0,0,0,0,0,0,0,0,0,0,0,0,0,0,0,0,0,0,0,0,0,0,0,0,0,0,0,0,0,0,0,0,0,0,0,0,0,0,0,0,0,0,0,0,0,0,0,0,0,0,0,0,0,0,0,0,0,0,0,0,0,0,0,0,0,0,0,0,0,0,0,0,0,0,0,0,0,0,0,0,0,0,0,0,0,0,0,0,0,0,0,0,0,0,0,0,0,0,0,0,0,0,0,0,0,0,0,0,0,0,0,0,0,0,0,0,0,0,0,0,0,0,0,0,0,0,0,0,0,0,0,0,0,0,0,0,0,0,0,0,0,0,0,0,0,0,0,0,0,0,0,0,0,0,0,0,0,
0,0,0,0,0,0,0,0,0,0,0,0,0,0,0,0,0,0,0,0,0,0,0,0,0,0,0,0,0,0,0,0,0,0,0,0,0,0,0,0,0,0,0,0,0,0,0,0,0,0,0,0,0,0,0,0,0,0,0,0,0,0,0,0,0,0,0,0,0,0,0,0,0,0,0,0,0,0,0,0,0,0,0,0,0,0,0,0,0,0,0,0,0,0,0,0,0,0,0,0,0,0,0,0,0,0,0,0,0,0,0,0,0,0,0,0,0,0,0,0,0,0,0,0,0,0,0,0,0,0,0,0,0,0,0,0,0,0,0,0,0,0,0,0,0,0,0,0,0,0,0,0,0,0,0,0,0,0,0,0,0,0,0,0,0,0,0,0,0,0,0,0,0,0,0,0,0,0,0,0,0,0,0,0,0,0,0,0,0,0,0,0,0,0,0,0,0,0,0,0,0,0,0,0,0,0,0,0,0,0,0,0,0,0,0,0,0,0,0,0,0,0,0,0,0,0,0,0,0,0,0,0,0,0,0,0,0,0,0,0,
0,0,0,0,0,0,0,0,0,0,0,0,0,0,0,0,0,0,0,0,0,0,0,0,0,0,0,0,0,0,0,0,0,0,0,0,0,0,0,0,0,0,0,0,0,0,0,0,0,0,0,0,0,0,0,0,0,0,0,0,0,0,0,0,0,0,0,0,0,0,0,0,0,0,0,0,0,0,0,0,0,0,0,0,0,0,0,0,0,0,0,0,0,0,0,0,0,0,0,0,0,0,0,0,0,0,0,0,0,0,0,0,0,0,0,0,0,0,0,0,0,0,0,0,0,0,0,0,0,0,0,0,0,0,0,0,0,0,0,0,0,0,0,0,0,0,0,0,0,0,0,0,0,0,0,0,0,0,0,0,0,0,0,0,0,0,0,0,0,0,0,0,0,0,0,0,0,0,0,0,0,0,0,0,0,0,0,0,0,0,0,0,0,0,0,0,0,0,0,0,0,0,0,0,0,0,0,0,0,0,0,0,0,0,0,0,0,0,0,0,0,0,0,0,0,0,0,0,0,0,0,0,0,0,0,0,0,0,0,0,
0,0,0,0,0,0,0,0,0,0,0,0,0,0,0,0,0,0,0,0,0,0,0,0,0,0,0,0,0,0,0,0,0,0,0,0,0,0,0,0,0,0,0,0,0,0,0,0,0,0,0,0,0,0,0,0,0,0,0,0,0,0,0,0,0,0,0,0,0,0,0,0,0,0,0,0,0,0,0,0,0,0,0,0,0,0,0,0,0,0,0,0,0,0,0,0,0,0,0,0,0,0,0,0,0,0,0,0,0,0,0,0,0,0,0,0,0,0,0,0,0,0,0,0,0,0,0,0,0,0,0,0,0,0,0,0,0,0,0,0,0,0,0,0,0,0,0,0,0,0,0,0,0,0,0,0,0,0,0,0,0,0,0,0,0,0,0,0,0,0,0,0,0,0,0,0,0,0,0,0,0,0,0,0,0,0,0,0,0,0,0,0,0,0,0,0,0,0,0,0,0,0,0,0,0,0,0,0,0,0,0,0,0,0,0,0,0,0,0,0,0,0,0,0,0,0,0,0,0,0,0,0,0,0,0,0,0,0,0,0,
0,0,0,0,0,0,0,0,0,0,0,0,0,0,0,0,0,0,0,0,0,0,0,0,0,0,0,0,0,0,0,0,0,0,0,0,0,0,0,0,0,0,0,0,0,0,0,0,0,0,0,0,0,0,0,0,0,0,0,0,0,0,0,0,0,0,0,0,0,0,0,0,0,0,0,0,0,0,0,0,0,0,0,0,0,0,0,0,0,0,0,0,0,0,0,0,0,0,0,0,0,0,0,0,0,0,0,0,0,0,0,0,0,0,0,0,0,0,0,0,0,0,0,0,0,0,0,0,0,0,0,0,0,0,0,0,0,0,0,0,0,0,0,0,0,0,0,0,0,0,0,0,0,0,0,0,0,0,0,0,0,0,0,0,0,0,0,0,0,0,0,0,0,0,0,0,0,0,0,0,0,0,0,0,0,0,0,0,0,0,0,0,0,0,0,0,0,0,0,0,0,0,0,0,0,0,0,0,0,0,0,0,0,0,0,0,0,0,0,0,0,0,0,0,0,0,0,0,0,0,0,0,0,0,0,0,0,0,0,0,
0,0,0,0,0,0,0,0,0,0,0,0,0,0,0,0,0,0,0,0,0,0,0,0,0,0,0,0,0,0,0,0,0,0,0,0,0,0,0,0,0,0,0,0,0,0,0,0,0,0,0,0,0,0,0,0,0,0,0,0,0,0,0,0,0,0,0,0,0,0,0,0,0,0,0,0,0,0,0,0,0,0,0,0,0,0,0,0,0,0,0,0,0,0,0,0,0,0,0,0,0,0,0,0,0,0,0,0,0,0,0,0,0,0,0,0,0,0,0,0,0,0,0,0,0,0,0,0,0,0,0,0,0,0,0,0,0,0,0,0,0,0,0,0,0,0,0,0,0,0,0,0,0,0,0,0,0,0,0,0,0,0,0,0,0,0,0,0,0,0,0,0,0,0,0,0,0,0,0,0,0,0,0,0,0,0,0,0,0,0,0,0,0,0,0,0,0,0,0,0,0,0,0,0,0,0,0,0,0,0,0,0,0,0,0,0,0,0,0,0,0,0,0,0,0,0,0,0,0,0,0,0,0,0,0,0,0,0,0,0,
0,0,0,0,0,0,0,0,0,0,0,0,0,0,0,0,0,0,0,0,0,0,0,0,0,0,0,0,0,0,0,0,0,0,0,0,0,0,0,0,0,0,0,0,0,0,0,0,0,0,0,0,0,0,0,0,0,0,0,0,0,0,0,0,0,0,0,0,0,0,0,0,0,0,0,0,0,0,0,0,0,0,0,0,0,0,0,0,0,0,0,0,0,0,0,0,0,0,0,0,0,0,0,0,0,0,0,0,0,0,0,0,0,0,0,0,0,0,0,0,0,0,0,0,0,0,0,0,0,0,0,0,0,0,0,0,0,0,0,0,0,0,0,0,0,0,0,0,0,0,0,0,0,0,0,0,0,0,0,0,0,0,0,0,0,0,0,0,0,0,0,0,0,0,0,0,0,0,0,0,0,0,0,0,0,0,0,0,0,0,0,0,0,0,0,0,0,0,0,0,0,0,0,0,0,0,0,0,0,0,0,0,0,0,0,0,0,0,0,0,0,0,0,0,0,0,0,0,0,0,0,0,0,0,0,0,0,0,0,0,
0,0,0,0,0,0,0,0,0,0,0,0,0,0,0,0,0,0,0,0,0,0,0,0,0,0,0,0,0,0,0,0,0,0,0,0,0,0,0,0,0,0,0,0,0,0,0,0,0,0,0,0,0,0,0,0,0,0,0,0,0,0,0,0,0,0,0,0,0,0,0,0,0,0,0,0,0,0,0,0,0,0,0,0,0,0,0,0,0,0,0,0,0,0,0,0,0,0,0,0,0,0,0,0,0,0,0,0,0,0,0,0,0,0,0,0,0,0,0,0,0,0,0,0,0,0,0,0,0,0,0,0,0,0,0,0,0,0,0,0,0,0,0,0,0,0,0,0,0,0,0,0,0,0,0,0,0,0,0,0,0,0,0,0,0,0,0,0,0,0,0,0,0,0,0,0,0,0,0,0,0,0,0,0,0,0,0,0,0,0,0,0,0,0,0,0,0,0,0,0,0,0,0,0,0,0,0,0,0,0,0,0,0,0,0,0,0,0,0,0,0,0,0,0,0,0,0,0,0,0,0,0,0,0,0,0,0,0,0,0,
0,0,0,0,0,0,0,0,0,0,0,0,0,0,0,0,0,0,0,0,0,0,0,0,0,0,0,0,0,0,0,0,0,0,0,0,0,0,0,0,0,0,0,0,0,0,0,0,0,0,0,0,0,0,0,0,0,0,0,0,0,0,0,0,0,0,0,0,0,0,0,0,0,0,0,0,0,0,0,0,0,0,0,0,0,0,0,0,0,0,0,0,0,0,0,0,0,0,0,0,0,0,0,0,0,0,0,0,0,0,0,0,0,0,0,0,0,0,0,0,0,0,0,0,0,0,0,0,0,0,0,0,0,0,0,0,0,0,0,0,0,0,0,0,0,0,0,0,0,0,0,0,0,0,0,0,0,0,0,0,0,0,0,0,0,0,0,0,0,0,0,0,0,0,0,0,0,0,0,0,0,0,0,0,0,0,0,0,0,0,0,0,0,0,0,0,0,0,0,0,0,0,0,0,0,0,0,0,0,0,0,0,0,0,0,0,0,0,0,0,0,0,0,0,0,0,0,0,0,0,0,0,0,0,0,0,0,0,0,0,
0,0,0,0,0,0,0,0,0,0,0,0,0,0,0,0,0,0,0,0,0,0,0,0,0,0,0,0,0,0,0,0,0,0,0,0,0,0,0,0,0,0,0,0,0,0,0,0,0,0,0,0,0,0,0,0,0,0,0,0,0,0,0,0,0,0,0,0,0,0,0,0,0,0,0,0,0,0,0,0,0,0,0,0,0,0,0,0,0,0,0,0,0,0,0,0,0,0,0,0,0,0,0,0,0,0,0,0,0,0,0,0,0,0,0,0,0,0,0,0,0,0,0,0,0,0,0,0,0,0,0,0,0,0,0,0,0,0,0,0,0,0,0,0,0,0,0,0,0,0,0,0,0,0,0,0,0,0,0,0,0,0,0,0,0,0,0,0,0,0,0,0,0,0,0,0,0,0,0,0,0,0,0,0,0,0,0,0,0,0,0,0,0,0,0,0,0,0,0,0,0,0,0,0,0,0,0,0,0,0,0,0,0,0,0,0,0,0,0,0,0,0,0,0,0,0,0,0,0,0,0,0,0,0,0,0,0,0,0,0,
0,0,0,0,0,0,0,0,0,0,0,0,0,0,0,0,0,0,0,0,0,0,0,0,0,0,0,0,0,0,0,0,0,0,0,0,0,0,0,0,0,0,0,0,0,0,0,0,0,0,0,0,0,0,0,0,0,0,0,0,0,0,0,0,0,0,0,0,0,0,0,0,0,0,0,0,0,0,0,0,0,0,0,0,0,0,0,0,0,0,0,0,0,0,0,0,0,0,0,0,0,0,0,0,0,0,0,0,0,0,0,0,0,0,0,0,0,0,0,0,0,0,0,0,0,0,0,0,0,0,0,0,0,0,0,0,0,0,0,0,0,0,0,0,0,0,0,0,0,0,0,0,0,0,0,0,0,0,0,0,0,0,0,0,0,0,0,0,0,0,0,0,0,0,0,0,0,0,0,0,0,0,0,0,0,0,0,0,0,0,0,0,0,0,0,0,0,0,0,0,0,0,0,0,0,0,0,0,0,0,0,0,0,0,0,0,0,0,0,0,0,0,0,0,0,0,0,0,0,0,0,0,0,0,0,0,0,0,0,0,
0,0,0,0,0,0,0,0,0,0,0,0,0,0,0,0,0,0,0,0,0,0,0,0,0,0,0,0,0,0,0,0,0,0,0,0,0,0,0,0,0,0,0,0,0,0,0,0,0,0,0,0,0,0,0,0,0,0,0,0,0,0,0,0,0,0,0,0,0,0,0,0,0,0,0,0,0,0,0,0,0,0,0,0,0,0,0,0,0,0,0,0,0,0,0,0,0,0,0,0,0,0,0,0,0,0,0,0,0,0,0,0,0,0,0,0,0,0,0,0,0,0,0,0,0,0,0,0,0,0,0,0,0,0,0,0,0,0,0,0,0,0,0,0,0,0,0,0,0,0,0,0,0,0,0,0,0,0,0,0,0,0,0,0,0,0,0,0,0,0,0,0,0,0,0,0,0,0,0,0,0,0,0,0,0,0,0,0,0,0,0,0,0,0,0,0,0,0,0,0,0,0,0,0,0,0,0,0,0,0,0,0,0,0,0,0,0,0,0,0,0,0,0,0,0,0,0,0,0,0,0,0,0,0,0,0,0,0,0,0,
0,0,0,0,0,0,0,0,0,0,0,0,0,0,0,0,0,0,0,0,0,0,0,0,0,0,0,0,0,0,0,0,0,0,0,0,0,0,0,0,0,0,0,0,0,0,0,0,0,0,0,0,0,0,0,0,0,0,0,0,0,0,0,0,0,0,0,0,0,0,0,0,0,0,0,0,0,0,0,0,0,0,0,0,0,0,0,0,0,0,0,0,0,0,0,0,0,0,0,0,0,0,0,0,0,0,0,0,0,0,0,0,0,0,0,0,0,0,0,0,0,0,0,0,0,0,0,0,0,0,0,0,0,0,0,0,0,0,0,0,0,0,0,0,0,0,0,0,0,0,0,0,0,0,0,0,0,0,0,0,0,0,0,0,0,0,0,0,0,0,0,0,0,0,0,0,0,0,0,0,0,0,0,0,0,0,0,0,0,0,0,0,0,0,0,0,0,0,0,0,0,0,0,0,0,0,0,0,0,0,0,0,0,0,0,0,0,0,0,0,0,0,0,0,0,0,0,0,0,0,0,0,0,0,0,0,0,0,0,0,
0,0,0,0,0,0,0,0,0,0,0,0,0,0,0,0,0,0,0,0,0,0,0,0,0,0,0,0,0,0,0,0,0,0,0,0,0,0,0,0,0,0,0,0,0,0,0,0,0,0,0,0,0,0,0,0,0,0,0,0,0,0,0,0,0,0,0,0,0,0,0,0,0,0,0,0,0,0,0,0,0,0,0,0,0,0,0,0,0,0,0,0,0,0,0,0,0,0,0,0,0,0,0,0,0,0,0,0,0,0,0,0,0,0,0,0,0,0,0,0,0,0,0,0,0,0,0,0,0,0,0,0,0,0,0,0,0,0,0,0,0,0,0,0,0,0,0,0,0,0,0,0,0,0,0,0,0,0,0,0,0,0,0,0,0,0,0,0,0,0,0,0,0,0,0,0,0,0,0,0,0,0,0,0,0,0,0,0,0,0,0,0,0,0,0,0,0,0,0,0,0,0,0,0,0,0,0,0,0,0,0,0,0,0,0,0,0,0,0,0,0,0,0,0,0,0,0,0,0,0,0,0,0,0,0,0,0,0,0,0,
0,0,0,0,0,0,0,0,0,0,0,0,0,0,0,0,0,0,0,0,0,0,0,0,0,0,0,0,0,0,0,0,0,0,0,0,0,0,0,0,0,0,0,0,0,0,0,0,0,0,0,0,0,0,0,0,0,0,0,0,0,0,0,0,0,0,0,0,0,0,0,0,0,0,0,0,0,0,0,0,0,0,0,0,0,0,0,0,0,0,0,0,0,0,0,0,0,0,0,0,0,0,0,0,0,0,0,0,0,0,0,0,0,0,0,0,0,0,0,0,0,0,0,0,0,0,0,0,0,0,0,0,0,0,0,0,0,0,0,0,0,0,0,0,0,0,0,0,0,0,0,0,0,0,0,0,0,0,0,0,0,0,0,0,0,0,0,0,0,0,0,0,0,0,0,0,0,0,0,0,0,0,0,0,0,0,0,0,0,0,0,0,0,0,0,0,0,0,0,0,0,0,0,0,0,0,0,0,0,0,0,0,0,0,0,0,0,0,0,0,0,0,0,0,0,0,0,0,0,0,0,0,0,0,0,0,0,0,0,0,
0,0,0,0,0,0,0,0,0,0,0,0,0,0,0,0,0,0,0,0,0,0,0,0,0,0,0,0,0,0,0,0,0,0,0,0,0,0,0,0,0,0,0,0,0,0,0,0,0,0,0,0,0,0,0,0,0,0,0,0,0,0,0,0,0,0,0,0,0,0,0,0,0,0,0,0,0,0,0,0,0,0,0,0,0,0,0,0,0,0,0,0,0,0,0,0,0,0,0,0,0,0,0,0,0,0,0,0,0,0,0,0,0,0,0,0,0,0,0,0,0,0,0,0,0,0,0,0,0,0,0,0,0,0,0,0,0,0,0,0,0,0,0,0,0,0,0,0,0,0,0,0,0,0,0,0,0,0,0,0,0,0,0,0,0,0,0,0,0,0,0,0,0,0,0,0,0,0,0,0,0,0,0,0,0,0,0,0,0,0,0,0,0,0,0,0,0,0,0,0,0,0,0,0,0,0,0,0,0,0,0,0,0,0,0,0,0,0,0,0,0,0,0,0,0,0,0,0,0,0,0,0,0,0,0,0,0,0,0,0,
0,0,0,0,0,0,0,0,0,0,0,0,0,0,0,0,0,0,0,0,0,0,0,0,0,0,0,0,0,0,0,0,0,0,0,0,0,0,0,0,0,0,0,0,0,0,0,0,0,0,0,0,0,0,0,0,0,0,0,0,0,0,0,0,0,0,0,0,0,0,0,0,0,0,0,0,0,0,0,0,0,0,0,0,0,0,0,0,0,0,0,0,0,0,0,0,0,0,0,0,0,0,0,0,0,0,0,0,0,0,0,0,0,0,0,0,0,0,0,0,0,0,0,0,0,0,0,0,0,0,0,0,0,0,0,0,0,0,0,0,0,0,0,0,0,0,0,0,0,0,0,0,0,0,0,0,0,0,0,0,0,0,0,0,0,0,0,0,0,0,0,0,0,0,0,0,0,0,0,0,0,0,0,0,0,0,0,0,0,0,0,0,0,0,0,0,0,0,0,0,0,0,0,0,0,0,0,0,0,0,0,0,0,0,0,0,0,0,0,0,0,0,0,0,0,0,0,0,0,0,0,0,0,0,0,0,0,0,0,0,
0,0,0,0,0,0,0,0,0,0,0,0,0,0,0,0,0,0,0,0,0,0,0,0,0,0,0,0,0,0,0,0,0,0,0,0,0,0,0,0,0,0,0,0,0,0,0,0,0,0,0,0,0,0,0,0,0,0,0,0,0,0,0,0,0,0,0,0,0,0,0,0,0,0,0,0,0,0,0,0,0,0,0,0,0,0,0,0,0,0,0,0,0,0,0,0,0,0,0,0,0,0,0,0,0,0,0,0,0,0,0,0,0,0,0,0,0,0,0,0,0,0,0,0,0,0,0,0,0,0,0,0,0,0,0,0,0,0,0,0,0,0,0,0,0,0,0,0,0,0,0,0,0,0,0,0,0,0,0,0,0,0,0,0,0,0,0,0,0,0,0,0,0,0,0,0,0,0,0,0,0,0,0,0,0,0,0,0,0,0,0,0,0,0,0,0,0,0,0,0,0,0,0,0,0,0,0,0,0,0,0,0,0,0,0,0,0,0,0,0,0,0,0,0,0,0,0,0,0,0,0,0,0,0,0,0,0,0,0,0,
0,0,0,0,0,0,0,0,0,0,0,0,0,0,0,0,0,0,0,0,0,0,0,0,0,0,0,0,0,0,0,0,0,0,0,0,0,0,0,0,0,0,0,0,0,0,0,0,0,0,0,0,0,15,16,16,16,16,16,16,16,16,16,16,16,16,16,16,17,0,0,0,0,0,0,0,0,0,0,0,0,0,0,0,0,0,0,0,0,0,0,0,0,0,0,0,0,0,0,0,0,0,0,0,0,0,0,0,0,0,0,0,0,0,0,0,0,0,0,0,0,0,0,0,0,0,0,0,0,0,0,0,0,0,0,0,0,0,0,0,0,0,0,0,0,0,0,0,0,0,0,0,0,0,0,0,0,0,0,0,0,0,0,0,0,0,0,0,0,0,0,0,0,0,0,0,0,0,0,0,0,0,0,0,0,0,0,0,0,0,0,0,0,0,0,0,0,0,0,0,0,0,0,0,0,0,0,0,0,0,0,0,0,0,0,0,0,0,0,0,0,0,0,0,0,0,0,0,0,0,0,0,0,0,0,0,0,0,0,0,
0,0,0,0,0,0,0,0,0,0,0,0,0,0,0,0,0,0,0,0,0,0,0,0,0,0,0,0,0,0,0,0,0,0,0,0,0,0,0,0,0,0,0,0,0,0,0,0,0,0,0,0,0,60,61,61,61,61,61,61,61,61,61,61,61,61,61,61,62,0,0,0,0,0,0,0,0,0,0,0,0,0,0,0,0,0,0,0,0,0,0,0,0,0,0,0,0,0,0,0,0,0,0,0,0,0,0,0,0,0,0,0,0,0,0,0,0,0,0,0,0,0,0,0,0,0,0,0,0,0,0,0,0,0,0,0,0,0,0,0,0,0,0,0,0,0,0,0,0,0,0,0,0,0,0,0,0,0,0,0,0,0,0,0,0,0,0,0,0,0,0,0,0,0,0,0,0,0,0,0,0,0,0,0,0,0,0,0,0,0,0,0,0,0,0,0,0,0,0,0,0,0,0,0,0,0,0,0,0,0,0,0,0,0,0,0,0,0,0,0,0,0,0,0,0,0,0,0,0,0,0,0,0,0,0,0,0,0,0,0,
0,0,0,0,0,0,0,0,0,0,0,0,0,0,0,0,0,0,0,0,0,0,0,0,0,0,0,0,0,0,0,0,0,0,0,0,0,0,0,0,0,0,0,0,0,0,0,0,0,0,0,0,0,60,61,61,61,61,61,61,61,61,61,61,61,61,61,61,62,0,0,0,0,0,0,0,0,0,0,0,0,0,0,0,0,0,0,0,0,0,0,0,0,0,0,0,0,0,0,0,0,0,0,0,0,0,0,0,0,0,0,0,0,0,0,0,0,0,0,0,0,0,0,0,0,0,0,0,0,0,0,0,0,0,0,0,0,0,0,0,0,0,0,0,0,0,0,0,0,0,0,0,0,0,0,0,0,0,0,0,0,0,0,0,0,0,0,0,0,0,0,0,0,0,0,0,0,0,0,0,0,0,0,0,0,0,0,0,0,0,0,0,0,0,0,0,0,0,0,0,0,0,0,0,0,0,0,0,0,0,0,0,0,0,0,0,0,0,0,0,0,0,0,0,0,0,0,0,0,0,0,0,0,0,0,0,0,0,0,0,
0,0,0,0,0,0,0,0,0,0,0,0,0,0,0,0,0,0,0,0,0,0,0,0,0,0,0,0,0,0,0,0,0,0,0,0,0,0,0,0,0,0,0,0,0,0,0,0,0,0,0,0,0,60,61,61,61,61,61,61,61,61,61,61,61,61,61,61,62,0,0,0,0,0,0,0,0,0,0,0,0,0,0,0,0,0,0,0,0,0,0,0,0,0,0,0,0,0,0,0,0,0,0,0,0,0,0,0,0,0,0,0,0,0,0,0,0,0,0,0,0,0,0,0,0,0,0,0,0,0,0,0,0,0,0,0,0,0,0,0,0,0,0,0,0,0,0,0,0,0,0,0,0,0,0,0,0,0,0,0,0,0,0,0,0,0,0,0,0,0,0,0,0,0,0,0,0,0,0,0,0,0,0,0,0,0,0,0,0,0,0,0,0,0,0,0,0,0,0,0,0,0,0,0,0,0,0,0,0,0,0,0,0,0,0,0,0,0,0,0,0,0,0,0,0,0,0,0,0,0,0,0,0,0,0,0,0,0,0,0,
0,0,0,0,0,0,0,0,0,0,0,0,0,0,0,0,0,0,0,0,0,0,0,0,0,0,0,0,0,0,0,0,0,0,0,0,0,0,0,0,0,0,0,0,0,0,0,0,0,0,0,0,0,60,61,61,61,61,61,61,61,61,61,61,61,61,61,61,62,0,0,0,0,0,0,0,0,0,0,0,0,0,0,0,0,0,0,0,0,0,0,0,0,0,0,0,0,0,0,0,0,0,0,0,0,0,0,0,0,0,0,0,0,0,0,0,0,0,0,0,0,0,0,0,0,0,0,0,0,0,0,0,0,0,0,0,0,0,0,0,0,0,0,0,0,0,0,0,0,0,0,0,0,0,0,0,0,0,0,0,0,0,0,0,0,0,0,0,0,0,0,0,0,0,0,0,0,0,0,0,0,0,0,0,0,0,0,0,0,0,0,0,0,0,0,0,0,0,0,0,0,0,0,0,0,0,0,0,0,0,0,0,0,0,0,0,0,0,0,0,0,0,0,0,0,0,0,0,0,0,0,0,0,0,0,0,0,0,0,0,
0,0,0,0,0,0,0,0,0,0,0,0,0,0,0,0,0,0,0,0,0,0,0,0,0,0,0,0,0,0,0,0,0,0,0,0,0,0,0,0,0,0,0,0,0,0,0,0,0,0,0,0,0,105,106,106,106,106,106,106,106,106,106,106,106,106,106,106,107,0,0,0,0,0,0,0,0,0,0,0,0,0,0,0,0,0,0,0,0,0,0,0,0,0,0,0,0,0,0,0,0,0,0,0,0,0,0,0,0,0,0,0,0,0,0,0,0,0,0,0,0,0,0,0,0,0,0,0,0,0,0,0,0,0,0,0,0,0,0,0,0,0,0,0,0,0,0,0,0,0,0,0,0,0,0,0,0,0,0,0,0,0,0,0,0,0,0,0,0,0,0,0,0,0,0,0,0,0,0,0,0,0,0,0,0,0,0,0,0,0,0,0,0,0,0,0,0,0,0,0,0,0,0,0,0,0,0,0,0,0,0,0,0,0,0,0,0,0,0,0,0,0,0,0,0,0,0,0,0,0,0,0,0,0,0,0,0,0,0,0,
0,0,0,0,0,0,0,0,0,0,0,0,0,0,0,0,0,0,0,0,0,0,0,0,0,0,0,0,0,0,0,0,0,0,0,0,0,0,0,0,0,0,0,0,0,0,0,0,0,0,0,0,0,0,0,0,0,0,0,0,0,0,0,0,0,0,0,0,0,0,0,0,0,0,0,0,0,0,0,0,0,0,0,0,0,0,0,0,0,0,0,0,0,0,0,0,0,0,0,0,0,0,0,0,0,0,0,0,0,0,0,0,0,0,0,0,0,0,0,0,0,0,0,0,0,0,0,0,0,0,0,0,0,0,0,0,0,0,0,0,0,0,0,0,0,0,0,0,0,0,0,0,0,0,0,0,0,0,0,0,0,0,0,0,0,0,0,0,0,0,0,0,0,0,0,0,0,0,0,0,0,0,0,0,0,0,0,0,0,0,0,0,0,0,0,0,0,0,0,0,0,0,0,0,0,0,0,0,0,0,0,0,0,0,0,0,0,0,0,0,0,0,0,0,0,0,0,0,0,0,0,0,0,0,0,0,0,0,0,0,
0,0,0,0,0,0,0,0,0,0,0,0,0,0,0,0,0,0,0,0,0,0,0,0,0,0,0,0,0,0,0,0,0,0,0,0,0,0,0,0,0,0,0,0,0,0,0,0,0,0,0,0,0,0,0,0,0,0,0,0,0,0,0,0,0,0,0,0,0,0,0,0,0,0,0,0,0,0,0,0,0,0,0,0,0,0,0,0,0,0,0,0,0,0,0,0,0,0,0,0,0,0,0,0,0,0,0,0,0,0,0,0,0,0,0,0,0,0,0,0,0,0,0,0,0,0,0,0,0,0,0,0,0,0,0,0,0,0,0,0,0,0,0,0,0,0,0,0,0,0,0,0,0,0,0,0,0,0,0,0,0,0,0,0,0,0,0,0,0,0,0,0,0,0,0,0,0,0,0,0,0,0,0,0,0,0,0,0,0,0,0,0,0,0,0,0,0,0,0,0,0,0,0,0,0,0,0,0,0,0,0,0,0,0,0,0,0,0,0,0,0,0,0,0,0,0,0,0,0,0,0,0,0,0,0,0,0,0,0,0,
0,0,0,0,0,0,0,0,0,0,0,0,0,0,0,0,0,0,0,0,0,0,0,0,0,0,0,0,0,0,0,0,0,0,0,0,0,0,0,0,0,0,0,0,0,0,0,0,0,0,0,0,0,0,0,0,0,0,0,0,0,0,0,0,0,0,0,0,0,0,0,0,0,0,0,0,0,0,0,0,0,0,0,0,0,0,0,0,0,0,0,0,0,0,0,0,0,0,0,0,0,0,0,0,0,0,0,0,0,0,0,0,0,0,0,0,0,0,0,0,0,0,0,0,0,0,0,0,0,0,0,0,0,0,0,0,0,0,0,0,0,0,0,0,0,0,0,0,0,0,0,0,0,0,0,0,0,0,0,0,0,0,0,0,0,0,0,0,0,0,0,0,0,0,0,0,0,0,0,0,0,0,0,0,0,0,0,0,0,0,0,0,0,0,0,0,0,0,0,0,0,0,0,0,0,0,0,0,0,0,0,0,0,0,0,0,0,0,0,0,0,0,0,0,0,0,0,0,0,0,0,0,0,0,0,0,0,0,0,0,
0,0,0,0,0,0,0,0,0,0,0,0,0,0,0,0,0,0,0,0,0,0,0,0,0,0,0,0,0,0,0,0,0,0,0,0,0,0,0,0,0,0,0,0,0,0,0,0,0,0,0,0,0,0,0,0,0,0,0,0,0,0,0,0,0,0,0,0,0,0,0,0,0,0,0,0,0,0,0,0,0,0,0,0,0,0,0,0,0,0,0,0,0,0,0,0,0,0,0,0,0,0,0,0,0,0,0,0,0,0,0,0,0,0,0,0,0,0,0,0,0,0,0,0,0,0,0,0,0,0,0,0,0,0,0,0,0,0,0,0,0,0,0,0,0,0,0,0,0,0,0,0,0,0,0,0,0,0,0,0,0,0,0,0,0,0,0,0,0,0,0,0,0,0,0,0,0,0,0,0,0,0,0,0,0,0,0,0,0,0,0,0,0,0,0,0,0,0,0,0,0,0,0,0,0,0,0,0,0,0,0,0,0,0,0,0,0,0,0,0,0,0,0,0,0,0,0,0,0,0,0,0,0,0,0,0,0,0,0,0,
0,0,0,0,0,0,0,0,0,0,0,0,0,0,0,0,0,0,0,0,0,0,0,0,0,0,0,0,0,0,0,0,0,0,0,0,0,0,0,0,0,0,0,0,0,0,0,0,0,0,0,0,19,0,0,0,0,0,0,0,0,0,0,0,0,0,0,0,0,0,0,0,0,0,0,0,0,0,0,0,0,0,0,0,0,0,0,0,0,0,0,0,0,0,0,0,0,0,0,0,0,0,0,0,0,0,0,0,0,0,0,0,0,0,0,0,0,0,0,0,0,0,0,0,0,0,0,0,0,0,0,0,0,0,0,0,0,0,0,0,0,0,0,0,0,0,0,0,0,0,0,0,0,0,0,0,0,0,0,0,0,0,0,0,0,0,0,0,0,0,0,0,0,0,0,0,0,0,0,0,0,0,0,0,0,0,0,0,0,0,0,0,0,0,0,0,0,0,0,0,0,0,0,0,0,0,0,0,0,0,0,0,0,0,0,0,0,0,0,0,0,0,0,0,0,0,0,0,0,0,0,0,0,0,0,0,0,0,0,0,
0,0,0,0,0,0,0,0,0,0,0,0,0,0,0,0,0,0,0,0,0,0,0,0,0,0,0,0,0,0,0,0,0,0,0,0,0,0,0,0,0,0,0,0,0,0,0,0,0,0,0,0,64,0,0,0,0,0,0,0,0,0,0,0,0,0,0,0,0,0,0,0,0,0,0,0,0,0,0,0,0,0,0,0,0,0,0,0,0,0,0,0,0,0,0,0,0,0,0,0,0,0,0,0,0,0,0,0,0,0,0,0,0,0,0,0,0,0,0,0,0,0,0,0,0,0,0,0,0,0,0,0,0,0,0,0,0,0,0,0,0,0,0,0,0,0,0,0,0,0,0,0,0,0,0,0,0,0,0,0,0,0,0,0,0,0,0,0,0,0,0,0,0,0,0,0,0,0,0,0,0,0,0,0,0,0,0,0,0,0,0,0,0,0,0,0,0,0,0,0,0,0,0,0,0,0,0,0,0,0,0,0,0,0,0,0,0,0,0,0,0,0,0,0,0,0,0,0,0,0,0,0,0,0,0,0,0,0,0,0,
0,0,0,0,0,0,0,0,0,0,0,0,0,0,0,0,0,0,0,0,0,0,0,0,0,0,0,0,0,0,0,0,0,0,0,0,0,0,0,0,0,0,0,0,0,0,0,0,0,0,0,15,62,0,0,0,0,0,0,0,0,0,0,0,0,0,0,0,0,19,0,0,0,0,0,0,0,0,0,0,0,0,0,0,0,0,0,0,0,0,0,0,0,0,0,0,0,0,0,0,0,0,0,0,0,0,0,0,0,0,0,0,0,0,0,0,0,0,0,0,0,0,0,0,0,0,0,0,0,0,0,0,0,0,0,0,0,0,0,0,0,0,0,0,0,0,0,0,0,0,0,0,0,0,0,0,0,0,0,0,0,0,0,0,0,0,0,0,0,0,0,0,0,0,0,0,0,0,0,0,0,0,0,0,0,0,0,0,0,0,0,0,0,0,0,0,0,0,0,0,0,0,0,0,0,0,0,0,0,0,0,0,0,0,0,0,0,0,0,0,0,0,0,0,0,0,0,0,0,0,0,0,0,0,0,0,0,0,0,0,
0,0,0,0,0,0,0,0,0,0,0,0,0,0,0,0,0,0,0,0,0,0,0,0,0,0,0,0,0,0,0,0,0,0,0,0,0,0,0,0,0,0,0,0,0,0,0,0,0,0,0,60,62,0,0,0,0,0,0,0,0,0,0,0,0,0,0,0,0,60,17,0,0,0,0,0,0,0,0,0,0,0,0,0,0,0,0,0,0,0,0,0,0,0,0,0,0,0,0,0,0,0,0,0,0,0,0,0,0,0,0,0,0,0,0,0,0,0,0,0,0,0,0,0,0,0,0,0,0,0,0,0,0,0,0,0,0,0,0,0,0,0,0,0,0,0,0,0,0,0,0,0,0,0,0,0,0,0,0,0,0,0,0,0,0,0,0,0,0,0,0,0,0,0,0,0,0,0,0,0,0,0,0,0,0,0,0,0,0,0,0,0,0,0,0,0,0,0,0,0,0,0,0,0,0,0,0,0,0,0,0,0,0,0,0,0,0,0,0,0,0,0,0,0,0,0,0,0,0,0,0,0,0,0,0,0,0,0,0,0,
0,0,0,0,0,0,0,0,0,0,0,0,0,0,0,0,0,0,0,0,0,0,0,0,0,0,0,0,0,0,0,0,0,0,0,0,0,0,0,0,0,0,0,0,0,0,0,0,0,15,16,67,62,0,0,0,0,0,0,0,0,0,0,0,0,0,0,0,0,60,66,16,17,0,0,0,0,0,0,0,0,0,0,0,0,0,0,0,0,0,0,0,0,0,0,0,0,0,0,0,0,0,0,0,0,0,0,0,0,0,0,0,0,0,0,0,0,0,0,0,0,0,0,0,0,0,0,0,0,0,0,0,0,0,0,0,0,0,0,0,0,0,0,0,0,0,0,0,0,0,0,0,0,0,0,0,0,0,0,0,0,0,0,0,0,0,0,0,0,0,0,0,0,0,0,0,0,0,0,0,0,0,0,0,0,0,0,0,0,0,0,0,0,0,0,0,0,0,0,0,0,0,0,0,0,0,0,0,0,0,0,0,0,0,0,0,0,0,0,0,0,0,0,0,0,0,0,0,0,0,0,0,0,0,0,0,0,0,0,0,
0,0,0,0,0,0,0,0,0,0,0,0,0,0,0,0,0,0,0,0,0,0,0,0,0,0,0,0,0,0,0,0,0,0,0,0,0,0,0,0,0,0,0,0,0,0,0,0,0,60,61,21,107,0,0,0,0,0,0,0,0,0,0,0,0,0,0,0,0,60,61,61,62,0,0,0,0,0,0,0,0,0,0,0,0,0,0,0,0,0,0,0,0,0,0,0,0,0,0,0,0,0,0,0,0,0,0,0,0,0,0,0,0,0,0,0,0,0,0,0,0,0,0,0,0,0,0,0,0,0,0,0,0,0,0,0,0,0,0,0,0,0,0,0,0,0,0,0,0,0,0,0,0,0,0,0,0,0,0,0,0,0,0,0,0,0,0,0,0,0,0,0,0,0,0,0,0,0,0,0,0,0,0,0,0,0,0,0,0,0,0,0,0,0,0,0,0,0,0,0,0,0,0,0,0,0,0,0,0,0,0,0,0,0,0,0,0,0,0,0,0,0,0,0,0,0,0,0,0,0,0,0,0,0,0,0,0,0,0,0,
0,0,0,0,0,0,0,0,0,0,0,0,0,0,0,0,0,0,0,0,0,0,0,0,0,0,0,0,0,0,0,0,0,0,0,0,0,0,0,0,0,0,0,0,0,0,0,15,16,67,61,62,0,0,0,0,0,0,0,0,0,0,0,0,0,0,0,0,0,60,61,61,66,16,17,0,0,0,0,0,0,0,0,0,0,0,0,0,0,0,0,0,0,0,0,0,0,0,0,0,0,0,0,0,0,0,0,0,0,0,0,0,0,0,0,0,0,0,0,0,0,0,0,0,0,0,0,0,0,0,0,0,0,0,0,0,0,0,0,0,0,0,0,0,0,0,0,0,0,0,0,0,0,0,0,0,0,0,0,0,0,0,0,0,0,0,0,0,0,0,0,0,0,0,0,0,0,0,0,0,0,0,0,0,0,0,0,0,0,0,0,0,0,0,0,0,0,0,0,0,0,0,0,0,0,0,0,0,0,0,0,0,0,0,0,0,0,0,0,0,0,0,0,0,0,0,0,0,0,0,0,0,0,0,0,0,0,0,0,0,
0,0,0,0,0,0,0,0,0,0,0,0,0,0,0,0,0,0,0,0,0,0,0,0,0,0,0,0,0,0,0,0,0,0,0,0,0,0,0,0,0,0,0,0,0,15,16,67,61,61,21,107,0,0,0,0,0,0,0,0,0,0,0,0,0,0,0,0,0,105,22,61,61,61,14,14,0,0,0,0,0,0,0,0,0,0,0,0,0,0,0,0,0,0,0,0,0,0,0,0,0,0,0,0,0,0,0,0,0,0,0,0,0,0,0,0,0,0,0,0,0,0,0,0,0,0,0,0,0,0,0,0,0,0,0,0,0,0,0,0,0,0,0,0,0,0,0,0,0,0,0,0,0,0,0,0,0,0,0,0,0,0,0,0,0,0,0,0,0,0,0,0,0,0,0,0,0,0,0,0,0,0,0,0,0,0,0,0,0,0,0,0,0,0,0,0,0,0,0,0,0,0,0,0,0,0,0,0,0,0,0,0,0,0,0,0,0,0,0,0,0,0,0,0,0,0,0,0,0,0,0,0,0,0,0,0,0,0,0,0,
0,0,0,0,0,0,0,0,0,0,0,0,0,0,0,0,0,0,0,0,0,0,0,0,0,0,0,0,0,0,0,0,0,0,0,0,0,0,0,0,0,0,0,0,0,105,106,106,106,22,62,0,0,0,0,0,0,0,0,0,0,0,0,0,0,0,0,0,0,0,105,22,61,61,62,0,0,0,0,0,0,0,0,0,0,0,0,0,0,0,0,0,0,0,0,0,0,0,0,0,0,0,0,0,0,0,0,0,0,0,0,0,0,0,0,0,0,0,0,0,0,0,0,0,0,0,0,0,0,0,0,0,0,0,0,0,0,0,0,0,0,0,0,0,0,0,0,0,0,0,0,0,0,0,0,0,0,0,0,0,0,0,0,0,0,0,0,0,0,0,0,0,0,0,0,0,0,0,0,0,0,0,0,0,0,0,0,0,0,0,0,0,0,0,0,0,0,0,0,0,0,0,0,0,0,0,0,0,0,0,0,0,0,0,0,0,0,0,0,0,0,0,0,0,0,0,0,0,0,0,0,0,0,0,0,0,0,0,0,0,
0,0,0,0,0,0,0,0,0,0,0,0,0,0,0,0,0,0,0,0,0,0,0,0,0,0,0,0,0,0,0,0,0,0,0,0,0,0,0,0,0,0,0,0,0,0,0,0,0,105,107,0,0,0,0,0,0,0,0,0,0,0,0,0,0,0,0,0,0,0,0,105,106,106,107,0,0,0,0,0,0,0,0,0,0,0,0,0,0,0,0,0,0,0,0,0,0,0,0,0,0,0,0,0,0,0,0,0,0,0,0,0,0,0,0,0,0,0,0,0,0,0,0,0,0,0,0,0,0,0,0,0,0,0,0,0,0,0,0,0,0,0,0,0,0,0,0,0,0,0,0,0,0,0,0,0,0,0,0,0,0,0,0,0,0,0,0,0,0,0,0,0,0,0,0,0,0,0,0,0,0,0,0,0,0,0,0,0,0,0,0,0,0,0,0,0,0,0,0,0,0,0,0,0,0,0,0,0,0,0,0,0,0,0,0,0,0,0,0,0,0,0,0,0,0,0,0,0,0,0,0,0,0,0,0,0,0,0,0,0,
0,0,0,0,0,0,0,0,0,0,0,0,0,0,0,0,0,0,0,0,0,0,0,0,0,0,0,0,0,0,0,0,0,0,0,0,0,0,0,0,0,0,0,0,0,0,0,0,0,0,0,0,0,0,0,0,0,0,0,0,0,0,0,0,0,0,0,0,0,0,0,0,0,0,0,0,0,0,0,0,0,0,0,0,0,0,0,0,0,0,0,0,0,0,0,0,0,0,0,0,0,0,0,0,0,0,0,0,0,0,0,0,0,0,0,0,0,0,0,0,0,0,0,0,0,0,0,0,0,0,0,0,0,0,0,0,0,0,0,0,0,0,0,0,0,0,0,0,0,0,0,0,0,0,0,0,0,0,0,0,0,0,0,0,0,0,0,0,0,0,0,0,0,0,0,0,0,0,0,0,0,0,0,0,0,0,0,0,0,0,0,0,0,0,0,0,0,0,0,0,0,0,0,0,0,0,0,0,0,0,0,0,0,0,0,0,0,0,0,0,0,0,0,0,0,0,0,0,0,0,0,0,0,0,0,0,0,0,0,0,
0,0,0,0,0,0,0,0,0,0,0,0,0,0,0,0,0,0,0,0,0,0,0,0,0,0,0,0,0,0,0,0,0,0,0,0,0,0,0,0,0,0,0,0,0,0,0,0,0,0,0,0,0,0,0,0,0,0,0,0,0,0,0,0,0,0,0,0,0,0,0,0,0,0,0,0,0,0,0,0,0,0,0,0,0,0,0,0,0,0,0,0,0,0,0,0,0,0,0,0,0,0,0,0,0,0,0,0,0,0,0,0,0,0,0,0,0,0,0,0,0,0,0,0,0,0,0,0,0,0,0,0,0,0,0,0,0,0,0,0,0,0,0,0,0,0,0,0,0,0,0,0,0,0,0,0,0,0,0,0,0,0,0,0,0,0,0,0,0,0,0,0,0,0,0,0,0,0,0,0,0,0,0,0,0,0,0,0,0,0,0,0,0,0,0,0,0,0,0,0,0,0,0,0,0,0,0,0,0,0,0,0,0,0,0,0,0,0,0,0,0,0,0,0,0,0,0,0,0,0,0,0,0,0,0,0,0,0,0,0,
0,0,0,0,0,0,0,0,0,0,0,0,0,0,0,0,0,0,0,0,0,0,0,0,0,0,0,0,0,0,0,0,0,0,0,0,0,0,0,0,0,0,0,0,0,0,0,0,0,0,0,0,0,0,0,0,0,0,0,0,0,0,0,0,0,0,0,0,0,0,0,0,0,0,0,0,0,0,0,0,0,0,0,0,0,0,0,0,0,0,0,0,0,0,0,0,0,0,0,0,0,0,0,0,0,0,0,0,0,0,0,0,0,0,0,0,0,0,0,0,0,0,0,0,0,0,0,0,0,0,0,0,0,0,0,0,0,0,0,0,0,0,0,0,0,0,0,0,0,0,0,0,0,0,0,0,0,0,0,0,0,0,0,0,0,0,0,0,0,0,0,0,0,0,0,0,0,0,0,0,0,0,0,0,0,0,0,0,0,0,0,0,0,0,0,0,0,0,0,0,0,0,0,0,0,0,0,0,0,0,0,0,0,0,0,0,0,0,0,0,0,0,0,0,0,0,0,0,0,0,0,0,0,0,0,0,0,0,0,0,
0,0,0,0,0,0,0,0,0,0,0,0,0,0,0,0,0,0,0,0,0,0,0,0,0,0,0,0,0,0,0,0,0,0,0,0,0,0,0,0,0,0,0,0,0,0,0,0,0,0,0,0,0,0,0,0,0,0,0,0,0,0,0,0,0,0,0,0,0,0,0,0,0,0,0,0,0,0,0,0,0,0,0,0,0,0,0,0,0,0,0,0,0,0,0,0,0,0,0,0,0,0,0,0,0,0,0,0,0,0,0,0,0,0,0,0,0,0,0,0,0,0,0,0,0,0,0,0,0,0,0,0,0,0,0,0,0,0,0,0,0,0,0,0,0,0,0,0,0,0,0,0,0,0,0,0,0,0,0,0,0,0,0,0,0,0,0,0,0,0,0,0,0,0,0,0,0,0,0,0,0,0,0,0,0,0,0,0,0,0,0,0,0,0,0,0,0,0,0,0,0,0,0,0,0,0,0,0,0,0,0,0,0,0,0,0,0,0,0,0,0,0,0,0,0,0,0,0,0,0,0,0,0,0,0,0,0,0,0,0,
0,0,0,0,0,0,0,0,0,0,0,0,0,0,0,0,0,0,0,0,0,0,0,0,0,0,0,0,0,0,0,0,0,0,0,0,0,0,0,0,0,0,0,0,0,0,0,0,0,0,0,0,0,0,0,0,0,0,0,0,0,0,0,0,0,0,0,0,0,0,0,0,0,0,0,0,0,0,0,0,0,0,0,0,0,0,0,0,0,0,0,0,0,0,0,0,0,0,0,0,0,0,0,0,0,0,0,0,0,0,0,0,0,0,0,0,0,0,0,0,0,0,0,0,0,0,0,0,0,0,0,0,0,0,0,0,0,0,0,0,0,0,0,0,0,0,0,0,0,0,0,0,0,0,0,0,0,0,0,0,0,0,0,0,0,0,0,0,0,0,0,0,0,0,0,0,0,0,0,0,0,0,0,0,0,0,0,0,0,0,0,0,0,0,0,0,0,0,0,0,0,0,0,0,0,0,0,0,0,0,0,0,0,0,0,0,0,0,0,0,0,0,0,0,0,0,0,0,0,0,0,0,0,0,0,0,0,0,0,0,
0,0,0,0,0,0,0,0,0,0,0,0,0,0,0,0,0,0,0,0,0,0,0,0,0,0,0,0,0,0,0,0,0,0,0,0,0,0,0,0,0,0,0,0,0,0,0,0,0,0,0,0,0,0,0,0,0,0,0,0,0,0,0,0,0,0,0,0,0,0,0,0,0,0,0,0,0,0,0,0,0,0,0,0,0,0,0,0,0,0,0,0,0,0,0,0,0,0,0,0,0,0,0,0,0,0,0,0,0,0,0,0,0,0,0,0,0,0,0,0,0,0,0,0,0,0,0,0,0,0,0,0,0,0,0,0,0,0,0,0,0,0,0,0,0,0,0,0,0,0,0,0,0,0,0,0,0,0,0,0,0,0,0,0,0,0,0,0,0,0,0,0,0,0,0,0,0,0,0,0,0,0,0,0,0,0,0,0,0,0,0,0,0,0,0,0,0,0,0,0,0,0,0,0,0,0,0,0,0,0,0,0,0,0,0,0,0,0,0,0,0,0,0,0,0,0,0,0,0,0,0,0,0,0,0,0,0,0,0,0,
0,0,0,0,0,0,0,0,0,0,0,0,0,0,0,0,0,0,0,0,0,0,0,0,0,0,0,0,0,0,0,0,0,0,0,0,0,0,0,0,0,0,0,0,0,0,0,0,0,0,0,0,0,0,0,0,0,0,0,0,0,0,0,0,0,0,0,0,0,0,0,0,0,0,0,0,0,0,0,0,0,0,0,0,0,0,0,0,0,0,0,0,0,0,0,0,0,0,0,0,0,0,0,0,0,0,0,0,0,0,0,0,0,0,0,0,0,0,0,0,0,0,0,0,0,0,0,0,0,0,0,0,0,0,0,0,0,0,0,0,0,0,0,0,0,0,0,0,0,0,0,0,0,0,0,0,0,0,0,0,0,0,0,0,0,0,0,0,0,0,0,0,0,0,0,0,0,0,0,0,0,0,0,0,0,0,0,0,0,0,0,0,0,0,0,0,0,0,0,0,0,0,0,0,0,0,0,0,0,0,0,0,0,0,0,0,0,0,0,0,0,0,0,0,0,0,0,0,0,0,0,0,0,0,0,0,0,0,0,0,
0,0,0,0,0,0,0,0,0,0,0,0,0,0,0,0,0,0,0,0,0,0,0,0,0,0,0,0,0,0,0,0,0,0,0,0,0,0,0,0,0,0,0,0,0,0,0,0,0,0,0,0,0,0,0,0,0,0,0,0,0,0,0,0,0,0,0,0,0,0,0,0,0,0,0,0,0,0,0,0,0,0,0,0,0,0,0,0,0,0,0,0,0,0,0,0,0,0,0,0,0,0,0,0,0,0,0,0,0,0,0,0,0,0,0,0,0,0,0,0,0,0,0,0,0,0,0,0,0,0,0,0,0,0,0,0,0,0,0,0,0,0,0,0,0,0,0,0,0,0,0,0,0,0,0,0,0,0,0,0,0,0,0,0,0,0,0,0,0,0,0,0,0,0,0,0,0,0,0,0,0,0,0,0,0,0,0,0,0,0,0,0,0,0,0,0,0,0,0,0,0,0,0,0,0,0,0,0,0,0,0,0,0,0,0,0,0,0,0,0,0,0,0,0,0,0,0,0,0,0,0,0,0,0,0,0,0,0,0,0,
0,0,0,0,0,0,0,0,0,0,0,0,0,0,0,0,0,0,0,0,0,0,0,0,0,0,0,0,0,0,0,0,0,0,0,0,0,0,0,0,0,0,0,0,0,0,0,0,0,0,0,0,0,0,0,0,0,0,0,0,0,0,0,0,0,0,0,0,0,0,0,0,0,0,0,0,0,0,0,0,0,0,0,0,0,0,0,0,0,0,0,0,0,0,0,0,0,0,0,0,0,0,0,0,0,0,0,0,0,0,0,0,0,0,0,0,0,0,0,0,0,0,0,0,0,0,0,0,0,0,0,0,0,0,0,0,0,0,0,0,0,0,0,0,0,0,0,0,0,0,0,0,0,0,0,0,0,0,0,0,0,0,0,0,0,0,0,0,0,0,0,0,0,0,0,0,0,0,0,0,0,0,0,0,0,0,0,0,0,0,0,0,0,0,0,0,0,0,0,0,0,0,0,0,0,0,0,0,0,0,0,0,0,0,0,0,0,0,0,0,0,0,0,0,0,0,0,0,0,0,0,0,0,0,0,0,0,0,0,0,
0,0,0,0,0,0,0,0,0,0,0,0,0,0,0,0,0,0,0,0,0,0,0,0,0,0,0,0,0,0,0,0,0,0,0,0,0,0,0,0,0,0,0,0,0,0,0,0,0,0,0,0,0,0,0,0,0,0,0,0,0,0,0,0,0,0,0,0,0,0,0,0,0,0,0,0,0,0,0,0,0,0,0,0,0,0,0,0,0,0,0,0,0,0,0,0,0,0,0,0,0,0,0,0,0,0,0,0,0,0,0,0,0,0,0,0,0,0,0,0,0,0,0,0,0,0,0,0,0,0,0,0,0,0,0,0,0,0,0,0,0,0,0,0,0,0,0,0,0,0,0,0,0,0,0,0,0,0,0,0,0,0,0,0,0,0,0,0,0,0,0,0,0,0,0,0,0,0,0,0,0,0,0,0,0,0,0,0,0,0,0,0,0,0,0,0,0,0,0,0,0,0,0,0,0,0,0,0,0,0,0,0,0,0,0,0,0,0,0,0,0,0,0,0,0,0,0,0,0,0,0,0,0,0,0,0,0,0,0,0,
0,0,0,0,0,0,0,0,0,0,0,0,0,0,0,0,0,0,0,0,0,0,0,0,0,0,0,0,0,0,0,0,0,0,0,0,0,0,0,0,0,0,0,0,0,0,0,0,0,0,0,0,0,0,0,0,0,0,0,0,0,0,0,0,0,0,0,0,0,0,0,0,0,0,0,0,0,0,0,0,0,0,0,0,0,0,0,0,0,0,0,0,0,0,0,0,0,0,0,0,0,0,0,0,0,0,0,0,0,0,0,0,0,0,0,0,0,0,0,0,0,0,0,0,0,0,0,0,0,0,0,0,0,0,0,0,0,0,0,0,0,0,0,0,0,0,0,0,0,0,0,0,0,0,0,0,0,0,0,0,0,0,0,0,0,0,0,0,0,0,0,0,0,0,0,0,0,0,0,0,0,0,0,0,0,0,0,0,0,0,0,0,0,0,0,0,0,0,0,0,0,0,0,0,0,0,0,0,0,0,0,0,0,0,0,0,0,0,0,0,0,0,0,0,0,0,0,0,0,0,0,0,0,0,0,0,0,0,0,0,
0,0,0,0,0,0,0,0,0,0,0,0,0,0,0,0,0,0,0,0,0,0,0,0,0,0,0,0,0,0,0,0,0,0,0,0,0,0,0,0,0,0,0,0,0,0,0,0,0,0,0,0,0,0,0,0,0,0,0,0,0,0,0,0,0,0,0,0,0,0,0,0,0,0,0,0,0,0,0,0,0,0,0,0,0,0,0,0,0,0,0,0,0,0,0,0,0,0,0,0,0,0,0,0,0,0,0,0,0,0,0,0,0,0,0,0,0,0,0,0,0,0,0,0,0,0,0,0,0,0,0,0,0,0,0,0,0,0,0,0,0,0,0,0,0,0,0,0,0,0,0,0,0,0,0,0,0,0,0,0,0,0,0,0,0,0,0,0,0,0,0,0,0,0,0,0,0,0,0,0,0,0,0,0,0,0,0,0,0,0,0,0,0,0,0,0,0,0,0,0,0,0,0,0,0,0,0,0,0,0,0,0,0,0,0,0,0,0,0,0,0,0,0,0,0,0,0,0,0,0,0,0,0,0,0,0,0,0,0,0,
0,0,0,0,0,0,0,0,0,0,0,0,0,0,0,0,0,0,0,0,0,0,0,0,0,0,0,0,0,0,0,0,0,0,0,0,0,0,0,0,0,0,0,0,0,0,0,0,0,0,0,0,0,0,0,0,0,0,0,0,0,0,0,0,0,0,0,0,0,0,0,0,0,0,0,0,0,0,0,0,0,0,0,0,0,0,0,0,0,0,0,0,0,0,0,0,0,0,0,0,0,0,0,0,0,0,0,0,0,0,0,0,0,0,0,0,0,0,0,0,0,0,0,0,0,0,0,0,0,0,0,0,0,0,0,0,0,0,0,0,0,0,0,0,0,0,0,0,0,0,0,0,0,0,0,0,0,0,0,0,0,0,0,0,0,0,0,0,0,0,0,0,0,0,0,0,0,0,0,0,0,0,0,0,0,0,0,0,0,0,0,0,0,0,0,0,0,0,0,0,0,0,0,0,0,0,0,0,0,0,0,0,0,0,0,0,0,0,0,0,0,0,0,0,0,0,0,0,0,0,0,0,0,0,0,0,0,0,0,0,
0,0,0,0,0,0,0,0,0,0,0,0,0,0,0,0,0,0,0,0,0,0,0,0,0,0,0,0,0,0,0,0,0,0,0,0,0,0,0,0,0,0,0,0,0,0,0,0,0,0,0,0,0,0,0,0,0,0,0,0,0,0,0,0,0,0,0,0,0,0,0,0,0,0,0,0,0,0,0,0,0,0,0,0,0,0,0,0,0,0,0,0,0,0,0,0,0,0,0,0,0,0,0,0,0,0,0,0,0,0,0,0,0,0,0,0,0,0,0,0,0,0,0,0,0,0,0,0,0,0,0,0,0,0,0,0,0,0,0,0,0,0,0,0,0,0,0,0,0,0,0,0,0,0,0,0,0,0,0,0,0,0,0,0,0,0,0,0,0,0,0,0,0,0,0,0,0,0,0,0,0,0,0,0,0,0,0,0,0,0,0,0,0,0,0,0,0,0,0,0,0,0,0,0,0,0,0,0,0,0,0,0,0,0,0,0,0,0,0,0,0,0,0,0,0,0,0,0,0,0,0,0,0,0,0,0,0,0,0,0,
0,0,0,0,0,0,0,0,0,0,0,0,0,0,0,0,0,0,0,0,0,0,0,0,0,0,0,0,0,0,0,0,0,0,0,0,0,0,0,0,0,0,0,0,0,0,0,0,0,0,0,0,0,0,0,0,0,0,0,0,0,0,0,0,0,0,0,0,0,0,0,0,0,0,0,0,0,0,0,0,0,0,0,0,0,0,0,0,0,0,0,0,0,0,0,0,0,0,0,0,0,0,0,0,0,0,0,0,0,0,0,0,0,0,0,0,0,0,0,0,0,0,0,0,0,0,0,0,0,0,0,0,0,0,0,0,0,0,0,0,0,0,0,0,0,0,0,0,0,0,0,0,0,0,0,0,0,0,0,0,0,0,0,0,0,0,0,0,0,0,0,0,0,0,0,0,0,0,0,0,0,0,0,0,0,0,0,0,0,0,0,0,0,0,0,0,0,0,0,0,0,0,0,0,0,0,0,0,0,0,0,0,0,0,0,0,0,0,0,0,0,0,0,0,0,0,0,0,0,0,0,0,0,0,0,0,0,0,0,0,
0,0,0,0,0,0,0,0,0,0,0,0,0,0,0,0,0,0,0,0,0,0,0,0,0,0,0,0,0,0,0,0,0,0,0,0,0,0,0,0,0,0,0,0,0,0,0,0,0,0,0,0,0,0,0,0,0,0,0,0,0,0,0,0,0,0,0,0,0,0,0,0,0,0,0,0,0,0,0,0,0,0,0,0,0,0,0,0,0,0,0,0,0,0,0,0,0,0,0,0,0,0,0,0,0,0,0,0,0,0,0,0,0,0,0,0,0,0,0,0,0,0,0,0,0,0,0,0,0,0,0,0,0,0,0,0,0,0,0,0,0,0,0,0,0,0,0,0,0,0,0,0,0,0,0,0,0,0,0,0,0,0,0,0,0,0,0,0,0,0,0,0,0,0,0,0,0,0,0,0,0,0,0,0,0,0,0,0,0,0,0,0,0,0,0,0,0,0,0,0,0,0,0,0,0,0,0,0,0,0,0,0,0,0,0,0,0,0,0,0,0,0,0,0,0,0,0,0,0,0,0,0,0,0,0,0,0,0,0,0,
0,0,0,0,0,0,0,0,0,0,0,0,0,0,0,0,0,0,0,0,0,0,0,0,0,0,0,0,0,0,0,0,0,0,0,0,0,0,0,0,0,0,0,0,0,0,0,0,0,0,0,0,0,0,0,0,0,0,0,0,0,0,0,0,0,0,0,0,0,0,0,0,0,0,0,0,0,0,0,0,0,0,0,0,0,0,0,0,0,0,0,0,0,0,0,0,0,0,0,0,0,0,0,0,0,0,0,0,0,0,0,0,0,0,0,0,0,0,0,0,0,0,0,0,0,0,0,0,0,0,0,0,0,0,0,0,0,0,0,0,0,0,0,0,0,0,0,0,0,0,0,0,0,0,0,0,0,0,0,0,0,0,0,0,0,0,0,0,0,0,0,0,0,0,0,0,0,0,0,0,0,0,0,0,0,0,0,0,0,0,0,0,0,0,0,0,0,0,0,0,0,0,0,0,0,0,0,0,0,0,0,0,0,0,0,0,0,0,0,0,0,0,0,0,0,0,0,0,0,0,0,0,0,0,0,0,0,0,0,0,
0,0,0,0,0,0,0,0,0,0,0,0,0,0,0,0,0,0,0,0,0,0,0,0,0,0,0,0,0,0,0,0,0,0,0,0,0,0,0,0,0,0,0,0,0,0,0,0,0,0,0,0,0,0,0,0,0,0,0,0,0,0,0,0,0,0,0,0,0,0,0,0,0,0,0,0,0,0,0,0,0,0,0,0,0,0,0,0,0,0,0,0,0,0,0,0,0,0,0,0,0,0,0,0,0,0,0,0,0,0,0,0,0,0,0,0,0,0,0,0,0,0,0,0,0,0,0,0,0,0,0,0,0,0,0,0,0,0,0,0,0,0,0,0,0,0,0,0,0,0,0,0,0,0,0,0,0,0,0,0,0,0,0,0,0,0,0,0,0,0,0,0,0,0,0,0,0,0,0,0,0,0,0,0,0,0,0,0,0,0,0,0,0,0,0,0,0,0,0,0,0,0,0,0,0,0,0,0,0,0,0,0,0,0,0,0,0,0,0,0,0,0,0,0,0,0,0,0,0,0,0,0,0,0,0,0,0,0,0,0,
0,0,0,0,0,0,0,0,0,0,0,0,0,0,0,0,0,0,0,0,0,0,0,0,0,0,0,0,0,0,0,0,0,0,0,0,0,0,0,0,0,0,0,0,0,0,0,0,0,0,0,0,0,0,0,0,0,0,0,0,0,0,0,0,0,0,0,0,0,0,0,0,0,0,0,0,0,0,0,0,0,0,0,0,0,0,0,0,0,0,0,0,0,0,0,0,0,0,0,0,0,0,0,0,0,0,0,0,0,0,0,0,0,0,0,0,0,0,0,0,0,0,0,0,0,0,0,0,0,0,0,0,0,0,0,0,0,0,0,0,0,0,0,0,0,0,0,0,0,0,0,0,0,0,0,0,0,0,0,0,0,0,0,0,0,0,0,0,0,0,0,0,0,0,0,0,0,0,0,0,0,0,0,0,0,0,0,0,0,0,0,0,0,0,0,0,0,0,0,0,0,0,0,0,0,0,0,0,0,0,0,0,0,0,0,0,0,0,0,0,0,0,0,0,0,0,0,0,0,0,0,0,0,0,0,0,0,0,0,0,
0,0,0,0,0,0,0,0,0,0,0,0,0,0,0,0,0,0,0,0,0,0,0,0,0,0,0,0,0,0,0,0,0,0,0,0,0,0,0,0,0,0,0,0,0,0,0,0,0,0,0,0,0,0,0,0,0,0,0,0,0,0,0,0,0,0,0,0,0,0,0,0,0,0,0,0,0,0,0,0,0,0,0,0,0,0,0,0,0,0,0,0,0,0,0,0,0,0,0,0,0,0,0,0,0,0,0,0,0,0,0,0,0,0,0,0,0,0,0,0,0,0,0,0,0,0,0,0,0,0,0,0,0,0,0,0,0,0,0,0,0,0,0,0,0,0,0,0,0,0,0,0,0,0,0,0,0,0,0,0,0,0,0,0,0,0,0,0,0,0,0,0,0,0,0,0,0,0,0,0,0,0,0,0,0,0,0,0,0,0,0,0,0,0,0,0,0,0,0,0,0,0,0,0,0,0,0,0,0,0,0,0,0,0,0,0,0,0,0,0,0,0,0,0,0,0,0,0,0,0,0,0,0,0,0,0,0,0,0,0,
0,0,0,0,0,0,0,0,0,0,0,0,0,0,0,0,0,0,0,0,0,0,0,0,0,0,0,0,0,0,0,0,0,0,0,0,0,0,0,0,0,0,0,0,0,0,0,0,0,0,0,0,0,0,0,0,0,0,0,0,0,0,0,0,0,0,0,0,0,0,0,0,0,0,0,0,0,0,0,0,0,0,0,0,0,0,0,0,0,0,0,0,0,0,0,0,0,0,0,0,0,0,0,0,0,0,0,0,0,0,0,0,0,0,0,0,0,0,0,0,0,0,0,0,0,0,0,0,0,0,0,0,0,0,0,0,0,0,0,0,0,0,0,0,0,0,0,0,0,0,0,0,0,0,0,0,0,0,0,0,0,0,0,0,0,0,0,0,0,0,0,0,0,0,0,0,0,0,0,0,0,0,0,0,0,0,0,0,0,0,0,0,0,0,0,0,0,0,0,0,0,0,0,0,0,0,0,0,0,0,0,0,0,0,0,0,0,0,0,0,0,0,0,0,0,0,0,0,0,0,0,0,0,0,0,0,0,0,0,0,
0,0,0,0,0,0,0,0,0,0,0,0,0,0,0,0,0,0,0,0,0,0,0,0,0,0,0,0,0,0,0,0,0,0,0,0,0,0,0,0,0,0,0,0,0,0,0,0,0,0,0,0,0,0,0,0,0,0,0,0,0,0,0,0,0,0,0,0,0,0,0,0,0,0,0,0,0,0,0,0,0,0,0,0,0,0,0,0,0,0,0,0,0,0,0,0,0,0,0,0,0,0,0,0,0,0,0,0,0,0,0,0,0,0,0,0,0,0,0,0,0,0,0,0,0,0,0,0,0,0,0,0,0,0,0,0,0,0,0,0,0,0,0,0,0,0,0,0,0,0,0,0,0,0,0,0,0,0,0,0,0,0,0,0,0,0,0,0,0,0,0,0,0,0,0,0,0,0,0,0,0,0,0,0,0,0,0,0,0,0,0,0,0,0,0,0,0,0,0,0,0,0,0,0,0,0,0,0,0,0,0,0,0,0,0,0,0,0,0,0,0,0,0,0,0,0,0,0,0,0,0,0,0,0,0,0,0,0,0,0,
0,0,0,0,0,0,0,0,0,0,0,0,0,0,0,0,0,0,0,0,0,0,0,0,0,0,0,0,0,0,0,0,0,0,0,0,0,0,0,0,0,0,0,0,0,0,0,0,0,0,0,0,0,0,0,0,0,0,0,0,0,0,0,0,0,0,0,0,0,0,0,0,0,0,0,0,0,0,0,0,0,0,0,0,0,0,0,0,0,0,0,0,0,0,0,0,0,0,0,0,0,0,0,0,0,0,0,0,0,0,0,0,0,0,0,0,0,0,0,0,0,0,0,0,0,0,0,0,0,0,0,0,0,0,0,0,0,0,0,0,0,0,0,0,0,0,0,0,0,0,0,0,0,0,0,0,0,0,0,0,0,0,0,0,0,0,0,0,0,0,0,0,0,0,0,0,0,0,0,0,0,0,0,0,0,0,0,0,0,0,0,0,0,0,0,0,0,0,0,0,0,0,0,0,0,0,0,0,0,0,0,0,0,0,0,0,0,0,0,0,0,0,0,0,0,0,0,0,0,0,0,0,0,0,0,0,0,0,0,0,
0,0,0,0,0,0,0,0,0,0,0,0,0,0,0,0,0,0,0,0,0,0,0,0,0,0,0,0,0,0,0,0,0,0,0,0,0,0,0,0,0,0,0,0,0,0,0,0,0,0,0,0,0,0,0,0,0,0,0,0,0,0,0,0,0,0,0,0,0,0,0,0,0,0,0,0,0,0,0,0,0,0,0,0,0,0,0,0,0,0,0,0,0,0,0,0,0,0,0,0,0,0,0,0,0,0,0,0,0,0,0,0,0,0,0,0,0,0,0,0,0,0,0,0,0,0,0,0,0,0,0,0,0,0,0,0,0,0,0,0,0,0,0,0,0,0,0,0,0,0,0,0,0,0,0,0,0,0,0,0,0,0,0,0,0,0,0,0,0,0,0,0,0,0,0,0,0,0,0,0,0,0,0,0,0,0,0,0,0,0,0,0,0,0,0,0,0,0,0,0,0,0,0,0,0,0,0,0,0,0,0,0,0,0,0,0,0,0,0,0,0,0,0,0,0,0,0,0,0,0,0,0,0,0,0,0,0,0,0,0,
0,0,0,0,0,0,0,0,0,0,0,0,0,0,0,0,0,0,0,0,0,0,0,0,0,0,0,0,0,0,0,0,0,0,0,0,0,0,0,0,0,0,0,0,0,0,0,0,0,0,0,0,0,0,0,0,0,0,0,0,0,0,0,0,0,0,0,0,0,0,0,0,0,0,0,0,0,0,0,0,0,0,0,0,0,0,0,0,0,0,0,0,0,0,0,0,0,0,0,0,0,0,0,0,0,0,0,0,0,0,0,0,0,0,0,0,0,0,0,0,0,0,0,0,0,0,0,0,0,0,0,0,0,0,0,0,0,0,0,0,0,0,0,0,0,0,0,0,0,0,0,0,0,0,0,0,0,0,0,0,0,0,0,0,0,0,0,0,0,0,0,0,0,0,0,0,0,0,0,0,0,0,0,0,0,0,0,0,0,0,0,0,0,0,0,0,0,0,0,0,0,0,0,0,0,0,0,0,0,0,0,0,0,0,0,0,0,0,0,0,0,0,0,0,0,0,0,0,0,0,0,0,0,0,0,0,0,0,0,0,
0,0,0,0,0,0,0,0,0,0,0,0,0,0,0,0,0,0,0,0,0,0,0,0,0,0,0,0,0,0,0,0,0,0,0,0,0,0,0,0,0,0,0,0,0,0,0,0,0,0,0,0,0,0,0,0,0,0,0,0,0,0,0,0,0,0,0,0,0,0,0,0,0,0,0,0,0,0,0,0,0,0,0,0,0,0,0,0,0,0,0,0,0,0,0,0,0,0,0,0,0,0,0,0,0,0,0,0,0,0,0,0,0,0,0,0,0,0,0,0,0,0,0,0,0,0,0,0,0,0,0,0,0,0,0,0,0,0,0,0,0,0,0,0,0,0,0,0,0,0,0,0,0,0,0,0,0,0,0,0,0,0,0,0,0,0,0,0,0,0,0,0,0,0,0,0,0,0,0,0,0,0,0,0,0,0,0,0,0,0,0,0,0,0,0,0,0,0,0,0,0,0,0,0,0,0,0,0,0,0,0,0,0,0,0,0,0,0,0,0,0,0,0,0,0,0,0,0,0,0,0,0,0,0,0,0,0,0,0,0,
0,0,0,0,0,0,0,0,0,0,0,0,0,0,0,0,0,0,0,0,0,0,0,0,0,0,0,0,0,0,0,0,0,0,0,0,0,0,0,0,0,0,0,0,0,0,0,0,0,0,0,0,0,0,0,0,0,0,0,0,0,0,0,0,0,0,0,0,0,0,0,0,0,0,0,0,0,0,0,0,0,0,0,0,0,0,0,0,0,0,0,0,0,0,0,0,0,0,0,0,0,0,0,0,0,0,0,0,0,0,0,0,0,0,0,0,0,0,0,0,0,0,0,0,0,0,0,0,0,0,0,0,0,0,0,0,0,0,0,0,0,0,0,0,0,0,0,0,0,0,0,0,0,0,0,0,0,0,0,0,0,0,0,0,0,0,0,0,0,0,0,0,0,0,0,0,0,0,0,0,0,0,0,0,0,0,0,0,0,0,0,0,0,0,0,0,0,0,0,0,0,0,0,0,0,0,0,0,0,0,0,0,0,0,0,0,0,0,0,0,0,0,0,0,0,0,0,0,0,0,0,0,0,0,0,0,0,0,0,0,
0,0,0,0,0,0,0,0,0,0,0,0,0,0,0,0,0,0,0,0,0,0,0,0,0,0,0,0,0,0,0,0,0,0,0,0,0,0,0,0,0,0,0,0,0,0,0,0,0,0,0,0,0,0,0,0,0,0,0,0,0,0,0,0,0,0,0,0,0,0,0,0,0,0,0,0,0,0,0,0,0,0,0,0,0,0,0,0,0,0,0,0,0,0,0,0,0,0,0,0,0,0,0,0,0,0,0,0,0,0,0,0,0,0,0,0,0,0,0,0,0,0,0,0,0,0,0,0,0,0,0,0,0,0,0,0,0,0,0,0,0,0,0,0,0,0,0,0,0,0,0,0,0,0,0,0,0,0,0,0,0,0,0,0,0,0,0,0,0,0,0,0,0,0,0,0,0,0,0,0,0,0,0,0,0,0,0,0,0,0,0,0,0,0,0,0,0,0,0,0,0,0,0,0,0,0,0,0,0,0,0,0,0,0,0,0,0,0,0,0,0,0,0,0,0,0,0,0,0,0,0,0,0,0,0,0,0,0,0,0,
0,0,0,0,0,0,0,0,0,0,0,0,0,0,0,0,0,0,0,0,0,0,0,0,0,0,0,0,0,0,0,0,0,0,0,0,0,0,0,0,0,0,0,0,0,0,0,0,0,0,0,0,0,0,0,0,0,0,0,0,0,0,0,0,0,0,0,0,0,0,0,0,0,0,0,0,0,0,0,0,0,0,0,0,0,0,0,0,0,0,0,0,0,0,0,0,0,0,0,0,0,0,0,0,0,0,0,0,0,0,0,0,0,0,0,0,0,0,0,0,0,0,0,0,0,0,0,0,0,0,0,0,0,0,0,0,0,0,0,0,0,0,0,0,0,0,0,0,0,0,0,0,0,0,0,0,0,0,0,0,0,0,0,0,0,0,0,0,0,0,0,0,0,0,0,0,0,0,0,0,0,0,0,0,0,0,0,0,0,0,0,0,0,0,0,0,0,0,0,0,0,0,0,0,0,0,0,0,0,0,0,0,0,0,0,0,0,0,0,0,0,0,0,0,0,0,0,0,0,0,0,0,0,0,0,0,0,0,0,0,
0,0,0,0,0,0,0,0,0,0,0,0,0,0,0,0,0,0,0,0,0,0,0,0,0,0,0,0,0,0,0,0,0,0,0,0,0,0,0,0,0,0,0,0,0,0,0,0,0,0,0,0,0,0,0,0,0,0,0,0,0,0,0,0,0,0,0,0,0,0,0,0,0,0,0,0,0,0,0,0,0,0,0,0,0,0,0,0,0,0,0,0,0,0,0,0,0,0,0,0,0,0,0,0,0,0,0,0,0,0,0,0,0,0,0,0,0,0,0,0,0,0,0,0,0,0,0,0,0,0,0,0,0,0,0,0,0,0,0,0,0,0,0,0,0,0,0,0,0,0,0,0,0,0,0,0,0,0,0,0,0,0,0,0,0,0,0,0,0,0,0,0,0,0,0,0,0,0,0,0,0,0,0,0,0,0,0,0,0,0,0,0,0,0,0,0,0,0,0,0,0,0,0,0,0,0,0,0,0,0,0,0,0,0,0,0,0,0,0,0,0,0,0,0,0,0,0,0,0,0,0,0,0,0,0,0,0,0,0,0,
0,0,0,0,0,0,0,0,0,0,0,0,0,0,0,0,0,0,0,0,0,0,0,0,0,0,0,0,0,0,0,0,0,0,0,0,0,0,0,0,0,0,0,0,0,0,0,0,0,0,0,0,0,0,0,0,0,0,0,0,0,0,0,0,0,0,0,0,0,0,0,0,0,0,0,0,0,0,0,0,0,0,0,0,0,0,0,0,0,0,0,0,0,0,0,0,0,0,0,0,0,0,0,0,0,0,0,0,0,0,0,0,0,0,0,0,0,0,0,0,0,0,0,0,0,0,0,0,0,0,0,0,0,0,0,0,0,0,0,0,0,0,0,0,0,0,0,0,0,0,0,0,0,0,0,0,0,0,0,0,0,0,0,0,0,0,0,0,0,0,0,0,0,0,0,0,0,0,0,0,0,0,0,0,0,0,0,0,0,0,0,0,0,0,0,0,0,0,0,0,0,0,0,0,0,0,0,0,0,0,0,0,0,0,0,0,0,0,0,0,0,0,0,0,0,0,0,0,0,0,0,0,0,0,0,0,0,0,0,0,
0,0,0,0,0,0,0,0,0,0,0,0,0,0,0,0,0,0,0,0,0,0,0,0,0,0,0,0,0,0,0,0,0,0,0,0,0,0,0,0,0,0,0,0,0,0,0,0,0,0,0,0,0,0,0,0,0,0,0,0,0,0,0,0,0,0,0,0,0,0,0,0,0,0,0,0,0,0,0,0,0,0,0,0,0,0,0,0,0,0,0,0,0,0,0,0,0,0,0,0,0,0,0,0,0,0,0,0,0,0,0,0,0,0,0,0,0,0,0,0,0,0,0,0,0,0,0,0,0,0,0,0,0,0,0,0,0,0,0,0,0,0,0,0,0,0,0,0,0,0,0,0,0,0,0,0,0,0,0,0,0,0,0,0,0,0,0,0,0,0,0,0,0,0,0,0,0,0,0,0,0,0,0,0,0,0,0,0,0,0,0,0,0,0,0,0,0,0,0,0,0,0,0,0,0,0,0,0,0,0,0,0,0,0,0,0,0,0,0,0,0,0,0,0,0,0,0,0,0,0,0,0,0,0,0,0,0,0,0,0,
0,0,0,0,0,0,0,0,0,0,0,0,0,0,0,0,0,0,0,0,0,0,0,0,0,0,0,0,0,0,0,0,0,0,0,0,0,0,0,0,0,0,0,0,0,0,0,0,0,0,0,0,0,0,0,0,0,0,0,0,0,0,0,0,0,0,0,0,0,0,0,0,0,0,0,0,0,0,0,0,0,0,0,0,0,0,0,0,0,0,0,0,0,0,0,0,0,0,0,0,0,0,0,0,0,0,0,0,0,0,0,0,0,0,0,0,0,0,0,0,0,0,0,0,0,0,0,0,0,0,0,0,0,0,0,0,0,0,0,0,0,0,0,0,0,0,0,0,0,0,0,0,0,0,0,0,0,0,0,0,0,0,0,0,0,0,0,0,0,0,0,0,0,0,0,0,0,0,0,0,0,0,0,0,0,0,0,0,0,0,0,0,0,0,0,0,0,0,0,0,0,0,0,0,0,0,0,0,0,0,0,0,0,0,0,0,0,0,0,0,0,0,0,0,0,0,0,0,0,0,0,0,0,0,0,0,0,0,0,0,
0,0,0,0,0,0,0,0,0,0,0,0,0,0,0,0,0,0,0,0,0,0,0,0,0,0,0,0,0,0,0,0,0,0,0,0,0,0,0,0,0,0,0,0,0,0,0,0,0,0,0,0,0,0,0,0,0,0,0,0,0,0,0,0,0,0,0,0,0,0,0,0,0,0,0,0,0,0,0,0,0,0,0,0,0,0,0,0,0,0,0,0,0,0,0,0,0,0,0,0,0,0,0,0,0,0,0,0,0,0,0,0,0,0,0,0,0,0,0,0,0,0,0,0,0,0,0,0,0,0,0,0,0,0,0,0,0,0,0,0,0,0,0,0,0,0,0,0,0,0,0,0,0,0,0,0,0,0,0,0,0,0,0,0,0,0,0,0,0,0,0,0,0,0,0,0,0,0,0,0,0,0,0,0,0,0,0,0,0,0,0,0,0,0,0,0,0,0,0,0,0,0,0,0,0,0,0,0,0,0,0,0,0,0,0,0,0,0,0,0,0,0,0,0,0,0,0,0,0,0,0,0,0,0,0,0,0,0,0,0,
0,0,0,0,0,0,0,0,0,0,0,0,0,0,0,0,0,0,0,0,0,0,0,0,0,0,0,0,0,0,0,0,0,0,0,0,0,0,0,0,0,0,0,0,0,0,0,0,0,0,0,0,0,0,0,0,0,0,0,0,0,0,0,0,0,0,0,0,0,0,0,0,0,0,0,0,0,0,0,0,0,0,0,0,0,0,0,0,0,0,0,0,0,0,0,0,0,0,0,0,0,0,0,0,0,0,0,0,0,0,0,0,0,0,0,0,0,0,0,0,0,0,0,0,0,0,0,0,0,0,0,0,0,0,0,0,0,0,0,0,0,0,0,0,0,0,0,0,0,0,0,0,0,0,0,0,0,0,0,0,0,0,0,0,0,0,0,0,0,0,0,0,0,0,0,0,0,0,0,0,0,0,0,0,0,0,0,0,0,0,0,0,0,0,0,0,0,0,0,0,0,0,0,0,0,0,0,0,0,0,0,0,0,0,0,0,0,0,0,0,0,0,0,0,0,0,0,0,0,0,0,0,0,0,0,0,0,0,0,0,
0,0,0,0,0,0,0,0,0,0,0,0,0,0,0,0,0,0,0,0,0,0,0,0,0,0,0,0,0,0,0,0,0,0,0,0,0,0,0,0,0,0,0,0,0,0,0,0,0,0,0,0,0,0,0,0,0,0,0,0,0,0,0,0,0,0,0,0,0,0,0,0,0,0,0,0,0,0,0,0,0,0,0,0,0,0,0,0,0,0,0,0,0,0,0,0,0,0,0,0,0,0,0,0,0,0,0,0,0,0,0,0,0,0,0,0,0,0,0,0,0,0,0,0,0,0,0,0,0,0,0,0,0,0,0,0,0,0,0,0,0,0,0,0,0,0,0,0,0,0,0,0,0,0,0,0,0,0,0,0,0,0,0,0,0,0,0,0,0,0,0,0,0,0,0,0,0,0,0,0,0,0,0,0,0,0,0,0,0,0,0,0,0,0,0,0,0,0,0,0,0,0,0,0,0,0,0,0,0,0,0,0,0,0,0,0,0,0,0,0,0,0,0,0,0,0,0,0,0,0,0,0,0,0,0,0,0,0,0,0,
0,0,0,0,0,0,0,0,0,0,0,0,0,0,0,0,0,0,0,0,0,0,0,0,0,0,0,0,0,0,0,0,0,0,0,0,0,0,0,0,0,0,0,0,0,0,0,0,0,0,0,0,0,0,0,0,0,0,0,0,0,0,0,0,0,0,0,0,0,0,0,0,0,0,0,0,0,0,0,0,0,0,0,0,0,0,0,0,0,0,0,0,0,0,0,0,0,0,0,0,0,0,0,0,0,0,0,0,0,0,0,0,0,0,0,0,0,0,0,0,0,0,0,0,0,0,0,0,0,0,0,0,0,0,0,0,0,0,0,0,0,0,0,0,0,0,0,0,0,0,0,0,0,0,0,0,0,0,0,0,0,0,0,0,0,0,0,0,0,0,0,0,0,0,0,0,0,0,0,0,0,0,0,0,0,0,0,0,0,0,0,0,0,0,0,0,0,0,0,0,0,0,0,0,0,0,0,0,0,0,0,0,0,0,0,0,0,0,0,0,0,0,0,0,0,0,0,0,0,0,0,0,0,0,0,0,0,0,0,0,
0,0,0,0,0,0,0,0,0,0,0,0,0,0,0,0,0,0,0,0,0,0,0,0,0,0,0,0,0,0,0,0,0,0,0,0,0,0,0,0,0,0,0,0,0,0,0,0,0,0,0,0,0,0,0,0,0,0,0,0,0,0,0,0,0,0,0,0,0,0,0,0,0,0,0,0,0,0,0,0,0,0,0,0,0,0,0,0,0,0,0,0,0,0,0,0,0,0,0,0,0,0,0,0,0,0,0,0,0,0,0,0,0,0,0,0,0,0,0,0,0,0,0,0,0,0,0,0,0,0,0,0,0,0,0,0,0,0,0,0,0,0,0,0,0,0,0,0,0,0,0,0,0,0,0,0,0,0,0,0,0,0,0,0,0,0,0,0,0,0,0,0,0,0,0,0,0,0,0,0,0,0,0,0,0,0,0,0,0,0,0,0,0,0,0,0,0,0,0,0,0,0,0,0,0,0,0,0,0,0,0,0,0,0,0,0,0,0,0,0,0,0,0,0,0,0,0,0,0,0,0,0,0,0,0,0,0,0,0,0,
0,0,0,0,0,0,0,0,0,0,0,0,0,0,0,0,0,0,0,0,0,0,0,0,0,0,0,0,0,0,0,0,0,0,0,0,0,0,0,0,0,0,0,0,0,0,0,0,0,0,0,0,0,0,0,0,0,0,0,0,0,0,0,0,0,0,0,0,0,0,0,0,0,0,0,0,0,0,0,0,0,0,0,0,0,0,0,0,0,0,0,0,0,0,0,0,0,0,0,0,0,0,0,0,0,0,0,0,0,0,0,0,0,0,0,0,0,0,0,0,0,0,0,0,0,0,0,0,0,0,0,0,0,0,0,0,0,0,0,0,0,0,0,0,0,0,0,0,0,0,0,0,0,0,0,0,0,0,0,0,0,0,0,0,0,0,0,0,0,0,0,0,0,0,0,0,0,0,0,0,0,0,0,0,0,0,0,0,0,0,0,0,0,0,0,0,0,0,0,0,0,0,0,0,0,0,0,0,0,0,0,0,0,0,0,0,0,0,0,0,0,0,0,0,0,0,0,0,0,0,0,0,0,0,0,0,0,0,0,0,
0,0,0,0,0,0,0,0,0,0,0,0,0,0,0,0,0,0,0,0,0,0,0,0,0,0,0,0,0,0,0,0,0,0,0,0,0,0,0,0,0,0,0,0,0,0,0,0,0,0,0,0,0,0,0,0,0,0,0,0,0,0,0,0,0,0,0,0,0,0,0,0,0,0,0,0,0,0,0,0,0,0,0,0,0,0,0,0,0,0,0,0,0,0,0,0,0,0,0,0,0,0,0,0,0,0,0,0,0,0,0,0,0,0,0,0,0,0,0,0,0,0,0,0,0,0,0,0,0,0,0,0,0,0,0,0,0,0,0,0,0,0,0,0,0,0,0,0,0,0,0,0,0,0,0,0,0,0,0,0,0,0,0,0,0,0,0,0,0,0,0,0,0,0,0,0,0,0,0,0,0,0,0,0,0,0,0,0,0,0,0,0,0,0,0,0,0,0,0,0,0,0,0,0,0,0,0,0,0,0,0,0,0,0,0,0,0,0,0,0,0,0,0,0,0,0,0,0,0,0,0,0,0,0,0,0,0,0,0,0,
0,0,0,0,0,0,0,0,0,0,0,0,0,0,0,0,0,0,0,0,0,0,0,0,0,0,0,0,0,0,0,0,0,0,0,0,0,0,0,0,0,0,0,0,0,0,0,0,0,0,0,0,0,0,0,0,0,0,0,0,0,0,0,0,0,0,0,0,0,0,0,0,0,0,0,0,0,0,0,0,0,0,0,0,0,0,0,0,0,0,0,0,0,0,0,0,0,0,0,0,0,0,0,0,0,0,0,0,0,0,0,0,0,0,0,0,0,0,0,0,0,0,0,0,0,0,0,0,0,0,0,0,0,0,0,0,0,0,0,0,0,0,0,0,0,0,0,0,0,0,0,0,0,0,0,0,0,0,0,0,0,0,0,0,0,0,0,0,0,0,0,0,0,0,0,0,0,0,0,0,0,0,0,0,0,0,0,0,0,0,0,0,0,0,0,0,0,0,0,0,0,0,0,0,0,0,0,0,0,0,0,0,0,0,0,0,0,0,0,0,0,0,0,0,0,0,0,0,0,0,0,0,0,0,0,0,0,0,0,0,
0,0,0,0,0,0,0,0,0,0,0,0,0,0,0,0,0,0,0,0,0,0,0,0,0,0,0,0,0,0,0,0,0,0,0,0,0,0,0,0,0,0,0,0,0,0,0,0,0,0,0,0,0,0,0,0,0,0,0,0,0,0,0,0,0,0,0,0,0,0,0,0,0,0,0,0,0,0,0,0,0,0,0,0,0,0,0,0,0,0,0,0,0,0,0,0,0,0,0,0,0,0,0,0,0,0,0,0,0,0,0,0,0,0,0,0,0,0,0,0,0,0,0,0,0,0,0,0,0,0,0,0,0,0,0,0,0,0,0,0,0,0,0,0,0,0,0,0,0,0,0,0,0,0,0,0,0,0,0,0,0,0,0,0,0,0,0,0,0,0,0,0,0,0,0,0,0,0,0,0,0,0,0,0,0,0,0,0,0,0,0,0,0,0,0,0,0,0,0,0,0,0,0,0,0,0,0,0,0,0,0,0,0,0,0,0,0,0,0,0,0,0,0,0,0,0,0,0,0,0,0,0,0,0,0,0,0,0,0,0,
0,0,0,0,0,0,0,0,0,0,0,0,0,0,0,0,0,0,0,0,0,0,0,0,0,0,0,0,0,0,0,0,0,0,0,0,0,0,0,0,0,0,0,0,0,0,0,0,0,0,0,0,0,0,0,0,0,0,0,0,0,0,0,0,0,0,0,0,0,0,0,0,0,0,0,0,0,0,0,0,0,0,0,0,0,0,0,0,0,0,0,0,0,0,0,0,0,0,0,0,0,0,0,0,0,0,0,0,0,0,0,0,0,0,0,0,0,0,0,0,0,0,0,0,0,0,0,0,0,0,0,0,0,0,0,0,0,0,0,0,0,0,0,0,0,0,0,0,0,0,0,0,0,0,0,0,0,0,0,0,0,0,0,0,0,0,0,0,0,0,0,0,0,0,0,0,0,0,0,0,0,0,0,0,0,0,0,0,0,0,0,0,0,0,0,0,0,0,0,0,0,0,0,0,0,0,0,0,0,0,0,0,0,0,0,0,0,0,0,0,0,0,0,0,0,0,0,0,0,0,0,0,0,0,0,0,0,0,0,0,
0,0,0,0,0,0,0,0,0,0,0,0,0,0,0,0,0,0,0,0,0,0,0,0,0,0,0,0,0,0,0,0,0,0,0,0,0,0,0,0,0,0,0,0,0,0,0,0,0,0,0,0,0,0,0,0,0,0,0,0,0,0,0,0,0,0,0,0,0,0,0,0,0,0,0,0,0,0,0,0,0,0,0,0,0,0,0,0,0,0,0,0,0,0,0,0,0,0,0,0,0,0,0,0,0,0,0,0,0,0,0,0,0,0,0,0,0,0,0,0,0,0,0,0,0,0,0,0,0,0,0,0,0,0,0,0,0,0,0,0,0,0,0,0,0,0,0,0,0,0,0,0,0,0,0,0,0,0,0,0,0,0,0,0,0,0,0,0,0,0,0,0,0,0,0,0,0,0,0,0,0,0,0,0,0,0,0,0,0,0,0,0,0,0,0,0,0,0,0,0,0,0,0,0,0,0,0,0,0,0,0,0,0,0,0,0,0,0,0,0,0,0,0,0,0,0,0,0,0,0,0,0,0,0,0,0,0,0,0,0,
0,0,0,0,0,0,0,0,0,0,0,0,0,0,0,0,0,0,0,0,0,0,0,0,0,0,0,0,0,0,0,0,0,0,0,0,0,0,0,0,0,0,0,0,0,0,0,0,0,0,0,0,0,0,0,0,0,0,0,0,0,0,0,0,0,0,0,0,0,0,0,0,0,0,0,0,0,0,0,0,0,0,0,0,0,0,0,0,0,0,0,0,0,0,0,0,0,0,0,0,0,0,0,0,0,0,0,0,0,0,0,0,0,0,0,0,0,0,0,0,0,0,0,0,0,0,0,0,0,0,0,0,0,0,0,0,0,0,0,0,0,0,0,0,0,0,0,0,0,0,0,0,0,0,0,0,0,0,0,0,0,0,0,0,0,0,0,0,0,0,0,0,0,0,0,0,0,0,0,0,0,0,0,0,0,0,0,0,0,0,0,0,0,0,0,0,0,0,0,0,0,0,0,0,0,0,0,0,0,0,0,0,0,0,0,0,0,0,0,0,0,0,0,0,0,0,0,0,0,0,0,0,0,0,0,0,0,0,0,0,
0,0,0,0,0,0,0,0,0,0,0,0,0,0,0,0,0,0,0,0,0,0,0,0,0,0,0,0,0,0,0,0,0,0,0,0,0,0,0,0,0,0,0,0,0,0,0,0,0,0,0,0,0,0,0,0,0,0,0,0,0,0,0,0,0,0,0,0,0,0,0,0,0,0,0,0,0,0,0,0,0,0,0,0,0,0,0,0,0,0,0,0,0,0,0,0,0,0,0,0,0,0,0,0,0,0,0,0,0,0,0,0,0,0,0,0,0,0,0,0,0,0,0,0,0,0,0,0,0,0,0,0,0,0,0,0,0,0,0,0,0,0,0,0,0,0,0,0,0,0,0,0,0,0,0,0,0,0,0,0,0,0,0,0,0,0,0,0,0,0,0,0,0,0,0,0,0,0,0,0,0,0,0,0,0,0,0,0,0,0,0,0,0,0,0,0,0,0,0,0,0,0,0,0,0,0,0,0,0,0,0,0,0,0,0,0,0,0,0,0,0,0,0,0,0,0,0,0,0,0,0,0,0,0,0,0,0,0,0,0,
0,0,0,0,0,0,0,0,0,0,0,0,0,0,0,0,0,0,0,0,0,0,0,0,0,0,0,0,0,0,0,0,0,0,0,0,0,0,0,0,0,0,0,0,0,0,0,0,0,0,0,0,0,0,0,0,0,0,0,0,0,0,0,0,0,0,0,0,0,0,0,0,0,0,0,0,15,16,16,16,16,16,16,16,16,16,16,17,0,0,0,0,0,0,0,0,0,0,0,0,0,0,0,0,0,0,0,0,0,0,0,0,0,0,0,0,0,0,0,0,0,0,0,0,0,0,0,0,0,0,0,0,0,0,0,0,0,0,0,0,0,0,0,0,0,0,0,0,0,0,0,0,0,0,0,0,0,0,0,0,0,0,0,0,0,0,0,0,0,0,0,0,0,0,0,0,0,0,0,0,0,0,0,0,0,0,0,0,0,0,0,0,0,0,0,0,0,0,0,0,0,0,0,0,0,0,0,0,0,0,0,0,0,0,0,0,0,0,0,0,0,0,0,0,0,0,0,0,0,0,0,0,0,0,0,0,0,0,0,0,
0,0,0,0,0,0,0,0,0,0,0,0,0,0,0,0,0,0,0,0,0,0,0,0,0,0,0,0,0,0,0,0,0,0,0,0,0,0,0,0,0,0,0,0,0,0,0,0,0,0,0,0,0,0,0,0,0,0,0,0,0,0,0,0,0,0,0,0,0,0,0,0,0,0,0,0,60,61,61,61,61,61,61,61,61,61,61,62,0,0,0,0,0,0,0,0,0,0,0,0,0,0,0,0,0,0,0,0,0,0,0,0,0,0,0,0,0,0,0,0,0,0,0,0,0,0,0,0,0,0,0,0,0,0,0,0,0,0,0,0,0,0,0,0,0,0,0,0,0,0,0,0,0,0,0,0,0,0,0,0,0,0,0,0,0,0,0,0,0,0,0,0,0,0,0,0,0,0,0,0,0,0,0,0,0,0,0,0,0,0,0,0,0,0,0,0,0,0,0,0,0,0,0,0,0,0,0,0,0,0,0,0,0,0,0,0,0,0,0,0,0,0,0,0,0,0,0,0,0,0,0,0,0,0,0,0,0,0,0,0,
0,0,0,0,0,0,0,0,0,0,0,0,0,0,0,0,0,0,0,0,0,0,0,0,0,0,0,0,0,0,0,0,0,0,0,0,0,0,0,0,0,0,0,0,0,0,0,0,0,0,0,0,0,0,0,0,0,0,0,0,0,0,0,0,0,0,0,0,0,0,0,0,0,0,0,0,60,61,61,61,61,61,61,61,61,61,61,62,0,15,16,16,16,16,16,16,16,16,16,16,16,16,16,16,16,16,16,16,17,0,0,0,0,0,0,0,0,0,0,0,0,0,0,0,0,0,0,0,0,0,0,0,0,0,0,0,0,0,0,0,0,0,0,0,0,0,0,0,0,0,0,0,0,0,0,0,0,0,0,0,0,0,0,0,0,0,0,0,0,0,0,0,0,0,0,0,0,0,0,0,0,0,0,0,0,0,0,0,0,0,0,0,0,0,0,0,0,0,0,0,0,0,0,0,0,0,0,0,0,0,0,0,0,0,0,0,0,0,0,0,0,0,0,0,0,0,0,0,0,0,0,0,0,0,0,0,0,0,0,0,
0,0,0,0,0,0,0,0,0,0,0,0,0,0,0,0,0,0,0,0,0,0,0,0,0,0,0,0,0,0,0,0,0,0,0,0,0,0,0,0,0,0,0,0,0,0,0,0,0,0,0,0,0,0,0,0,0,0,0,0,0,0,0,0,0,0,0,0,0,0,0,0,0,0,0,0,60,61,61,61,61,61,61,61,61,61,61,62,0,60,61,61,61,61,61,61,61,61,61,61,61,61,61,61,61,61,61,61,62,0,0,0,0,0,0,0,0,0,0,0,0,0,0,0,0,0,0,0,0,0,0,0,0,0,0,0,0,0,0,0,0,0,0,0,0,0,0,0,0,0,0,0,0,0,0,0,0,0,0,0,0,0,0,0,0,0,0,0,0,0,0,0,0,0,0,0,0,0,0,0,0,0,0,0,0,0,0,0,0,0,0,0,0,0,0,0,0,0,0,0,0,0,0,0,0,0,0,0,0,0,0,0,0,0,0,0,0,0,0,0,0,0,0,0,0,0,0,0,0,0,0,0,0,0,0,0,0,0,0,0,
0,0,0,0,0,0,0,0,0,0,0,0,0,0,0,0,0,0,0,0,0,0,0,0,0,0,0,0,0,0,0,0,0,0,0,0,0,0,0,0,0,0,0,0,0,0,0,0,0,0,0,0,0,0,0,0,0,0,0,0,0,0,0,0,0,0,0,0,0,0,0,0,0,0,0,0,60,61,61,61,61,61,61,61,61,61,61,62,0,60,61,61,61,61,61,61,61,61,61,61,61,61,61,61,61,61,61,61,62,0,0,0,0,0,0,0,0,0,0,0,0,0,0,0,0,0,0,0,0,0,0,0,0,0,0,0,0,0,0,0,0,0,0,0,0,0,0,0,0,0,0,0,0,0,0,0,0,0,0,0,0,0,0,0,0,0,0,0,0,0,0,0,0,0,0,0,0,0,0,0,0,0,0,0,0,0,0,0,0,0,0,0,0,0,0,0,0,0,0,0,0,0,0,0,0,0,0,0,0,0,0,0,0,0,0,0,0,0,0,0,0,0,0,0,0,0,0,0,0,0,0,0,0,0,0,0,0,0,0,0,
0,0,0,0,0,0,0,0,0,0,0,0,0,0,0,0,0,0,0,0,0,0,0,0,0,0,0,0,0,0,0,0,0,0,0,0,0,0,0,0,0,0,0,0,0,0,0,0,0,0,0,0,0,0,0,0,0,0,0,0,0,0,0,0,0,0,0,0,0,0,0,0,0,0,0,0,105,106,106,106,106,106,106,106,106,106,106,107,0,60,61,61,61,61,61,61,61,61,61,61,61,61,61,61,61,61,61,61,62,0,0,0,0,0,0,0,0,0,0,0,0,0,0,0,0,0,0,0,0,0,0,0,0,0,0,0,0,0,0,0,0,0,0,0,0,0,0,0,0,0,0,0,0,0,0,0,0,0,0,0,0,0,0,0,0,0,0,0,0,0,0,0,0,0,0,0,0,0,0,0,0,0,0,0,0,0,0,0,0,0,0,0,0,0,0,0,0,0,0,0,0,0,0,0,0,0,0,0,0,0,0,0,0,0,0,0,0,0,0,0,0,0,0,0,0,0,0,0,0,0,0,0,0,0,0,0,0,0,0,0,
0,0,0,0,0,0,0,0,0,0,0,0,0,0,0,0,0,0,0,0,0,0,0,0,0,0,0,0,0,0,0,0,0,0,0,0,0,0,0,0,0,0,0,0,0,0,0,0,0,0,0,0,0,0,0,0,0,0,0,0,0,0,0,0,0,0,0,0,0,0,0,0,0,0,0,0,0,0,0,0,0,0,0,0,0,0,0,0,0,60,61,61,61,61,61,61,61,61,61,61,61,61,61,61,61,61,61,61,62,0,0,0,0,0,0,0,0,0,0,0,0,0,0,0,0,0,0,0,0,0,0,0,0,0,0,0,0,0,0,0,0,0,0,0,0,0,0,0,0,0,0,0,0,0,0,0,0,0,0,0,0,0,0,0,0,0,0,0,0,0,0,0,0,0,0,0,0,0,0,0,0,0,0,0,0,0,0,0,0,0,0,0,0,0,0,0,0,0,0,0,0,0,0,0,0,0,0,0,0,0,0,0,0,0,0,0,0,0,0,0,0,0,0,0,0,0,0,0,0,0,0,0,0,0,0,0,0,0,0,0,
0,0,0,0,0,0,0,0,0,0,0,0,0,0,0,0,0,0,0,0,0,0,0,0,0,0,0,0,0,0,0,0,0,0,0,0,0,0,0,0,0,0,0,0,0,0,0,0,0,0,0,0,0,0,0,0,0,0,0,0,0,0,0,0,0,0,0,0,0,0,0,0,0,0,0,0,0,0,0,0,0,0,0,0,0,0,0,0,0,105,106,106,106,106,106,106,106,106,106,106,106,106,106,106,106,106,106,106,107,0,0,0,0,0,0,0,0,0,0,0,0,0,0,0,0,0,0,0,0,0,0,0,0,0,0,0,0,0,0,0,0,0,0,0,0,0,0,0,0,0,0,0,0,0,0,0,0,0,0,0,0,0,0,0,0,0,0,0,0,0,0,0,0,0,0,0,0,0,0,0,0,0,0,0,0,0,0,0,0,0,0,0,0,0,0,0,0,0,0,0,0,0,0,0,0,0,0,0,0,0,0,0,0,0,0,0,0,0,0,0,0,0,0,0,0,0,0,0,0,0,0,0,0,0,0,0,0,0,0,0,
0,0,0,0,0,0,0,0,0,0,0,0,0,0,0,0,0,0,0,0,0,0,0,0,0,0,0,0,0,0,0,0,0,0,0,0,0,0,0,0,0,0,0,0,0,0,0,0,0,0,0,0,0,0,0,0,0,0,0,0,0,0,0,0,0,0,0,0,0,0,0,0,0,0,0,0,0,0,0,0,0,0,0,0,0,0,0,0,0,0,0,0,0,0,0,0,0,0,0,0,0,0,0,0,0,0,0,0,0,0,0,0,0,0,0,0,0,0,0,0,0,0,0,0,0,0,0,0,0,0,0,0,0,0,0,0,0,0,0,0,0,0,0,0,0,0,0,0,0,0,0,0,0,0,0,0,0,0,0,0,0,0,0,0,0,0,0,0,0,0,0,0,0,0,0,0,0,0,0,0,0,0,0,0,0,0,0,0,0,0,0,0,0,0,0,0,0,0,0,0,0,0,0,0,0,0,0,0,0,0,0,0,0,0,0,0,0,0,0,0,0,0,0,0,0,0,0,0,0,0,0,0,0,0,0,0,0,0,0,0,
0,0,0,0,0,0,0,0,0,0,0,0,0,0,0,0,0,0,0,0,0,0,0,0,0,0,0,0,0,0,0,0,0,0,0,0,0,0,0,0,0,0,0,0,0,0,0,0,0,0,0,0,0,0,0,0,0,0,0,0,0,0,0,0,0,0,0,0,0,0,0,0,0,0,0,0,0,0,0,0,0,0,0,0,0,0,0,0,0,0,0,0,0,0,0,0,0,0,0,0,0,0,0,0,0,0,0,0,0,0,0,0,0,0,0,0,0,0,0,0,0,0,0,0,0,0,0,0,0,0,0,0,0,0,0,0,0,0,0,0,0,0,0,0,0,0,0,0,0,0,0,0,0,0,0,0,0,0,0,0,0,0,0,0,0,0,0,0,0,0,0,0,0,0,0,0,0,0,0,0,0,0,0,0,0,0,0,0,0,0,0,0,0,0,0,0,0,0,0,0,0,0,0,0,0,0,0,0,0,0,0,0,0,0,0,0,0,0,0,0,0,0,0,0,0,0,0,0,0,0,0,0,0,0,0,0,0,0,0,0,
0,0,0,0,0,0,0,0,0,0,0,0,0,0,0,0,0,0,0,0,0,0,0,0,0,0,0,0,0,0,0,0,0,0,0,0,0,0,0,0,0,0,0,0,0,0,0,0,0,0,0,0,0,0,0,0,0,0,0,0,0,0,0,0,0,0,0,0,0,0,0,0,0,0,0,0,0,0,0,0,0,0,0,0,0,0,0,0,0,0,0,0,0,0,0,0,0,0,0,0,0,0,0,0,0,0,0,0,0,0,0,0,0,0,0,0,0,0,0,0,0,0,0,0,0,0,0,0,0,0,0,0,0,0,0,0,0,0,0,0,0,0,0,0,0,0,0,0,0,0,0,0,0,0,0,0,0,0,0,0,0,0,0,0,0,0,0,0,0,0,0,0,0,0,0,0,0,0,0,0,0,0,0,0,0,0,0,0,0,0,0,0,0,0,0,0,0,0,0,0,0,0,0,0,0,0,0,0,0,0,0,0,0,0,0,0,0,0,0,0,0,0,0,0,0,0,0,0,0,0,0,0,0,0,0,0,0,0,0,0,
0,0,0,0,0,0,0,0,0,0,0,0,0,0,0,0,0,0,0,0,0,0,0,0,0,0,0,0,0,0,0,0,0,0,0,0,0,0,0,0,0,0,0,0,0,0,0,0,0,0,0,0,0,0,0,0,0,0,0,0,0,0,0,0,0,0,0,0,0,0,0,0,0,0,0,0,15,16,16,16,16,16,16,16,16,16,16,17,0,0,0,0,0,0,0,0,0,0,0,0,0,0,0,0,0,0,0,0,0,0,0,0,0,0,0,0,0,0,0,0,0,0,0,0,0,0,0,0,0,0,0,0,0,0,0,0,0,0,0,0,0,0,0,0,0,0,0,0,0,0,0,0,0,0,0,0,0,0,0,0,0,0,0,0,0,0,0,0,0,0,0,0,0,0,0,0,0,0,0,0,0,0,0,0,0,0,0,0,0,0,0,0,0,0,0,0,0,0,0,0,0,0,0,0,0,0,0,0,0,0,0,0,0,0,0,0,0,0,0,0,0,0,0,0,0,0,0,0,0,0,0,0,0,0,0,0,0,0,0,0,
0,0,0,0,0,0,0,0,0,0,0,0,0,0,0,0,0,0,0,0,0,0,0,0,0,0,0,0,0,0,0,0,0,0,0,0,0,0,0,0,0,0,0,0,0,0,0,0,0,0,0,0,0,0,0,0,0,0,0,0,0,0,0,0,0,0,0,0,0,0,0,0,0,0,0,0,60,61,61,61,61,61,61,61,61,61,61,62,0,0,0,0,0,0,0,0,0,0,0,0,0,0,0,0,0,0,0,0,0,0,0,0,0,0,0,0,0,0,0,0,0,0,0,0,0,0,0,0,0,0,0,0,0,0,0,0,0,0,0,0,0,0,0,0,0,0,0,0,0,0,0,0,0,0,0,0,0,0,0,0,0,0,0,0,0,0,0,0,0,0,0,0,0,0,0,0,0,0,0,0,0,0,0,0,0,0,0,0,0,0,0,0,0,0,0,0,0,0,0,0,0,0,0,0,0,0,0,0,0,0,0,0,0,0,0,0,0,0,0,0,0,0,0,0,0,0,0,0,0,0,0,0,0,0,0,0,0,0,0,0,
0,0,0,0,0,0,0,0,0,0,0,0,0,0,0,0,0,0,0,0,0,0,0,0,0,0,0,0,0,0,0,0,0,0,0,0,0,0,0,0,0,0,0,0,0,0,0,0,0,0,0,0,0,0,0,0,0,0,0,0,0,0,0,0,0,0,0,0,0,0,0,0,0,0,0,0,60,61,61,61,61,61,61,61,61,61,61,62,0,0,0,0,0,0,0,0,0,0,0,0,0,0,0,0,0,0,0,0,0,0,0,0,0,0,0,0,0,0,0,0,0,0,0,0,0,0,0,0,0,0,0,0,0,0,0,0,0,0,0,0,0,0,0,0,0,0,0,0,0,0,0,0,0,0,0,0,0,0,0,0,0,0,0,0,0,0,0,0,0,0,0,0,0,0,0,0,0,0,0,0,0,0,0,0,0,0,0,0,0,0,0,0,0,0,0,0,0,0,0,0,0,0,0,0,0,0,0,0,0,0,0,0,0,0,0,0,0,0,0,0,0,0,0,0,0,0,0,0,0,0,0,0,0,0,0,0,0,0,0,0,
0,0,0,0,0,0,0,0,0,0,0,0,0,0,0,0,0,0,0,0,0,0,0,0,0,0,0,0,0,0,0,0,0,0,0,0,0,0,0,0,0,0,0,0,0,0,0,0,0,0,0,0,0,0,0,0,0,0,0,0,0,0,0,0,0,0,0,0,0,0,0,0,0,0,0,0,60,61,61,61,61,61,61,61,61,61,61,66,16,16,16,16,16,16,16,16,16,16,16,17,0,0,0,15,16,16,16,16,16,17,0,0,0,0,0,0,0,0,0,0,0,0,0,0,0,0,0,0,0,0,0,0,0,0,0,0,0,0,0,0,0,0,0,0,0,0,0,0,0,0,0,0,0,0,0,0,0,0,0,0,0,0,0,0,0,0,0,0,0,0,0,0,0,0,0,0,0,0,0,0,0,0,0,0,0,0,0,0,0,0,0,0,0,0,0,0,0,0,0,0,0,0,0,0,0,0,0,0,0,0,0,0,0,0,0,0,0,0,0,0,0,0,0,0,0,0,0,0,0,0,0,0,0,0,0,0,0,0,0,0,
0,0,0,0,0,0,0,0,0,0,0,0,0,0,0,0,0,0,0,0,0,0,0,0,0,0,0,0,0,0,0,0,0,0,0,0,0,0,0,0,0,0,0,0,0,0,0,0,0,0,0,0,0,0,0,0,0,0,0,0,0,0,0,0,0,0,0,0,0,0,0,0,0,0,0,0,60,61,61,61,61,61,61,61,61,61,61,61,61,61,61,61,61,61,61,61,61,61,61,62,0,0,0,60,61,61,61,61,61,62,0,0,0,0,0,0,0,0,0,0,0,0,0,0,0,0,0,0,0,0,0,0,0,0,0,0,0,0,0,0,0,0,0,0,0,0,0,0,0,0,0,0,0,0,0,0,0,0,0,0,0,0,0,0,0,0,0,0,0,0,0,0,0,0,0,0,0,0,0,0,0,0,0,0,0,0,0,0,0,0,0,0,0,0,0,0,0,0,0,0,0,0,0,0,0,0,0,0,0,0,0,0,0,0,0,0,0,0,0,0,0,0,0,0,0,0,0,0,0,0,0,0,0,0,0,0,0,0,0,0,
0,0,0,0,0,0,0,0,0,0,0,0,0,0,0,0,0,0,0,0,0,0,0,0,0,0,0,0,0,0,0,0,0,0,0,0,0,0,0,0,0,0,0,0,0,0,0,0,0,0,0,0,0,0,0,0,0,0,0,0,0,0,0,0,0,0,0,0,0,0,0,0,0,0,0,0,105,106,106,106,106,106,106,106,106,106,106,106,22,61,61,61,61,61,61,61,61,61,61,62,0,0,0,60,61,61,61,61,61,62,0,0,0,0,0,0,0,0,0,0,0,0,0,0,0,0,0,0,0,0,0,0,0,0,0,0,0,0,0,0,0,0,0,0,0,0,0,0,0,0,0,0,0,0,0,0,0,0,0,0,0,0,0,0,0,0,0,0,0,0,0,0,0,0,0,0,0,0,0,0,0,0,0,0,0,0,0,0,0,0,0,0,0,0,0,0,0,0,0,0,0,0,0,0,0,0,0,0,0,0,0,0,0,0,0,0,0,0,0,0,0,0,0,0,0,0,0,0,0,0,0,0,0,0,0,0,0,0,0,0,
0,0,0,0,0,0,0,0,0,0,0,0,0,0,0,0,0,0,0,0,0,0,0,0,0,0,0,0,0,0,0,0,0,0,0,0,0,0,0,0,0,0,0,0,0,0,0,0,0,0,0,0,0,0,0,0,0,0,0,0,0,0,0,0,0,0,0,0,0,0,0,0,0,0,0,0,0,0,0,0,0,0,0,0,0,0,0,0,60,61,61,61,61,61,61,61,61,61,61,62,0,0,0,60,61,61,61,61,61,62,0,0,0,0,0,0,0,0,0,0,0,0,0,0,0,0,0,0,0,0,0,0,0,0,0,0,0,0,0,0,0,0,0,0,0,0,0,0,0,0,0,0,0,0,0,0,0,0,0,0,0,0,0,0,0,0,0,0,0,0,0,0,0,0,0,0,0,0,0,0,0,0,0,0,0,0,0,0,0,0,0,0,0,0,0,0,0,0,0,0,0,0,0,0,0,0,0,0,0,0,0,0,0,0,0,0,0,0,0,0,0,0,0,0,0,0,0,0,0,0,0,0,0,0,0,0,0,0,0,0,
0,0,0,0,0,0,0,0,0,0,0,0,0,0,0,0,0,0,0,0,0,0,0,0,0,0,0,0,0,0,0,0,0,0,0,0,0,0,0,0,0,0,0,0,0,0,0,0,0,0,0,0,0,0,0,0,0,0,0,0,0,0,0,0,0,0,0,0,0,0,0,0,0,0,0,0,0,0,0,0,0,0,0,0,0,0,0,0,60,61,61,61,61,61,61,61,61,61,61,62,0,0,0,60,61,61,61,61,61,62,0,0,0,0,0,0,0,0,0,0,0,0,0,0,0,0,0,0,0,0,0,0,0,0,0,0,0,0,0,0,0,0,0,0,0,0,0,0,0,0,0,0,0,0,0,0,0,0,0,0,0,0,0,0,0,0,0,0,0,0,0,0,0,0,0,0,0,0,0,0,0,0,0,0,0,0,0,0,0,0,0,0,0,0,0,0,0,0,0,0,0,0,0,0,0,0,0,0,0,0,0,0,0,0,0,0,0,0,0,0,0,0,0,0,0,0,0,0,0,0,0,0,0,0,0,0,0,0,0,0,
0,0,0,0,0,0,0,0,0,0,0,0,0,0,0,0,0,0,0,0,0,0,0,0,0,0,0,0,0,0,0,0,0,0,0,0,0,0,0,0,0,0,0,0,0,0,0,0,0,0,0,0,0,0,0,0,0,0,0,0,0,0,0,0,0,0,0,0,0,0,0,0,0,0,0,0,0,0,0,0,0,0,0,0,0,0,0,0,105,106,106,106,106,106,106,106,106,106,106,107,0,0,0,105,106,106,106,106,106,107,0,0,0,0,0,0,0,0,0,0,0,0,0,0,0,0,0,0,0,0,0,0,0,0,0,0,0,0,0,0,0,0,0,0,0,0,0,0,0,0,0,0,0,0,0,0,0,0,0,0,0,0,0,0,0,0,0,0,0,0,0,0,0,0,0,0,0,0,0,0,0,0,0,0,0,0,0,0,0,0,0,0,0,0,0,0,0,0,0,0,0,0,0,0,0,0,0,0,0,0,0,0,0,0,0,0,0,0,0,0,0,0,0,0,0,0,0,0,0,0,0,0,0,0,0,0,0,0,0,0,
0,0,0,0,0,0,0,0,0,0,0,0,0,0,0,0,0,0,0,0,0,0,0,0,0,0,0,0,0,0,0,0,0,0,0,0,0,0,0,0,0,0,0,0,0,0,0,0,0,0,0,0,0,0,0,0,0,0,0,0,0,0,0,0,0,0,0,0,0,0,0,0,0,0,0,0,0,0,0,0,0,0,0,0,0,0,0,0,0,0,0,0,0,0,0,0,0,0,0,0,0,0,0,0,0,0,0,0,0,0,0,0,0,0,0,0,0,0,0,0,0,0,0,0,0,0,0,0,0,0,0,0,0,0,0,0,0,0,0,0,0,0,0,0,0,0,0,0,0,0,0,0,0,0,0,0,0,0,0,0,0,0,0,0,0,0,0,0,0,0,0,0,0,0,0,0,0,0,0,0,0,0,0,0,0,0,0,0,0,0,0,0,0,0,0,0,0,0,0,0,0,0,0,0,0,0,0,0,0,0,0,0,0,0,0,0,0,0,0,0,0,0,0,0,0,0,0,0,0,0,0,0,0,0,0,0,0,0,0,0,
0,0,0,0,0,0,0,0,0,0,0,0,0,0,0,0,0,0,0,0,0,0,0,0,0,0,0,0,0,0,0,0,0,0,0,0,0,0,0,0,0,0,0,0,0,0,0,0,0,0,0,0,0,0,0,0,0,0,0,0,0,0,0,0,0,0,0,0,0,0,0,0,0,0,0,0,0,0,0,0,0,0,0,0,0,0,0,0,0,0,0,0,0,0,0,0,0,0,0,0,0,0,0,0,0,0,0,0,0,0,0,0,0,0,0,0,0,0,0,0,0,0,0,0,0,0,0,0,0,0,0,0,0,0,0,0,0,0,0,0,0,0,0,0,0,0,0,0,0,0,0,0,0,0,0,0,0,0,0,0,0,0,0,0,0,0,0,0,0,0,0,0,0,0,0,0,0,0,0,0,0,0,0,0,0,0,0,0,0,0,0,0,0,0,0,0,0,0,0,0,0,0,0,0,0,0,0,0,0,0,0,0,0,0,0,0,0,0,0,0,0,0,0,0,0,0,0,0,0,0,0,0,0,0,0,0,0,0,0,0,
0,0,0,0,0,0,0,0,0,0,0,0,0,0,0,0,0,0,0,0,0,0,0,0,0,0,0,0,0,0,0,0,0,0,0,0,0,0,0,0,0,0,0,0,0,0,0,0,0,0,0,0,0,0,0,0,0,0,0,0,0,0,0,0,0,0,0,0,0,0,0,0,0,0,0,0,0,0,0,0,0,0,0,0,0,0,0,0,0,0,0,0,0,0,0,0,0,0,0,0,0,0,0,0,0,0,0,0,0,0,0,0,0,0,0,0,0,0,0,0,0,0,0,0,0,0,0,0,0,0,0,0,0,0,0,0,0,0,0,0,0,0,0,0,0,0,0,0,0,0,0,0,0,0,0,0,0,0,0,0,0,0,0,0,0,0,0,0,0,0,0,0,0,0,0,0,0,0,0,0,0,0,0,0,0,0,0,0,0,0,0,0,0,0,0,0,0,0,0,0,0,0,0,0,0,0,0,0,0,0,0,0,0,0,0,0,0,0,0,0,0,0,0,0,0,0,0,0,0,0,0,0,0,0,0,0,0,0,0,0,
0,0,0,0,0,0,0,0,0,0,0,0,0,0,0,0,0,0,0,0,0,0,0,0,0,0,0,0,0,0,0,0,0,0,0,0,0,0,0,0,0,0,0,0,0,0,0,0,0,0,0,0,0,0,0,0,0,0,0,0,0,0,0,0,0,0,0,0,0,0,0,0,0,0,0,0,0,0,0,0,0,0,0,0,0,0,0,0,0,0,0,0,0,0,0,0,0,0,0,0,0,0,0,0,0,0,0,0,0,0,0,0,0,0,0,0,0,0,0,0,0,0,0,0,0,0,0,0,0,0,0,0,0,0,0,0,0,0,0,0,0,0,0,0,0,0,0,0,0,0,0,0,0,0,0,0,0,0,0,0,0,0,0,0,0,0,0,0,0,0,0,15,16,16,16,16,16,16,16,16,16,16,16,16,16,16,16,16,16,16,16,16,16,16,16,16,16,16,17,0,0,0,0,0,0,0,0,0,0,0,0,0,0,0,0,0,0,0,0,0,0,0,0,0,0,0,0,0,0,0,0,0,0,0,0,0,0,0,0,0,
0,0,0,0,0,0,0,0,0,0,0,0,0,0,0,0,0,0,0,0,0,0,0,0,0,0,0,0,0,0,0,0,0,0,0,0,0,0,0,0,0,0,0,0,0,0,0,0,0,0,0,0,0,0,0,0,0,0,0,0,0,0,0,0,0,0,0,0,0,0,0,0,0,0,0,0,0,0,0,0,0,0,0,0,0,0,0,0,0,0,0,0,0,0,0,0,0,0,0,0,0,0,0,0,0,0,0,0,0,0,0,0,0,0,0,0,0,0,0,0,0,0,0,0,0,0,0,0,0,0,0,0,0,0,0,0,0,0,0,0,0,0,0,0,0,0,0,0,0,0,0,0,0,0,0,0,0,0,0,0,0,0,0,0,0,0,0,0,0,0,0,60,61,61,61,61,61,61,61,61,61,61,61,61,61,61,61,61,61,61,61,61,61,61,61,61,61,61,62,0,0,0,0,0,0,0,0,0,0,0,0,0,0,0,0,0,0,0,0,0,0,0,0,0,0,0,0,0,0,0,0,0,0,0,0,0,0,0,0,0,
0,0,0,0,0,0,0,0,0,0,0,0,0,0,0,0,0,0,0,0,0,0,0,0,0,0,0,0,0,0,0,0,0,0,0,0,0,0,0,0,0,0,0,0,0,0,0,0,0,0,0,0,0,0,0,0,0,0,0,0,0,0,0,0,0,0,0,0,0,0,0,0,0,0,0,0,0,0,0,0,0,0,0,0,0,0,0,0,0,0,0,0,0,0,0,0,0,0,0,0,0,0,0,0,0,0,0,0,0,0,0,0,0,0,0,0,0,0,0,0,0,0,0,0,0,0,0,0,0,0,0,0,0,0,0,0,0,0,0,0,0,0,0,0,0,0,0,0,0,0,0,0,0,0,0,0,0,0,0,0,0,0,0,0,0,0,0,0,0,0,0,60,61,61,61,61,61,61,61,61,61,61,61,61,61,61,61,61,61,61,61,61,61,61,61,61,61,61,62,0,0,0,0,0,0,0,0,0,0,0,0,0,0,0,0,0,0,0,0,0,0,0,0,0,0,0,0,0,0,0,0,0,0,0,0,0,0,0,0,0,
0,0,0,0,0,0,0,0,0,0,0,0,0,0,0,0,0,0,0,0,0,0,0,0,0,0,0,0,0,0,0,0,0,0,0,0,0,0,0,0,0,0,0,0,0,0,0,0,0,0,0,0,0,0,0,0,0,0,0,0,0,0,0,0,0,0,0,0,0,0,0,0,0,0,0,0,0,0,0,0,0,0,0,0,0,0,0,0,0,0,0,0,0,0,0,0,0,0,0,0,0,0,0,0,0,0,0,0,0,0,0,0,0,0,0,0,0,0,0,0,0,0,0,0,0,0,0,0,0,0,0,0,0,0,0,0,0,0,0,0,0,0,0,0,0,0,0,0,0,0,0,0,0,0,0,0,0,0,0,0,0,0,0,0,0,0,0,0,0,0,0,60,61,61,61,61,61,61,61,61,61,61,61,61,61,61,61,61,61,61,61,61,61,61,61,61,61,61,62,0,0,0,0,0,0,0,0,0,0,0,0,0,0,0,0,0,0,0,0,0,0,0,0,0,0,0,0,0,0,0,0,0,0,0,0,0,0,0,0,0,
0,0,0,0,0,0,0,0,0,0,0,0,0,0,0,0,0,0,0,0,0,0,0,0,0,0,0,0,0,0,0,0,0,0,0,0,0,0,0,0,0,0,0,0,0,0,0,0,0,0,0,0,0,0,0,0,0,0,0,0,0,0,0,0,0,0,0,0,0,0,0,0,0,0,0,0,0,0,0,0,0,0,0,0,0,0,0,0,0,0,0,0,0,0,0,0,0,0,0,0,0,0,0,0,0,0,0,0,0,0,0,0,0,0,0,0,0,0,0,0,0,0,0,0,0,0,0,0,0,0,0,0,0,0,0,0,0,0,0,0,0,0,0,0,0,0,0,0,0,0,0,0,0,0,0,0,0,0,0,0,0,0,0,0,0,0,0,0,0,0,0,60,61,61,61,61,61,61,61,61,61,61,61,61,61,61,61,61,61,61,61,61,61,61,61,61,61,61,62,0,0,0,0,0,0,0,0,0,0,0,0,0,0,0,0,0,0,0,0,0,0,0,0,0,0,0,0,0,0,0,0,0,0,0,0,0,0,0,0,0,
0,0,0,0,0,0,0,0,0,0,0,0,0,0,0,0,0,0,0,0,0,0,0,0,0,0,0,0,0,0,0,0,0,0,0,0,0,0,0,0,0,0,0,0,0,0,0,0,0,0,0,0,0,0,0,0,0,0,0,0,0,0,0,0,0,0,0,0,0,0,0,0,0,0,0,0,15,16,16,16,16,16,16,16,16,16,16,16,16,16,16,16,16,16,16,16,16,17,0,0,0,0,0,0,0,0,0,0,0,0,0,0,0,0,0,0,0,0,0,0,0,0,0,0,0,0,0,0,0,0,0,0,0,0,0,0,0,0,0,0,0,0,0,0,0,0,0,0,0,0,0,0,0,0,0,0,0,0,0,0,0,0,0,0,0,0,0,0,0,0,0,105,106,106,106,106,106,106,106,106,106,106,106,106,106,106,106,106,106,106,106,106,106,106,106,106,106,106,107,0,0,0,0,0,0,0,0,0,0,0,0,0,0,0,0,0,0,0,0,0,0,0,0,0,0,0,0,0,0,0,0,0,0,0,0,0,0,0,0,0,
0,0,0,0,0,0,0,0,0,0,0,0,0,0,0,0,0,0,0,0,0,0,0,0,0,0,0,0,0,0,0,0,0,0,0,0,0,0,0,0,0,0,0,0,0,0,0,0,0,0,0,0,0,0,0,0,0,0,0,0,0,0,0,0,0,0,0,0,0,0,0,0,0,0,0,0,60,61,61,61,61,61,61,61,61,61,61,61,61,61,61,61,61,61,61,61,61,62,0,0,0,0,0,0,0,0,0,0,0,0,0,0,0,0,0,0,0,0,0,0,0,0,0,0,0,0,0,0,0,0,0,0,0,0,0,0,0,0,0,0,0,0,0,0,0,0,0,0,0,0,0,0,0,0,0,0,0,0,0,0,0,0,0,0,0,0,0,0,0,0,0,0,0,0,0,0,0,0,0,0,0,0,0,0,0,0,0,0,0,0,0,0,0,0,0,0,0,0,0,0,0,0,0,0,0,0,0,0,0,0,0,0,0,0,0,0,0,0,0,0,0,0,0,0,0,0,0,0,0,0,0,0,0,0,0,0,0,0,0,0,
0,0,0,0,0,0,0,0,0,0,0,0,0,0,0,0,0,0,0,0,0,0,0,0,0,0,0,0,0,0,0,0,0,0,0,0,0,0,0,0,0,0,0,0,0,0,0,0,0,0,0,0,0,0,0,0,0,0,0,0,0,0,0,0,0,0,0,0,0,0,0,0,0,0,0,0,60,61,61,61,61,61,61,61,61,61,61,61,61,61,61,61,61,61,61,61,61,62,0,0,0,0,0,0,0,0,0,0,0,0,0,0,0,0,0,0,0,0,0,0,0,0,0,0,0,0,0,0,0,0,0,0,0,0,0,0,0,0,0,0,0,0,0,0,0,0,0,0,0,0,0,0,0,0,0,0,0,0,0,0,0,0,0,0,0,0,0,0,0,0,0,0,0,0,0,0,0,0,0,0,0,0,0,0,0,0,0,0,0,0,0,0,0,0,0,0,0,0,0,0,0,0,0,0,0,0,0,0,0,0,0,0,0,0,0,0,0,0,0,0,0,0,0,0,0,0,0,0,0,0,0,0,0,0,0,0,0,0,0,0,
0,0,0,0,0,0,0,0,0,0,0,0,0,0,0,0,0,0,0,0,0,0,0,0,0,0,0,0,0,0,0,0,0,0,0,0,0,0,0,0,0,0,0,0,0,0,0,0,0,0,0,0,0,0,0,0,0,0,0,0,0,0,0,0,0,0,0,0,0,0,0,0,0,0,0,0,60,61,61,61,61,61,61,61,61,61,61,61,61,61,61,61,61,61,61,61,61,62,0,0,0,0,0,0,0,0,0,0,0,0,0,0,0,0,0,0,0,0,0,0,0,0,0,0,0,0,0,0,0,0,0,0,0,0,0,0,0,0,0,0,0,0,0,0,0,0,0,0,0,0,0,0,0,0,0,0,0,0,0,0,0,0,0,0,0,0,0,0,0,0,0,0,0,0,0,0,0,0,0,0,0,0,0,0,0,0,0,0,0,0,0,0,0,0,0,0,0,0,0,0,0,0,0,0,0,0,0,0,0,0,0,0,0,0,0,0,0,0,0,0,0,0,0,0,0,0,0,0,0,0,0,0,0,0,0,0,0,0,0,0,
0,0,0,0,0,0,0,0,0,0,0,0,0,0,0,0,0,0,0,0,0,0,0,0,0,0,0,0,0,0,0,0,0,0,0,0,0,0,0,0,0,0,0,0,0,0,0,0,0,0,0,0,0,0,0,0,0,0,0,0,0,0,0,0,0,0,0,0,0,0,0,0,0,0,0,0,105,106,106,106,106,106,106,106,106,106,106,106,106,106,106,106,106,106,106,106,106,107,0,0,0,0,0,0,0,0,0,0,0,0,0,0,0,0,0,0,0,0,0,0,0,0,0,0,0,0,0,0,0,0,0,0,0,0,0,0,0,0,0,0,0,0,0,0,0,0,0,0,0,0,0,0,0,0,0,0,0,0,0,0,0,0,0,0,0,0,0,0,0,0,0,0,0,0,0,0,0,0,0,0,0,0,0,0,0,0,0,0,0,0,0,0,0,0,0,0,0,0,0,0,0,0,0,0,0,0,0,0,0,0,0,0,0,0,0,0,0,0,0,0,0,0,0,0,0,0,0,0,0,0,0,0,0,0,0,0,0,0,0,0,
0,0,0,0,0,0,0,0,0,0,0,0,0,0,0,0,0,0,0,0,0,0,0,0,0,0,0,0,0,0,0,0,0,0,0,0,0,0,0,0,0,0,0,0,0,0,0,0,0,0,0,0,0,0,0,0,0,0,0,0,0,0,0,0,0,0,0,0,0,0,0,0,0,0,0,0,0,0,0,0,0,0,0,0,0,0,0,0,0,0,0,0,0,0,0,0,0,0,0,0,0,0,0,0,0,0,0,0,0,0,0,0,0,0,0,0,0,0,0,0,0,0,0,0,0,0,0,0,0,0,0,0,0,0,0,0,0,0,0,0,0,0,0,0,0,0,0,0,0,0,0,0,0,0,0,0,0,0,0,0,0,0,0,0,0,0,0,0,0,0,0,0,0,0,0,0,0,0,0,0,0,0,0,0,0,0,0,0,0,0,0,0,0,0,0,0,0,0,0,0,0,0,0,0,0,0,0,0,0,0,0,0,0,0,0,0,0,0,0,0,0,0,0,0,0,0,0,0,0,0,0,0,0,0,0,0,0,0,0,0,
0,0,0,0,0,0,0,0,0,0,0,0,0,0,0,0,0,0,0,0,0,0,0,0,0,0,0,0,0,0,0,0,0,0,0,0,0,0,0,0,0,0,0,0,0,0,0,0,0,0,0,0,0,0,0,0,0,0,0,0,0,0,0,15,16,16,16,16,16,16,16,16,16,16,17,0,0,0,0,0,0,0,0,0,0,0,0,0,0,0,0,0,0,0,0,0,0,0,0,0,0,0,0,0,0,0,0,0,0,0,0,0,0,0,0,0,0,0,0,0,0,0,0,0,0,0,0,0,0,0,0,0,0,0,0,0,0,0,0,0,0,0,0,0,0,0,0,0,0,0,0,0,0,0,0,0,0,0,0,0,0,0,0,0,0,0,0,0,0,0,0,0,0,0,0,0,0,0,0,0,0,0,0,0,0,0,0,0,0,0,0,0,0,0,0,0,0,0,0,0,0,0,0,0,0,0,0,0,0,0,0,0,0,0,0,0,0,0,0,0,0,0,0,0,0,0,0,0,0,0,0,0,0,0,0,0,0,0,0,0,
0,0,0,0,0,0,0,0,0,0,0,0,0,0,0,0,0,0,0,0,0,0,0,0,0,0,0,0,0,0,0,0,0,0,0,0,0,0,0,0,0,0,0,0,0,0,0,0,0,0,0,0,0,0,0,0,0,0,0,0,0,0,0,60,61,61,61,61,61,61,61,61,61,61,62,0,0,0,0,0,0,0,0,0,0,0,0,0,0,0,0,0,0,0,0,0,0,0,0,0,0,0,0,0,0,0,0,0,0,0,0,0,0,0,0,0,0,0,0,0,0,0,0,0,0,0,0,0,0,0,0,0,0,0,0,0,0,0,0,0,0,0,0,0,0,0,0,0,0,0,0,0,0,0,0,0,0,0,0,0,0,0,0,0,0,0,0,0,0,0,0,0,0,0,0,0,0,0,0,0,0,0,0,0,0,0,0,0,0,0,0,0,0,0,0,0,0,0,0,0,0,0,0,0,0,0,0,0,0,0,0,0,0,0,0,0,0,0,0,0,0,0,0,0,0,0,0,0,0,0,0,0,0,0,0,0,0,0,0,0,
0,0,0,0,0,0,0,0,0,0,0,0,0,0,0,0,0,0,0,0,0,0,0,0,0,0,0,0,0,0,0,0,0,0,0,0,0,0,0,0,0,0,0,0,0,0,0,0,0,0,0,0,0,0,0,0,0,0,0,0,0,0,0,105,61,61,61,61,61,61,61,61,61,61,62,0,0,0,0,0,0,0,0,0,0,0,0,0,0,0,0,0,0,0,0,0,0,0,0,0,0,0,0,0,0,0,0,0,0,0,0,0,0,0,0,0,0,0,0,0,0,0,0,0,0,0,0,0,0,0,0,0,0,0,0,0,0,0,0,0,0,0,0,0,0,0,0,0,0,0,0,0,0,0,0,0,0,0,0,0,0,0,0,0,0,0,0,0,0,0,0,0,0,0,0,0,0,0,0,0,0,0,0,0,0,0,0,0,0,0,0,0,0,0,0,0,0,0,0,0,0,0,0,0,0,0,0,0,0,0,0,0,0,0,0,0,0,0,0,0,0,0,0,0,0,0,0,0,0,0,0,0,0,0,0,0,0,0,0,0,
0,0,0,0,0,0,0,0,0,0,0,0,0,0,0,0,0,0,0,0,0,0,0,0,0,0,0,0,0,0,0,0,0,0,0,0,0,0,0,0,0,0,0,0,0,0,0,0,0,0,0,0,0,0,0,0,0,0,0,0,0,0,0,60,61,61,61,61,61,61,61,61,61,61,62,0,0,0,0,0,0,0,0,0,0,0,0,0,0,0,0,0,0,0,0,0,0,0,0,0,0,0,0,0,0,0,0,0,0,0,0,0,0,0,0,0,0,0,0,0,0,0,0,0,0,0,0,0,0,0,0,0,0,0,0,0,0,0,0,0,0,0,0,0,0,0,0,0,0,0,0,0,0,0,0,0,0,0,0,0,0,0,0,0,0,0,0,0,0,0,0,0,0,0,0,0,0,0,0,0,0,0,0,0,0,0,0,0,0,0,0,0,0,0,0,0,0,0,0,0,0,0,0,0,0,0,0,0,0,0,0,0,0,0,0,0,0,0,0,0,0,0,0,0,0,0,0,0,0,0,0,0,0,0,0,0,0,0,0,0,
0,0,0,0,0,0,0,0,0,0,0,0,0,0,0,0,0,0,0,0,0,0,0,0,0,0,0,0,0,0,0,0,0,0,0,0,0,0,0,0,0,0,0,0,0,0,0,0,0,0,0,0,0,0,0,0,0,0,0,0,0,0,0,105,106,106,106,106,106,106,106,106,106,106,107,0,0,0,0,0,0,0,0,0,0,0,0,0,0,0,0,0,0,0,0,0,0,0,0,0,0,0,0,0,0,0,0,0,0,0,0,0,0,0,0,0,0,0,0,0,0,0,0,0,0,0,0,0,0,0,0,0,0,0,0,0,0,0,0,0,0,0,0,0,0,0,0,0,0,0,0,0,0,0,0,0,0,0,0,0,0,0,0,0,0,0,0,0,0,0,0,0,0,0,0,0,0,0,0,0,0,0,0,0,0,0,0,0,0,0,0,0,0,0,0,0,0,0,0,0,0,0,0,0,0,0,0,0,0,0,0,0,0,0,0,0,0,0,0,0,0,0,0,0,0,0,0,0,0,0,0,0,0,0,0,0,0,0,0,0,
0,0,0,0,0,0,0,0,0,0,0,0,0,0,0,0,0,0,0,0,0,0,0,0,0,0,0,0,0,0,0,0,0,0,0,0,0,0,0,0,0,0,0,0,0,0,0,0,0,0,0,0,0,0,0,0,0,0,0,0,0,0,0,0,0,0,0,0,0,0,0,0,0,0,0,0,0,0,0,0,0,0,0,0,0,0,0,0,0,0,0,0,0,0,0,0,0,0,0,0,0,0,0,0,0,0,0,0,0,0,0,0,0,0,0,0,0,0,0,0,0,0,0,0,0,0,0,0,0,0,0,0,0,0,0,0,0,0,0,0,0,0,0,0,0,0,0,0,0,0,0,0,0,0,0,0,0,0,0,0,0,0,0,0,0,0,0,0,0,0,0,0,0,0,0,0,0,0,0,0,0,0,0,0,0,0,0,0,0,0,0,0,0,0,0,0,0,0,0,0,0,0,0,0,0,0,0,0,0,0,0,0,0,0,0,0,0,0,0,0,0,0,0,0,0,0,0,0,0,0,0,0,0,0,0,0,0,0,0,0,
0,0,0,0,0,0,0,0,0,0,0,0,0,0,0,0,0,0,0,0,0,0,0,0,0,0,0,0,0,0,0,0,0,0,0,0,0,0,0,0,0,0,0,0,0,0,0,0,0,0,0,0,0,0,0,0,0,0,0,0,0,0,0,0,0,0,0,0,0,0,0,0,0,0,0,0,0,0,0,0,0,0,0,0,0,0,0,0,0,0,0,0,0,0,0,0,0,0,0,0,0,0,0,0,0,0,0,0,0,0,0,0,0,0,0,0,0,0,0,0,0,0,0,0,0,0,0,0,0,0,0,0,0,0,0,0,0,0,0,0,0,0,0,0,0,0,0,0,0,0,0,0,0,0,0,0,0,0,0,0,0,0,0,0,0,0,0,0,0,0,0,0,0,0,0,0,0,0,0,0,0,0,0,0,0,0,0,0,0,0,0,0,0,0,0,0,0,0,0,0,0,0,0,0,0,0,0,0,0,0,0,0,0,0,0,0,0,0,0,0,0,0,0,0,0,0,0,0,0,0,0,0,0,0,0,0,0,0,0,0,
0,0,0,0,0,0,0,0,0,0,0,0,0,0,0,0,0,0,0,0,0,0,0,0,0,0,0,0,0,0,0,0,0,0,0,0,0,0,0,0,0,0,0,0,0,0,0,0,0,0,0,0,0,0,0,0,0,0,0,0,0,0,0,0,0,0,0,0,0,0,0,0,0,0,0,0,0,0,0,0,0,0,0,0,0,0,0,0,0,0,0,0,0,0,0,0,0,0,0,0,0,0,0,0,0,0,0,0,0,0,0,0,0,0,0,0,0,0,0,0,0,0,0,0,0,0,0,0,0,0,0,0,0,0,0,0,0,0,0,0,0,0,0,0,0,0,0,0,0,0,0,0,0,0,0,0,0,0,0,0,0,0,0,0,0,0,0,0,0,0,0,0,0,0,0,0,0,0,0,0,0,0,0,0,0,0,0,0,0,0,0,0,0,0,0,0,0,0,0,0,0,0,0,0,0,0,0,0,0,0,0,0,0,0,0,0,0,0,0,0,0,0,0,0,0,0,0,0,0,0,0,0,0,0,0,0,0,0,0,0,
0,0,0,0,0,0,0,0,0,0,0,0,0,0,0,0,0,0,0,0,0,0,0,0,0,0,0,0,0,0,0,0,0,0,0,0,0,0,0,0,0,0,0,0,0,0,0,0,0,0,0,0,0,0,0,0,0,0,0,0,0,0,0,0,0,0,0,0,0,0,0,0,0,0,0,0,0,0,0,0,0,0,0,0,0,0,0,0,0,0,0,0,0,0,0,0,0,0,0,0,0,0,0,0,0,0,0,0,0,0,0,0,0,0,0,0,0,0,0,0,0,0,0,0,0,0,0,0,0,0,0,0,0,0,0,0,0,0,0,0,0,0,0,0,0,0,0,0,0,0,0,0,0,0,0,0,0,0,0,0,0,0,0,0,0,0,0,0,0,0,0,0,0,0,0,0,0,0,0,0,0,0,0,0,0,0,0,0,0,0,0,0,0,0,0,0,0,0,0,0,0,0,0,0,0,0,0,0,0,0,0,0,0,0,0,0,0,0,0,0,0,0,0,0,0,0,0,0,0,0,0,0,0,0,0,0,0,0,0,0,
0,0,0,0,0,0,0,0,0,0,0,0,0,0,0,0,0,0,0,0,0,0,0,0,0,0,0,0,0,0,0,0,0,0,0,0,0,0,0,0,0,0,0,0,0,0,0,0,0,0,0,0,0,0,0,0,0,0,0,0,0,0,0,0,0,0,0,0,0,0,0,0,0,0,0,0,0,0,0,0,0,0,0,0,0,0,0,0,0,0,0,0,0,0,0,0,0,0,0,0,0,0,0,0,0,0,0,0,0,0,0,0,0,0,0,0,0,0,0,0,0,0,0,0,0,0,0,0,0,0,0,0,0,0,0,0,0,0,0,0,0,0,0,0,0,0,0,0,0,0,0,0,0,0,0,0,0,0,0,0,0,0,0,0,0,0,0,0,0,0,0,0,0,0,0,0,0,0,0,0,0,0,0,0,0,0,0,0,0,0,0,0,0,0,0,0,0,0,0,0,0,0,0,0,0,0,0,0,0,0,0,0,0,0,0,0,0,0,0,0,0,0,0,0,0,0,0,0,0,0,0,0,0,0,0,0,0,0,0,0,
0,0,0,0,0,0,0,0,0,0,0,0,0,0,0,0,0,0,0,0,0,0,0,0,0,0,0,0,0,0,0,0,0,0,0,0,0,0,0,0,0,0,0,0,0,0,0,0,0,0,0,0,0,0,0,0,0,0,0,0,0,0,0,0,0,0,0,0,0,0,0,0,0,0,0,0,0,0,0,0,0,0,0,0,0,0,0,0,0,0,0,0,0,0,0,0,0,0,0,0,0,0,0,0,0,0,0,0,0,0,0,0,0,0,0,0,0,0,0,0,0,0,0,0,0,0,0,0,0,0,0,0,0,0,0,0,0,0,0,0,0,0,0,0,0,0,0,0,0,0,0,0,0,0,0,0,0,0,0,0,0,0,0,0,0,0,0,0,0,0,0,0,0,0,0,0,0,0,0,0,0,0,0,0,0,0,0,0,0,0,0,0,0,0,0,0,0,0,0,0,0,0,0,0,0,0,0,0,0,0,0,0,0,0,0,0,0,0,0,0,0,0,0,0,0,0,0,0,0,0,0,0,0,0,0,0,0,0,0,0,
0,0,0,0,0,0,0,0,0,0,0,0,0,0,0,0,0,0,0,0,0,0,0,0,0,0,0,0,0,0,0,0,0,0,0,0,0,0,0,0,0,0,0,0,0,0,0,0,0,0,0,0,0,0,0,0,0,0,0,0,0,0,0,0,0,0,0,0,0,0,0,0,0,0,0,0,0,0,0,0,0,0,0,0,0,0,0,0,0,0,0,0,0,0,0,0,0,0,0,0,0,0,0,0,0,0,0,0,0,0,0,0,0,0,0,0,0,0,0,0,0,0,0,0,0,0,0,0,0,0,0,0,0,0,0,0,0,0,0,0,0,0,0,0,0,0,0,0,0,0,0,0,0,0,0,0,0,0,0,0,0,0,0,0,0,0,0,0,0,0,0,0,0,0,0,0,0,0,0,0,0,0,0,0,0,0,0,0,0,0,0,0,0,0,0,0,0,0,0,0,0,0,0,0,0,0,0,0,0,0,0,0,0,0,0,0,0,0,0,0,0,0,0,0,0,0,0,0,0,0,0,0,0,0,0,0,0,0,0,0,
0,0,0,0,0,0,0,0,0,0,0,0,0,0,0,0,0,0,0,0,0,0,0,0,0,0,0,0,0,0,0,0,0,0,0,0,0,0,0,0,0,0,0,0,0,0,0,0,0,0,0,0,0,0,0,0,0,0,0,0,0,0,0,0,0,0,0,0,0,0,0,0,0,0,0,0,0,0,0,0,0,0,0,0,0,0,0,0,0,0,0,0,0,0,0,0,0,0,0,0,0,0,0,0,0,0,0,0,0,0,0,0,0,0,0,0,0,0,0,0,0,0,0,0,0,0,0,0,0,0,0,0,0,0,0,0,0,0,0,0,0,0,0,0,0,0,0,0,0,0,0,0,0,0,0,0,0,0,0,0,0,0,0,0,0,0,0,0,0,0,0,0,0,0,0,0,0,0,0,0,0,0,0,0,0,0,0,0,0,0,0,0,0,0,0,0,0,0,0,0,0,0,0,0,0,0,0,0,0,0,0,0,0,0,0,0,0,0,0,0,0,0,0,0,0,0,0,0,0,0,0,0,0,0,0,0,0,0,0,0,
0,0,0,0,0,0,0,0,0,0,0,0,0,0,0,0,0,0,0,0,0,0,0,0,0,0,0,0,0,0,0,0,0,0,0,0,0,0,0,0,0,0,0,0,0,0,0,0,0,0,0,0,0,0,0,0,0,0,0,0,0,0,0,0,0,0,0,0,0,0,0,0,0,0,0,0,0,0,0,0,0,0,0,0,0,0,0,0,0,0,0,0,0,0,0,0,0,0,0,0,0,0,0,0,0,0,0,0,0,0,0,0,0,0,0,0,0,0,0,0,0,0,0,0,0,0,0,0,0,0,0,0,0,0,0,0,0,0,0,0,0,0,0,0,0,0,0,0,0,0,0,0,0,0,0,0,0,0,0,0,0,0,0,0,0,0,0,0,0,0,0,0,0,0,0,0,0,0,0,0,0,0,0,0,0,0,0,0,0,0,0,0,0,0,0,0,0,0,0,0,0,0,0,0,0,0,0,0,0,0,0,0,0,0,0,0,0,0,0,0,0,0,0,0,0,0,0,0,0,0,0,0,0,0,0,0,0,0,0,0,
0,0,0,0,0,0,0,0,0,0,0,0,0,0,0,0,0,0,0,0,0,0,0,0,0,0,0,0,0,0,0,0,0,0,0,0,0,0,0,0,0,0,0,0,0,0,0,0,0,0,0,0,0,0,0,0,0,0,0,0,0,0,0,0,0,0,0,0,0,0,0,0,0,0,0,0,0,0,0,0,0,0,0,0,0,0,0,0,0,0,0,0,0,0,0,0,0,0,0,0,0,0,0,0,0,0,0,0,0,0,0,0,0,0,0,0,0,0,0,0,0,0,0,0,0,0,0,0,0,0,0,0,0,0,0,0,0,0,0,0,0,0,0,0,0,0,0,0,0,0,0,0,0,0,0,0,0,0,0,0,0,0,0,0,0,0,0,0,0,0,0,0,0,0,0,0,0,0,0,0,0,0,0,0,0,0,0,0,0,0,0,0,0,0,0,0,0,0,0,0,0,0,0,0,0,0,0,0,0,0,0,0,0,0,0,0,0,0,0,0,0,0,0,0,0,0,0,0,0,0,0,0,0,0,0,0,0,0,0,0,
0,0,0,0,0,0,0,0,0,0,0,0,0,0,0,0,0,0,0,0,0,0,0,0,0,0,0,0,0,0,0,0,0,0,0,0,0,0,0,0,0,0,0,0,0,0,0,0,0,0,0,0,0,0,0,0,0,0,0,0,0,0,0,0,0,0,0,0,0,0,0,0,0,0,0,0,0,0,0,0,0,0,0,0,0,0,0,0,0,0,0,0,0,0,0,0,0,0,0,0,0,0,0,0,0,0,0,0,0,0,0,0,0,0,0,0,0,0,0,0,0,0,0,0,0,0,0,0,0,0,0,0,0,0,0,0,0,0,0,0,0,0,0,0,0,0,0,0,0,0,0,0,0,0,0,0,0,0,0,0,0,0,0,0,0,0,0,0,0,0,0,0,0,0,0,0,0,0,0,0,0,0,0,0,0,0,0,0,0,0,0,0,0,0,0,0,0,0,0,0,0,0,0,0,0,0,0,0,0,0,0,0,0,0,0,0,0,0,0,0,0,0,0,0,0,0,0,0,0,0,0,0,0,0,0,0,0,0,0,0,
0,0,0,0,0,0,0,0,0,0,0,0,0,0,0,0,0,0,0,0,0,0,0,0,0,0,0,0,0,0,0,0,0,0,0,0,0,0,0,0,0,0,0,0,0,0,0,0,0,0,0,0,0,0,0,0,0,0,0,0,0,0,0,0,0,0,0,0,0,0,0,0,0,0,0,0,0,0,0,0,0,0,0,0,0,0,0,0,0,0,0,0,0,0,0,0,0,0,0,0,0,0,0,0,0,0,0,0,0,0,0,0,0,0,0,0,0,0,0,0,0,0,0,0,0,0,0,0,0,0,0,0,0,0,0,0,0,0,0,0,0,0,0,0,0,0,0,0,0,0,0,0,0,0,0,0,0,0,0,0,0,0,0,0,0,0,0,0,0,0,0,0,0,0,0,0,0,0,0,0,0,0,0,0,0,0,0,0,0,0,0,0,0,0,0,0,0,0,0,0,0,0,0,0,0,0,0,0,0,0,0,0,0,0,0,0,0,0,0,0,0,0,0,0,0,0,0,0,0,0,0,0,0,0,0,0,0,0,0,0,
0,0,0,0,0,0,0,0,0,0,0,0,0,0,0,0,0,0,0,0,0,0,0,0,0,0,0,0,0,0,0,0,0,0,0,0,0,0,0,0,0,0,0,0,0,0,0,0,0,0,0,0,0,0,0,0,0,0,0,0,0,0,0,0,0,0,0,0,0,0,0,0,0,0,0,0,0,0,0,0,0,0,0,0,0,0,0,0,0,0,0,0,0,0,0,0,0,0,0,0,0,0,0,0,0,0,0,0,0,0,0,0,0,0,0,0,0,0,0,0,0,0,0,0,0,0,0,0,0,0,0,0,0,0,0,0,0,0,0,0,0,0,0,0,0,0,0,0,0,0,0,0,0,0,0,0,0,0,0,0,0,0,0,0,0,0,0,0,0,0,0,0,0,0,0,0,0,0,0,0,0,0,0,0,0,0,0,0,0,0,0,0,0,0,0,0,0,0,0,0,0,0,0,0,0,0,0,0,0,0,0,0,0,0,0,0,0,0,0,0,0,0,0,0,0,0,0,0,0,0,0,0,0,0,0,0,0,0,0,0,
0,0,0,0,0,0,0,0,0,0,0,0,0,0,0,0,0,0,0,0,0,0,0,0,0,0,0,0,0,0,0,0,0,0,0,0,0,0,0,0,0,0,0,0,0,0,0,0,0,0,0,0,0,0,0,0,0,0,0,0,0,0,0,0,0,0,0,0,0,0,0,0,0,0,0,0,0,0,0,0,0,0,0,0,0,0,0,0,0,0,0,0,0,0,0,0,0,0,0,0,0,0,0,0,0,0,0,0,0,0,0,0,0,0,0,0,0,0,0,0,0,0,0,0,0,0,0,0,0,0,0,0,0,0,0,0,0,0,0,0,0,0,0,0,0,0,0,0,0,0,0,0,0,0,0,0,0,0,0,0,0,0,0,0,0,0,0,0,0,0,0,0,0,0,0,0,0,0,0,0,0,0,0,0,0,0,0,0,0,0,0,0,0,0,0,0,0,0,0,0,0,0,0,0,0,0,0,0,0,0,0,0,0,0,0,0,0,0,0,0,0,0,0,0,0,0,0,0,0,0,0,0,0,0,0,0,0,0,0,0,
0,0,0,0,0,0,0,0,0,0,0,0,0,0,0,0,0,0,0,0,0,0,0,0,0,0,0,0,0,0,0,0,0,0,0,0,0,0,0,0,0,0,0,0,0,0,0,0,0,0,0,0,0,0,0,0,0,0,0,0,0,0,0,0,0,0,0,0,0,0,0,0,0,0,0,0,0,0,0,0,0,0,0,0,0,0,0,0,0,0,0,0,0,0,0,0,0,0,0,0,0,0,0,0,0,0,0,0,0,0,0,0,0,0,0,0,0,0,0,0,0,0,0,0,0,0,0,0,0,0,0,0,0,0,0,0,0,0,0,0,0,0,0,0,0,0,0,0,0,0,0,0,0,0,0,0,0,0,0,0,0,0,0,0,0,0,0,0,0,0,0,0,0,0,0,0,0,0,0,0,0,0,0,0,0,0,0,0,0,0,0,0,0,0,0,0,0,0,0,0,0,0,0,0,0,0,0,0,0,0,0,0,0,0,0,0,0,0,0,0,0,0,0,0,0,0,0,0,0,0,0,0,0,0,0,0,0,0,0,0,
0,0,0,0,0,0,0,0,0,0,0,0,0,0,0,0,0,0,0,0,0,0,0,0,0,0,0,0,0,0,0,0,0,0,0,0,0,0,0,0,0,0,0,0,0,0,0,0,0,0,0,0,0,0,0,0,0,0,0,0,0,0,0,0,0,0,0,0,0,0,0,0,0,0,0,0,0,0,0,0,0,0,0,0,0,0,0,0,0,0,0,0,0,0,0,0,0,0,0,0,0,0,0,0,0,0,0,0,0,0,0,0,0,0,0,0,0,0,0,0,0,0,0,0,0,0,0,0,0,0,0,0,0,0,0,0,0,0,0,0,0,0,0,0,0,0,0,0,0,0,0,0,0,0,0,0,0,0,0,0,0,0,0,0,0,0,0,0,0,0,0,0,0,0,0,0,0,0,0,0,0,0,0,0,0,0,0,0,0,0,0,0,0,0,0,0,0,0,0,0,0,0,0,0,0,0,0,0,0,0,0,0,0,0,0,0,0,0,0,0,0,0,0,0,0,0,0,0,0,0,0,0,0,0,0,0,0,0,0,0,
0,0,0,0,0,0,0,0,0,0,0,0,0,0,0,0,0,0,0,0,0,0,0,0,0,0,0,0,0,0,0,0,0,0,0,0,0,0,0,0,0,0,0,0,0,0,0,0,0,0,0,0,0,0,0,0,0,0,0,0,0,0,0,0,0,0,0,0,0,0,0,0,0,0,0,0,0,0,0,0,0,0,0,0,0,0,0,0,0,0,0,0,0,0,0,0,0,0,0,0,0,0,0,0,0,0,0,0,0,0,0,0,0,0,0,0,0,0,0,0,0,0,0,0,0,0,0,0,0,0,0,0,0,0,0,0,0,0,0,0,0,0,0,0,0,0,0,0,0,0,0,0,0,0,0,0,0,0,0,0,0,0,0,0,0,0,0,0,0,0,0,0,0,0,0,0,0,0,0,0,0,0,0,0,0,0,0,0,0,0,0,0,0,0,0,0,0,0,0,0,0,0,0,0,0,0,0,0,0,0,0,0,0,0,0,0,0,0,0,0,0,0,0,0,0,0,0,0,0,0,0,0,0,0,0,0,0,0,0,0,
0,0,0,0,0,0,0,0,0,0,0,0,0,0,0,0,0,0,0,0,0,0,0,0,0,0,0,0,0,0,0,0,0,0,0,0,0,0,0,0,0,0,0,0,0,0,0,0,0,0,0,0,0,0,0,0,0,0,0,0,0,0,0,0,0,0,0,0,0,0,0,0,0,0,0,0,0,0,0,0,0,0,0,0,0,0,0,0,0,0,0,0,0,0,0,0,0,0,0,0,0,0,0,0,0,0,0,0,0,0,0,0,0,0,0,0,0,0,0,0,0,0,0,0,0,0,0,0,0,0,0,0,0,0,0,0,0,0,0,0,0,0,0,0,0,0,0,0,0,0,0,0,0,0,0,0,0,0,0,0,0,0,0,0,0,0,0,0,0,0,0,0,0,0,0,0,0,0,0,0,0,0,0,0,0,0,0,0,0,0,0,0,0,0,0,0,0,0,0,0,0,0,0,0,0,0,0,0,0,0,0,0,0,0,0,0,0,0,0,0,0,0,0,0,0,0,0,0,0,0,0,0,0,0,0,0,0,0,0,0,
0,0,0,0,0,0,0,0,0,0,0,0,0,0,0,0,0,0,0,0,0,0,0,0,0,0,0,0,0,0,0,0,0,0,0,0,0,0,0,0,0,0,0,0,0,0,0,0,0,0,0,0,0,0,0,0,0,0,0,0,0,0,0,0,0,0,0,0,0,0,0,0,0,0,0,0,0,0,0,0,0,0,0,0,0,0,0,0,0,0,0,0,0,0,0,0,0,0,0,0,0,0,0,0,0,0,0,0,0,0,0,0,0,0,0,0,0,0,0,0,0,0,0,0,0,0,0,0,0,0,0,0,0,0,0,0,0,0,0,0,0,0,0,0,0,0,0,0,0,0,0,0,0,0,0,0,0,0,0,0,0,0,0,0,0,0,0,0,0,0,0,0,0,0,0,0,0,0,0,0,0,0,0,0,0,0,0,0,0,0,0,0,0,0,0,0,0,0,0,0,0,0,0,0,0,0,0,0,0,0,0,0,0,0,0,0,0,0,0,0,0,0,0,0,0,0,0,0,0,0,0,0,0,0,0,0,0,0,0,0,
0,0,0,0,0,0,0,0,0,0,0,0,0,0,0,0,0,0,0,0,0,0,0,0,0,0,0,0,0,0,0,0,0,0,0,0,0,0,0,0,0,0,0,0,0,0,0,0,0,0,0,0,0,0,0,0,0,0,0,0,0,0,0,0,0,0,0,0,0,0,0,0,0,0,0,0,0,0,0,0,0,0,0,0,0,0,0,0,0,0,0,0,0,0,0,0,0,0,0,0,0,0,0,0,0,0,0,0,0,0,0,0,0,0,0,0,0,0,0,0,0,0,0,0,0,0,0,0,0,0,0,0,0,0,0,0,0,0,0,0,0,0,0,0,0,0,0,0,0,0,0,0,0,0,0,0,0,0,0,0,0,0,0,0,0,0,0,0,0,0,0,0,0,0,0,0,0,0,0,0,0,0,0,0,0,0,0,0,0,0,0,0,0,0,0,0,0,0,0,0,0,0,0,0,0,0,0,0,0,0,0,0,0,0,0,0,0,0,0,0,0,0,0,0,0,0,0,0,0,0,0,0,0,0,0,0,0,0,0,0,
0,0,0,0,0,0,0,0,0,0,0,0,0,0,0,0,0,0,0,0,0,0,0,0,0,0,0,0,0,0,0,0,0,0,0,0,0,0,0,0,0,0,0,0,0,0,0,0,0,0,0,0,0,0,0,0,0,0,0,0,0,0,0,0,0,0,0,0,0,0,0,0,0,0,0,0,0,0,0,0,0,0,0,0,0,0,0,0,0,0,0,0,0,0,0,0,0,0,0,0,0,0,0,0,0,0,0,0,0,0,0,0,0,0,0,0,0,0,0,0,0,0,0,0,0,0,0,0,0,0,0,0,0,0,0,0,0,0,0,0,0,0,0,0,0,0,0,0,0,0,0,0,0,0,0,0,0,0,0,0,0,0,0,0,0,0,0,0,0,0,0,0,0,0,0,0,0,0,0,0,0,0,0,0,0,0,0,0,0,0,0,0,0,0,0,0,0,0,0,0,0,0,0,0,0,0,0,0,0,0,0,0,0,0,0,0,0,0,0,0,0,0,0,0,0,0,0,0,0,0,0,0,0,0,0,0,0,0,0,0,
0,0,0,0,0,0,0,0,0,0,0,0,0,0,0,0,0,0,0,0,0,0,0,0,0,0,0,0,0,0,0,0,0,0,0,0,0,0,0,0,0,0,0,0,0,0,0,0,0,0,0,0,0,0,0,0,0,0,0,0,0,0,0,0,0,0,0,0,0,0,0,0,0,0,0,0,0,0,0,0,0,0,0,0,0,0,0,0,0,0,0,0,0,0,0,0,0,0,0,0,0,0,0,0,0,0,0,0,0,0,0,0,0,0,0,0,0,0,0,0,0,0,0,0,0,0,0,0,0,0,0,0,0,0,0,0,0,0,0,0,0,0,0,0,0,0,0,0,0,0,0,0,0,0,0,0,0,0,0,0,0,0,0,0,0,0,0,0,0,0,0,0,0,0,0,0,0,0,0,0,0,0,0,0,0,0,0,0,0,0,0,0,0,0,0,0,0,0,0,0,0,0,0,0,0,0,0,0,0,0,0,0,0,0,0,0,0,0,0,0,0,0,0,0,0,0,0,0,0,0,0,0,0,0,0,0,0,0,0,0,
0,0,0,0,0,0,0,0,0,0,0,0,0,0,0,0,0,0,0,0,0,0,0,0,0,0,0,0,0,0,0,0,0,0,0,0,0,0,0,0,0,0,0,0,0,0,0,0,0,0,0,0,0,0,0,0,0,0,0,0,0,0,0,0,0,0,0,0,0,0,0,0,0,0,0,0,0,0,0,0,0,0,0,0,0,0,0,0,0,0,0,0,0,0,0,0,0,0,0,0,0,0,0,0,0,0,0,0,0,0,0,0,0,0,0,0,0,0,0,0,0,0,0,0,0,0,0,0,0,0,0,0,0,0,0,0,0,0,0,0,0,0,0,0,0,0,0,0,0,0,0,0,0,0,0,0,0,0,0,0,0,0,0,0,0,0,0,0,0,0,0,0,0,0,0,0,0,0,0,0,0,0,0,0,0,0,0,0,0,0,0,0,0,0,0,0,0,0,0,0,0,0,0,0,0,0,0,0,0,0,0,0,0,0,0,0,0,0,0,0,0,0,0,0,0,0,0,0,0,0,0,0,0,0,0,0,0,0,0,0,
0,0,0,0,0,0,0,0,0,0,0,0,0,0,0,0,0,0,0,0,0,0,0,0,0,0,0,0,0,0,0,0,0,0,0,0,0,0,0,0,0,0,0,0,0,0,0,0,0,0,0,0,0,0,0,0,0,0,0,0,0,0,0,0,0,0,0,0,0,0,0,0,0,0,0,0,0,0,0,0,0,0,0,0,0,0,0,0,0,0,0,0,0,0,0,0,0,0,0,0,0,0,0,0,0,0,0,0,0,0,0,0,0,0,0,0,0,0,0,0,0,0,0,0,0,0,0,0,0,0,0,0,0,0,0,0,0,0,0,0,0,0,0,0,0,0,0,0,0,0,0,0,0,0,0,0,0,0,0,0,0,0,0,0,0,0,0,0,0,0,0,0,0,0,0,0,0,0,0,0,0,0,0,0,0,0,0,0,0,0,0,0,0,0,0,0,0,0,0,0,0,0,0,0,0,0,0,0,0,0,0,0,0,0,0,0,0,0,0,0,0,0,0,0,0,0,0,0,0,0,0,0,0,0,0,0,0,0,0,0,
0,0,0,0,0,0,0,0,0,0,0,0,0,0,0,0,0,0,0,0,0,0,0,0,0,0,0,0,0,0,0,0,0,0,0,0,0,0,0,0,0,0,0,0,0,0,0,0,0,0,0,0,0,0,0,0,0,0,0,0,0,0,0,0,0,0,0,0,0,0,0,0,0,0,0,0,0,0,0,0,0,0,0,0,0,0,0,0,0,0,0,0,0,0,0,0,0,0,0,0,0,0,0,0,0,0,0,0,0,0,0,0,0,0,0,0,0,0,0,0,0,0,0,0,0,0,0,0,0,0,0,0,0,0,0,0,0,0,0,0,0,0,0,0,0,0,0,0,0,0,0,0,0,0,0,0,0,0,0,0,0,0,0,0,0,0,0,0,0,0,0,0,0,0,0,0,0,0,0,0,0,0,0,0,0,0,0,0,0,0,0,0,0,0,0,0,0,0,0,0,0,0,0,0,0,0,0,0,0,0,0,0,0,0,0,0,0,0,0,0,0,0,0,0,0,0,0,0,0,0,0,0,0,0,0,0,0,0,0,0,
0,0,0,0,0,0,0,0,0,0,0,0,0,0,0,0,0,0,0,0,0,0,0,0,0,0,0,0,0,0,0,0,0,0,0,0,0,0,0,0,0,0,0,0,0,0,0,0,0,0,0,0,0,0,0,0,0,0,0,0,0,0,0,0,0,0,0,0,0,0,0,0,0,0,0,0,0,0,0,0,0,0,0,0,0,0,0,0,0,0,0,0,0,0,0,0,0,0,0,0,0,0,0,0,0,0,0,0,0,0,0,0,0,0,0,0,0,0,0,0,0,0,0,0,0,0,0,0,0,0,0,0,0,0,0,0,0,0,0,0,0,0,0,0,0,0,0,0,0,0,0,0,0,0,0,0,0,0,0,0,0,0,0,0,0,0,0,0,0,0,0,0,0,0,0,0,0,0,0,0,0,0,0,0,0,0,0,0,0,0,0,0,0,0,0,0,0,0,0,0,0,0,0,0,0,0,0,0,0,0,0,0,0,0,0,0,0,0,0,0,0,0,0,0,0,0,0,0,0,0,0,0,0,0,0,0,0,0,0,0,
0,0,0,0,0,0,0,0,0,0,0,0,0,0,0,0,0,0,0,0,0,0,0,0,0,0,0,0,0,0,0,0,0,0,0,0,0,0,0,0,0,0,0,0,0,0,0,0,0,0,0,0,0,0,0,0,0,0,0,0,0,0,0,0,0,0,0,0,0,0,0,0,0,0,0,0,0,0,0,0,0,0,0,0,0,0,0,0,0,0,0,0,0,0,0,0,0,0,0,0,0,0,0,0,0,0,0,0,0,0,0,0,0,0,0,0,0,0,0,0,0,0,0,0,0,0,0,0,0,0,0,0,0,0,0,0,0,0,0,0,0,0,0,0,0,0,0,0,0,0,0,0,0,0,0,0,0,0,0,0,0,0,0,0,0,0,0,0,0,0,0,0,0,0,0,0,0,0,0,0,0,0,0,0,0,0,0,0,0,0,0,0,0,0,0,0,0,0,0,0,0,0,0,0,0,0,0,0,0,0,0,0,0,0,0,0,0,0,0,0,0,0,0,0,0,0,0,0,0,0,0,0,0,0,0,0,0,0,0,0,
0,0,0,0,0,0,0,0,0,0,0,0,0,0,0,0,0,0,0,0,0,0,0,0,0,0,0,0,0,0,0,0,0,0,0,0,0,0,0,0,0,0,0,0,0,0,0,0,0,0,0,0,0,0,0,0,0,0,0,0,0,0,0,0,0,0,0,0,0,0,0,0,0,0,0,0,0,0,0,0,0,0,0,0,0,0,0,0,0,0,0,0,0,0,0,0,0,0,0,0,0,0,0,0,0,0,0,0,0,0,0,0,0,0,0,0,0,0,0,0,0,0,0,0,0,0,0,0,0,0,0,0,0,0,0,0,0,0,0,0,0,0,0,0,0,0,0,0,0,0,0,0,0,0,0,0,0,0,0,0,0,0,0,0,0,0,0,0,0,0,0,0,0,0,0,0,0,0,0,0,0,0,0,0,0,0,0,0,0,0,0,0,0,0,0,0,0,0,0,0,0,0,0,0,0,0,0,0,0,0,0,0,0,0,0,0,0,0,0,0,0,0,0,0,0,0,0,0,0,0,0,0,0,0,0,0,0,0,0,0,
0,0,0,0,0,0,0,0,0,0,0,0,0,0,0,0,0,0,0,0,0,0,0,0,0,0,0,0,0,0,0,0,0,0,0,0,0,0,0,0,0,0,0,0,0,0,0,0,0,0,0,0,0,0,0,0,0,0,0,0,0,0,0,0,0,0,0,0,0,0,0,0,0,0,0,0,0,0,0,0,0,0,0,0,0,0,0,0,0,0,0,0,0,0,0,0,0,0,0,0,0,0,0,0,0,0,0,0,0,0,0,0,0,0,0,0,0,0,0,0,0,0,0,0,0,0,0,0,0,0,0,0,0,0,0,0,0,0,0,0,0,0,0,0,0,0,0,0,0,0,0,0,0,0,0,0,0,0,0,0,0,0,0,0,0,0,0,0,0,0,0,0,0,0,0,0,0,0,0,0,0,0,0,0,0,0,0,0,0,0,0,0,0,0,0,0,0,0,0,0,0,0,0,0,0,0,0,0,0,0,0,0,0,0,0,0,0,0,0,0,0,0,0,0,0,0,0,0,0,0,0,0,0,0,0,0,0,0,0,0,
0,0,0,0,0,0,0,0,0,0,0,0,0,0,0,0,0,0,0,0,0,0,0,0,0,0,0,0,0,0,0,0,0,0,0,0,0,0,0,0,0,0,0,0,0,0,0,0,0,0,0,0,0,0,0,0,0,0,0,0,0,0,0,0,0,0,0,0,0,0,0,0,0,0,0,0,0,0,0,0,0,0,0,0,0,0,0,0,0,0,0,0,0,0,0,0,0,0,0,0,0,0,0,0,0,0,0,0,0,0,0,0,0,0,0,0,0,0,0,0,0,0,0,0,0,0,0,0,0,0,0,0,0,0,0,0,0,0,0,0,0,0,0,0,0,0,0,0,0,0,0,0,0,0,0,0,0,0,0,0,0,0,0,0,0,0,0,0,0,0,0,0,0,0,0,0,0,0,0,0,0,0,0,0,0,0,0,0,0,0,0,0,0,0,0,0,0,0,0,0,0,0,0,0,0,0,0,0,0,0,0,0,0,0,0,0,0,0,0,0,0,0,0,0,0,0,0,0,0,0,0,0,0,0,0,0,0,0,0,0,
0,0,0,0,0,0,0,0,0,0,0,0,0,0,0,0,0,0,0,0,0,0,0,0,0,0,0,0,0,0,0,0,0,0,0,0,0,0,0,0,0,0,0,0,0,0,0,0,0,0,0,0,0,0,0,0,0,0,0,0,0,0,0,0,0,0,0,0,0,0,0,0,0,0,0,0,0,0,0,0,0,0,0,0,0,0,0,0,0,0,0,0,0,0,0,0,0,0,0,0,0,0,0,0,0,0,0,0,0,0,0,0,0,0,0,0,0,0,0,0,0,0,0,0,0,0,0,0,0,0,0,0,0,0,0,0,0,0,0,0,0,0,0,0,0,0,0,0,0,0,0,0,0,0,0,0,0,0,0,0,0,0,0,0,0,0,0,0,0,0,0,0,0,0,0,0,0,0,0,0,0,0,0,0,0,0,0,0,0,0,0,0,0,0,0,0,0,0,0,0,0,0,0,0,0,0,0,0,0,0,0,0,0,0,0,0,0,0,0,0,0,0,0,0,0,0,0,0,0,0,0,0,0,0,0,0,0,0,0,0,
0,0,0,0,0,0,0,0,0,0,0,0,0,0,0,0,0,0,0,0,0,0,0,0,0,0,0,0,0,0,0,0,0,0,0,0,0,0,0,0,0,0,0,0,0,0,0,0,0,0,0,0,0,0,0,0,0,0,0,0,0,0,0,0,0,0,0,0,0,0,0,0,0,0,0,0,0,0,0,0,0,0,0,0,0,0,0,0,0,0,0,0,0,0,0,0,0,0,0,0,0,0,0,0,0,0,0,0,0,0,0,0,0,0,0,0,0,0,0,0,0,0,0,0,0,0,0,0,0,0,0,0,0,0,0,0,0,0,0,0,0,0,0,0,0,0,0,0,0,0,0,0,0,0,0,0,0,0,0,0,0,0,0,0,0,0,0,0,0,0,0,0,0,0,0,0,0,0,0,0,0,0,0,0,0,0,0,0,0,0,0,0,0,0,0,0,0,0,0,0,0,0,0,0,0,0,0,0,0,0,0,0,0,0,0,0,0,0,0,0,0,0,0,0,0,0,0,0,0,0,0,0,0,0,0,0,0,0,0,0,
0,0,0,0,0,0,0,0,0,0,0,0,0,0,0,0,0,0,0,0,0,0,0,0,0,0,0,0,0,0,0,0,0,0,0,0,0,0,0,0,0,0,0,0,0,0,0,0,0,0,0,0,0,0,0,0,0,0,0,0,0,0,0,0,0,0,0,0,0,0,0,0,0,0,0,0,0,0,0,0,0,0,0,0,0,0,0,0,0,0,0,0,0,0,0,0,0,0,0,0,0,0,0,0,0,0,0,0,0,0,0,0,0,0,0,0,0,0,0,0,0,0,0,0,0,0,0,0,0,0,0,0,0,0,0,0,0,0,0,0,0,0,0,0,0,0,0,0,0,0,0,0,0,0,0,0,0,0,0,0,0,0,0,0,0,0,0,0,0,0,0,0,0,0,0,0,0,0,0,0,0,0,0,0,0,0,0,0,0,0,0,0,0,0,0,0,0,0,0,0,0,0,0,0,0,0,0,0,0,0,0,0,0,0,0,0,0,0,0,0,0,0,0,0,0,0,0,0,0,0,0,0,0,0,0,0,0,0,0,0,
0,0,0,0,0,0,0,0,0,0,0,0,0,0,0,0,0,0,0,0,0,0,0,0,0,0,0,0,0,0,0,0,0,0,0,0,0,0,0,0,0,0,0,0,0,0,0,0,0,0,0,0,0,0,0,0,0,0,0,0,0,0,0,0,0,0,0,0,0,0,0,0,0,0,0,0,0,0,0,0,0,0,0,0,0,0,0,0,0,0,0,0,0,0,0,0,0,0,0,0,0,0,0,0,0,0,0,0,0,0,0,0,0,0,0,0,0,0,0,0,0,0,0,0,0,0,0,0,0,0,0,0,0,0,0,0,0,0,0,0,0,0,0,0,0,0,0,0,0,0,0,0,0,0,0,0,0,0,0,0,0,0,0,0,0,0,0,0,0,0,0,0,0,0,0,0,0,0,0,0,0,0,0,0,0,0,0,0,0,0,0,0,0,0,0,0,0,0,0,0,0,0,0,0,0,0,0,0,0,0,0,0,0,0,0,0,0,0,0,0,0,0,0,0,0,0,0,0,0,0,0,0,0,0,0,0,0,0,0,0,
0,0,0,0,0,0,0,0,0,0,0,0,0,0,0,0,0,0,0,0,0,0,0,0,0,0,0,0,0,0,0,0,0,0,0,0,0,0,0,0,0,0,0,0,0,0,0,0,0,0,0,0,0,0,0,0,0,0,0,0,0,0,0,0,0,0,0,0,0,0,0,0,0,0,0,0,0,0,0,0,0,0,0,0,0,0,0,0,0,0,0,0,0,0,0,0,0,0,0,0,0,0,0,0,0,0,0,0,0,0,0,0,0,0,0,0,0,0,0,0,0,0,0,0,0,0,0,0,0,0,0,0,0,0,0,0,0,0,0,0,0,0,0,0,0,0,0,0,0,0,0,0,0,0,0,0,0,0,0,0,0,0,0,0,0,0,0,0,0,0,0,0,0,0,0,0,0,0,0,0,0,0,0,0,0,0,0,0,0,0,0,0,0,0,0,0,0,0,0,0,0,0,0,0,0,0,0,0,0,0,0,0,0,0,0,0,0,0,0,0,0,0,0,0,0,0,0,0,0,0,0,0,0,0,0,0,0,0,0,0,
0,0,0,0,0,0,0,0,0,0,0,0,0,0,0,0,0,0,0,0,0,0,0,0,0,0,0,0,0,0,0,0,0,0,0,0,0,0,0,0,0,0,0,0,0,0,0,0,0,0,0,0,0,0,0,0,0,0,0,0,0,0,0,0,0,0,0,0,0,0,0,0,0,0,0,0,0,0,0,0,0,0,0,0,0,0,0,0,0,0,0,0,0,0,0,0,0,0,0,0,0,0,0,0,0,0,0,0,0,0,0,0,0,0,0,0,0,0,0,0,0,0,0,0,0,0,0,0,0,0,0,0,0,0,0,0,0,0,0,0,0,0,0,0,0,0,0,0,0,0,0,0,0,0,0,0,0,0,0,0,0,0,0,0,0,0,0,0,0,0,0,0,0,0,0,0,0,0,0,0,0,0,0,0,0,0,0,0,0,0,0,0,0,0,0,0,0,0,0,0,0,0,0,0,0,0,0,0,0,0,0,0,0,0,0,0,0,0,0,0,0,0,0,0,0,0,0,0,0,0,0,0,0,0,0,0,0,0,0,0,
0,0,0,0,0,0,0,0,0,0,0,0,0,0,0,0,0,0,0,0,0,0,0,0,0,0,0,0,0,0,0,0,0,0,0,0,0,0,0,0,0,0,0,0,0,0,0,0,0,0,0,0,0,0,0,0,0,0,0,0,0,0,0,0,0,0,0,0,0,0,0,0,0,0,0,0,0,0,0,0,0,0,0,0,0,0,0,0,0,0,0,0,0,0,0,0,0,0,0,0,0,0,0,0,0,0,0,0,0,0,0,0,0,0,0,0,0,0,0,0,0,0,0,0,0,0,0,0,0,0,0,0,0,0,0,0,0,0,0,0,0,0,0,0,0,0,0,0,0,0,0,0,0,0,0,0,0,0,0,0,0,0,0,0,0,0,0,0,0,0,0,0,0,0,0,0,0,0,0,0,0,0,0,0,0,0,0,0,0,0,0,0,0,0,0,0,0,0,0,0,0,0,0,0,0,0,0,0,0,0,0,0,0,0,0,0,0,0,0,0,0,0,0,0,0,0,0,0,0,0,0,0,0,0,0,0,0,0,0,0,
0,0,0,0,0,0,0,0,0,0,0,0,0,0,0,0,0,0,0,0,0,0,0,0,0,0,0,0,0,0,0,0,0,0,0,0,0,0,0,0,0,0,0,0,0,0,0,0,0,0,0,0,0,0,0,0,0,0,0,0,0,0,0,0,0,0,0,0,0,0,0,0,0,0,0,0,0,0,0,0,0,0,0,0,0,0,0,0,0,0,0,0,0,0,0,0,0,0,0,0,0,0,0,0,0,0,0,0,0,0,0,0,0,0,0,0,0,0,0,0,0,0,0,0,0,0,0,0,0,0,0,0,0,0,0,0,0,0,0,0,0,0,0,0,0,0,0,0,0,0,0,0,0,0,0,0,0,0,0,0,0,0,0,0,0,0,0,0,0,0,0,0,0,0,0,0,0,0,0,0,0,0,0,0,0,0,0,0,0,0,0,0,0,0,0,0,0,0,0,0,0,0,0,0,0,0,0,0,0,0,0,0,0,0,0,0,0,0,0,0,0,0,0,0,0,0,0,0,0,0,0,0,0,0,0,0,0,0,0,0,
0,0,0,0,0,0,0,0,0,0,0,0,0,0,0,0,0,0,0,0,0,0,0,0,0,0,0,0,0,0,0,0,0,0,0,0,0,0,0,0,0,0,0,0,0,0,0,0,0,0,0,0,0,0,0,0,0,0,0,0,0,0,0,0,0,0,0,0,0,0,0,0,0,0,0,0,0,0,0,0,0,0,0,0,0,0,0,0,0,0,0,0,0,0,0,0,0,0,0,0,0,0,0,0,0,0,0,0,0,0,0,0,0,0,0,0,0,0,0,0,0,0,0,0,0,0,0,0,0,0,0,0,0,0,0,0,0,0,0,0,0,0,0,0,0,0,0,0,0,0,0,0,0,0,0,0,0,0,0,0,0,0,0,0,0,0,0,0,0,0,0,0,0,0,0,0,0,0,0,0,0,0,0,0,0,0,0,0,0,0,0,0,0,0,0,0,0,0,0,0,0,0,0,0,0,0,0,0,0,0,0,0,0,0,0,0,0,0,0,0,0,0,0,0,0,0,0,0,0,0,0,0,0,0,0,0,0,0,0,0,
0,0,0,0,0,0,0,0,0,0,0,0,0,0,0,0,0,0,0,0,0,0,0,0,0,0,0,0,0,0,0,0,0,0,0,0,0,0,0,0,0,0,0,0,0,0,0,0,0,0,0,0,0,0,0,0,0,0,0,0,0,0,0,0,0,0,0,0,0,0,0,0,0,0,0,0,0,0,0,0,0,0,0,0,0,0,0,0,0,0,0,0,0,0,0,0,0,0,0,0,0,0,0,0,0,0,0,0,0,0,0,0,0,0,0,0,0,0,0,0,0,0,0,0,0,0,0,0,0,0,0,0,0,0,0,0,0,0,0,0,0,0,0,0,0,0,0,0,0,0,0,0,0,0,0,0,0,0,0,0,0,0,0,0,0,0,0,0,0,0,0,0,0,0,0,0,0,0,0,0,0,0,0,0,0,0,0,0,0,0,0,0,0,0,0,0,0,0,0,0,0,0,0,0,0,0,0,0,0,0,0,0,0,0,0,0,0,0,0,0,0,0,0,0,0,0,0,0,0,0,0,0,0,0,0,0,0,0,0,0,
0,0,0,0,0,0,0,0,0,0,0,0,0,0,0,0,0,0,0,0,0,0,0,0,0,0,0,0,0,0,0,0,0,0,0,0,0,0,0,0,0,0,0,0,0,0,0,0,0,0,0,0,0,0,0,0,0,0,0,0,0,0,0,0,0,0,0,0,0,0,0,0,0,0,0,0,0,0,0,0,0,0,0,0,0,0,0,0,0,0,0,0,0,0,0,0,0,0,0,0,0,0,0,0,0,0,0,0,0,0,0,0,0,0,0,0,0,0,0,0,0,0,0,0,0,0,0,0,0,0,0,0,0,0,0,0,0,0,0,0,0,0,0,0,0,0,0,0,0,0,0,0,0,0,0,0,0,0,0,0,0,0,0,0,0,0,0,0,0,0,0,0,0,0,0,0,0,0,0,0,0,0,0,0,0,0,0,0,0,0,0,0,0,0,0,0,0,0,0,0,0,0,0,0,0,0,0,0,0,0,0,0,0,0,0,0,0,0,0,0,0,0,0,0,0,0,0,0,0,0,0,0,0,0,0,0,0,0,0,0,
0,0,0,0,0,0,0,0,0,0,0,0,0,0,0,0,0,0,0,0,0,0,0,0,0,0,0,0,0,0,0,0,0,0,0,0,0,0,0,0,0,0,0,0,0,0,0,0,0,0,0,0,0,0,0,0,0,0,0,0,0,0,0,0,0,0,0,0,0,0,0,0,0,0,0,0,0,0,0,0,0,0,0,0,0,0,0,0,0,0,0,0,0,0,0,0,0,0,0,0,0,0,0,0,0,0,0,0,0,0,0,0,0,0,0,0,0,0,0,0,0,0,0,0,0,0,0,0,0,0,0,0,0,0,0,0,0,0,0,0,0,0,0,0,0,0,0,0,0,0,0,0,0,0,0,0,0,0,0,0,0,0,0,0,0,0,0,0,0,0,0,0,0,0,0,0,0,0,0,0,0,0,0,0,0,0,0,0,0,0,0,0,0,0,0,0,0,0,0,0,0,0,0,0,0,0,0,0,0,0,0,0,0,0,0,0,0,0,0,0,0,0,0,0,0,0,0,0,0,0,0,0,0,0,0,0,0,0,0,0,
0,0,0,0,0,0,0,0,0,0,0,0,0,0,0,0,0,0,0,0,0,0,0,0,0,0,0,0,0,0,0,0,0,0,0,0,0,0,0,0,0,0,0,0,0,0,0,0,0,0,0,0,0,0,0,0,0,0,0,0,0,0,0,0,0,0,0,0,0,0,0,0,0,0,0,0,0,0,0,0,0,0,0,0,0,0,0,0,0,0,0,0,0,0,0,0,0,0,0,0,0,0,0,0,0,0,0,0,0,0,0,0,0,0,0,0,0,0,0,0,0,0,0,0,0,0,0,0,0,0,0,0,0,0,0,0,0,0,0,0,0,0,0,0,0,0,0,0,0,0,0,0,0,0,0,0,0,0,0,0,0,0,0,0,0,0,0,0,0,0,0,0,0,0,0,0,0,0,0,0,0,0,0,0,0,0,0,0,0,0,0,0,0,0,0,0,0,0,0,0,0,0,0,0,0,0,0,0,0,0,0,0,0,0,0,0,0,0,0,0,0,0,0,0,0,0,0,0,0,0,0,0,0,0,0,0,0,0,0,0,
0,0,0,0,0,0,0,0,0,0,0,0,0,0,0,0,0,0,0,0,0,0,0,0,0,0,0,0,0,0,0,0,0,0,0,0,0,0,0,0,0,0,0,0,0,0,0,0,0,0,0,0,0,0,0,0,0,0,0,0,0,0,0,0,0,0,0,0,0,0,0,0,0,0,0,0,0,0,0,0,0,0,0,0,0,0,0,0,0,0,0,0,0,0,0,0,0,0,0,0,0,0,0,0,0,0,0,0,0,0,0,0,0,0,0,0,0,0,0,0,0,0,0,0,0,0,0,0,0,0,0,0,0,0,0,0,0,0,0,0,0,0,0,0,0,0,0,0,0,0,0,0,0,0,0,0,0,0,0,0,0,0,0,0,0,0,0,0,0,0,0,0,0,0,0,0,0,0,0,0,0,0,0,0,0,0,0,0,0,0,0,0,0,0,0,0,0,0,0,0,0,0,0,0,0,0,0,0,0,0,0,0,0,0,0,0,0,0,0,0,0,0,0,0,0,0,0,0,0,0,0,0,0,0,0,0,0,0,0,0,
0,0,0,0,0,0,0,0,0,0,0,0,0,0,0,0,0,0,0,0,0,0,0,0,0,0,0,0,0,0,0,0,0,0,0,0,0,0,0,0,0,0,0,0,0,0,0,0,0,0,0,0,0,0,0,0,0,0,0,0,0,0,0,0,0,0,0,0,0,0,0,0,0,0,0,0,0,0,0,0,0,0,0,0,0,0,0,0,0,0,0,0,0,0,0,0,0,0,0,0,0,0,0,0,0,0,0,0,0,0,0,0,0,0,0,0,0,0,0,0,0,0,0,0,0,0,0,0,0,0,0,0,0,0,0,0,0,0,0,0,0,0,0,0,0,0,0,0,0,0,0,0,0,0,0,0,0,0,0,0,0,0,0,0,0,0,0,0,0,0,0,0,0,0,0,0,0,0,0,0,0,0,0,0,0,0,0,0,0,0,0,0,0,0,0,0,0,0,0,0,0,0,0,0,0,0,0,0,0,0,0,0,0,0,0,0,0,0,0,0,0,0,0,0,0,0,0,0,0,0,0,0,0,0,0,0,0,0,0,0,
0,0,0,0,0,0,0,0,0,0,0,0,0,0,0,0,0,0,0,0,0,0,0,0,0,0,0,0,0,0,0,0,0,0,0,0,0,0,0,0,0,0,0,0,0,0,0,0,0,0,0,0,0,0,0,0,0,0,0,0,0,0,0,0,0,0,0,0,0,0,0,0,0,0,0,0,0,0,0,0,0,0,0,0,0,0,0,0,0,0,0,0,0,0,0,0,0,0,0,0,0,0,0,0,0,0,0,0,0,0,0,0,0,0,0,0,0,0,0,0,0,0,0,0,0,0,0,0,0,0,0,0,0,0,0,0,0,0,0,0,0,0,0,0,0,0,0,0,0,0,0,0,0,0,0,0,0,0,0,0,0,0,0,0,0,0,0,0,0,0,0,0,0,0,0,0,0,0,0,0,0,0,0,0,0,0,0,0,0,0,0,0,0,0,0,0,0,0,0,0,0,0,0,0,0,0,0,0,0,0,0,0,0,0,0,0,0,0,0,0,0,0,0,0,0,0,0,0,0,0,0,0,0,0,0,0,0,0,0,0,
0,0,0,0,0,0,0,0,0,0,0,0,0,0,0,0,0,0,0,0,0,0,0,0,0,0,0,0,0,0,0,0,0,0,0,0,0,0,0,0,0,0,0,0,0,0,0,0,0,0,0,0,0,0,0,0,0,0,0,0,0,0,0,0,0,0,0,0,0,0,0,0,0,0,0,0,0,0,0,0,0,0,0,0,0,0,0,0,0,0,0,0,0,0,0,0,0,0,0,0,0,0,0,0,0,0,0,0,0,0,0,0,0,0,0,0,0,0,0,0,0,0,0,0,0,0,0,0,0,0,0,0,0,0,0,0,0,0,0,0,0,0,0,0,0,0,0,0,0,0,0,0,0,0,0,0,0,0,0,0,0,0,0,0,0,0,0,0,0,0,0,0,0,0,0,0,0,0,0,0,0,0,0,0,0,0,0,0,0,0,0,0,0,0,0,0,0,0,0,0,0,0,0,0,0,0,0,0,0,0,0,0,0,0,0,0,0,0,0,0,0,0,0,0,0,0,0,0,0,0,0,0,0,0,0,0,0,0,0,0,
0,0,0,0,0,0,0,0,0,0,0,0,0,0,0,0,0,0,0,0,0,0,0,0,0,0,0,0,0,0,0,0,0,0,0,0,0,0,0,0,0,0,0,0,0,0,0,0,0,0,0,0,0,0,0,0,0,0,0,0,0,0,0,0,0,0,0,0,0,0,0,0,0,0,0,0,0,0,0,0,0,0,0,0,0,0,0,0,0,0,0,0,0,0,0,0,0,0,0,0,0,0,0,0,0,0,0,0,0,0,0,0,0,0,0,0,0,0,0,0,0,0,0,0,0,0,0,0,0,0,0,0,0,0,0,0,0,0,0,0,0,0,0,0,0,0,0,0,0,0,0,0,0,0,0,0,0,0,0,0,0,0,0,0,0,0,0,0,0,0,0,0,0,0,0,0,0,0,0,0,0,0,0,0,0,0,0,0,0,0,0,0,0,0,0,0,0,0,0,0,0,0,0,0,0,0,0,0,0,0,0,0,0,0,0,0,0,0,0,0,0,0,0,0,0,0,0,0,0,0,0,0,0,0,0,0,0,0,0,0,
0,0,0,0,0,0,0,0,0,0,0,0,0,0,0,0,0,0,0,0,0,0,0,0,0,0,0,0,0,0,0,0,0,0,0,0,0,0,0,0,0,0,0,0,0,0,0,0,0,0,0,0,0,0,0,0,0,0,0,0,0,0,0,0,0,0,0,0,0,0,0,0,0,0,0,0,0,0,0,0,0,0,0,0,0,0,0,0,0,0,0,0,0,0,0,0,0,0,0,0,0,0,0,0,0,0,0,0,0,0,0,0,0,0,0,0,0,0,0,0,0,0,0,0,0,0,0,0,0,0,0,0,0,0,0,0,0,0,0,0,0,0,0,0,0,0,0,0,0,0,0,0,0,0,0,0,0,0,0,0,0,0,0,0,0,0,0,0,0,0,0,0,0,0,0,0,0,0,0,0,0,0,0,0,0,0,0,0,0,0,0,0,0,0,0,0,0,0,0,0,0,0,0,0,0,0,0,0,0,0,0,0,0,0,0,0,0,0,0,0,0,0,0,0,0,0,0,0,0,0,0,0,0,0,0,0,0,0,0,0,
0,0,0,0,0,0,0,0,0,0,0,0,0,0,0,0,0,0,0,0,0,0,0,0,0,0,0,0,0,0,0,0,0,0,0,0,0,0,0,0,0,0,0,0,0,0,0,0,0,0,0,0,0,0,0,0,0,0,0,0,0,0,0,0,0,0,0,0,0,0,0,0,0,0,0,0,0,0,0,0,0,0,0,0,0,0,0,0,0,0,0,0,0,0,0,0,0,0,0,0,0,0,0,0,0,0,0,0,0,0,0,0,0,0,0,0,0,0,0,0,0,0,0,0,0,0,0,0,0,0,0,0,0,0,0,0,0,0,0,0,0,0,0,0,0,0,0,0,0,0,0,0,0,0,0,0,0,0,0,0,0,0,0,0,0,0,0,0,0,0,0,0,0,0,0,0,0,0,0,0,0,0,0,0,0,0,0,0,0,0,0,0,0,0,0,0,0,0,0,0,0,0,0,0,0,0,0,0,0,0,0,0,0,0,0,0,0,0,0,0,0,0,0,0,0,0,0,0,0,0,0,0,0,0,0,0,0,0,0,0,
0,0,0,0,0,0,0,0,0,0,0,0,0,0,0,0,0,0,0,0,0,0,0,0,0,0,0,0,0,0,0,0,0,0,0,0,0,0,0,0,0,0,0,0,0,0,0,0,0,0,0,0,0,0,0,0,0,0,0,0,0,0,0,0,0,0,0,0,0,0,0,0,0,0,0,0,0,0,0,0,0,0,0,0,0,0,0,0,0,0,0,0,0,0,0,0,0,0,0,0,0,0,0,0,0,0,0,0,0,0,0,0,0,0,0,0,0,0,0,0,0,0,0,0,0,0,0,0,0,0,0,0,0,0,0,0,0,0,0,0,0,0,0,0,0,0,0,0,0,0,0,0,0,0,0,0,0,0,0,0,0,0,0,0,0,0,0,0,0,0,0,0,0,0,0,0,0,0,0,0,0,0,0,0,0,0,0,0,0,0,0,0,0,0,0,0,0,0,0,0,0,0,0,0,0,0,0,0,0,0,0,0,0,0,0,0,0,0,0,0,0,0,0,0,0,0,0,0,0,0,0,0,0,0,0,0,0,0,0,0,
0,0,0,0,0,0,0,0,0,0,0,0,0,0,0,0,0,0,0,0,0,0,0,0,0,0,0,0,0,0,0,0,0,0,0,0,0,0,0,0,0,0,0,0,0,0,0,0,0,0,0,0,0,0,0,0,0,0,0,0,0,0,0,0,0,0,0,0,0,0,0,0,0,0,0,0,0,0,0,0,0,0,0,0,0,0,0,0,0,0,0,0,0,0,0,0,0,0,0,0,0,0,0,0,0,0,0,0,0,0,0,0,0,0,0,0,0,0,0,0,0,0,0,0,0,0,0,0,0,0,0,0,0,0,0,0,0,0,0,0,0,0,0,0,0,0,0,0,0,0,0,0,0,0,0,0,0,0,0,0,0,0,0,0,0,0,0,0,0,0,0,0,0,0,0,0,0,0,0,0,0,0,0,0,0,0,0,0,0,0,0,0,0,0,0,0,0,0,0,0,0,0,0,0,0,0,0,0,0,0,0,0,0,0,0,0,0,0,0,0,0,0,0,0,0,0,0,0,0,0,0,0,0,0,0,0,0,0,0,0,
0,0,0,0,0,0,0,0,0,0,0,0,0,0,0,0,0,0,0,0,0,0,0,0,0,0,0,0,0,0,0,0,0,0,0,0,0,0,0,0,0,0,0,0,0,0,0,0,0,0,0,0,0,0,0,0,0,0,0,0,0,0,0,0,0,0,0,0,0,0,0,0,0,0,0,0,0,0,0,0,0,0,0,0,0,0,0,0,0,0,0,0,0,0,0,0,0,0,0,0,0,0,0,0,0,0,0,0,0,0,0,0,0,0,0,0,0,0,0,0,0,0,0,0,0,0,0,0,0,0,0,0,0,0,0,0,0,0,0,0,0,0,0,0,0,0,0,0,0,0,0,0,0,0,0,0,0,0,0,0,0,0,0,0,0,0,0,0,0,0,0,0,0,0,0,0,0,0,0,0,0,0,0,0,0,0,0,0,0,0,0,0,0,0,0,0,0,0,0,0,0,0,0,0,0,0,0,0,0,0,0,0,0,0,0,0,0,0,0,0,0,0,0,0,0,0,0,0,0,0,0,0,0,0,0,0,0,0,0,0,
0,0,0,0,0,0,0,0,0,0,0,0,0,0,0,0,0,0,0,0,0,0,0,0,0,0,0,0,0,0,0,0,0,0,0,0,0,0,0,0,0,0,0,0,0,0,0,0,0,0,0,0,0,0,0,0,0,0,0,0,0,0,0,0,0,0,0,0,0,0,0,0,0,0,0,0,0,0,0,0,0,0,0,0,0,0,0,0,0,0,0,0,0,0,0,0,0,0,0,0,0,0,0,0,0,0,0,0,0,0,0,0,0,0,0,0,0,0,0,0,0,0,0,0,0,0,0,0,0,0,0,0,0,0,0,0,0,0,0,0,0,0,0,0,0,0,0,0,0,0,0,0,0,0,0,0,0,0,0,0,0,0,0,0,0,0,0,0,0,0,0,0,0,0,0,0,0,0,0,0,0,0,0,0,0,0,0,0,0,0,0,0,0,0,0,0,0,0,0,0,0,0,0,0,0,0,0,0,0,0,0,0,0,0,0,0,0,0,0,0,0,0,0,0,0,0,0,0,0,0,0,0,0,0,0,0,0,0,0,0,
0,0,0,0,0,0,0,0,0,0,0,0,0,0,0,0,0,0,0,0,0,0,0,0,0,0,0,0,0,0,0,0,0,0,0,0,0,0,0,0,0,0,0,0,0,0,0,0,0,0,0,0,0,0,0,0,0,0,0,0,0,0,0,0,0,0,0,0,0,0,0,0,0,0,0,0,0,0,0,0,0,0,0,0,0,0,0,0,0,0,0,0,0,0,0,0,0,0,0,0,0,0,0,0,0,0,0,0,0,0,0,0,0,0,0,0,0,0,0,0,0,0,0,0,0,0,0,0,0,0,0,0,0,0,0,0,0,0,0,0,0,0,0,0,0,0,0,0,0,0,0,0,0,0,0,0,0,0,0,0,0,0,0,0,0,0,0,0,0,0,0,0,0,0,0,0,0,0,0,0,0,0,0,0,0,0,0,0,0,0,0,0,0,0,0,0,0,0,0,0,0,0,0,0,0,0,0,0,0,0,0,0,0,0,0,0,0,0,0,0,0,0,0,0,0,0,0,0,0,0,0,0,0,0,0,0,0,0,0,0,
0,0,0,0,0,0,0,0,0,0,0,0,0,0,0,0,0,0,0,0,0,0,0,0,0,0,0,0,0,0,0,0,0,0,0,0,0,0,0,0,0,0,0,0,0,0,0,0,0,0,0,0,0,0,0,0,0,0,0,0,0,0,0,0,0,0,0,0,0,0,0,0,0,0,0,0,0,0,0,0,0,0,0,0,0,0,0,0,0,0,0,0,0,0,0,0,0,0,0,0,0,0,0,0,0,0,0,0,0,0,0,0,0,0,0,0,0,0,0,0,0,0,0,0,0,0,0,0,0,0,0,0,0,0,0,0,0,0,0,0,0,0,0,0,0,0,0,0,0,0,0,0,0,0,0,0,0,0,0,0,0,0,0,0,0,0,0,0,0,0,0,0,0,0,0,0,0,0,0,0,0,0,0,0,0,0,0,0,0,0,0,0,0,0,0,0,0,0,0,0,0,0,0,0,0,0,0,0,0,0,0,0,0,0,0,0,0,0,0,0,0,0,0,0,0,0,0,0,0,0,0,0,0,0,0,0,0,0,0,0,
0,0,0,0,0,0,0,0,0,0,0,0,0,0,0,0,0,0,0,0,0,0,0,0,0,0,0,0,0,0,0,0,0,0,0,0,0,0,0,0,0,0,0,0,0,0,0,0,0,0,0,0,0,0,0,0,0,0,0,0,0,0,0,0,0,0,0,0,0,0,0,0,0,0,0,0,0,0,0,0,0,0,0,0,0,0,0,0,0,0,0,0,0,0,0,0,0,0,0,0,0,0,0,0,0,0,0,0,0,0,0,0,0,0,0,0,0,0,0,0,0,0,0,0,0,0,0,0,0,0,0,0,0,0,0,0,0,0,0,0,0,0,0,0,0,0,0,0,0,0,0,0,0,0,0,0,0,0,0,0,0,0,0,0,0,0,0,0,0,0,0,0,0,0,0,0,0,0,0,0,0,0,0,0,0,0,0,0,0,0,0,0,0,0,0,0,0,0,0,0,0,0,0,0,0,0,0,0,0,0,0,0,0,0,0,0,0,0,0,0,0,0,0,0,0,0,0,0,0,0,0,0,0,0,0,0,0,0,0,0,
0,0,0,0,0,0,0,0,0,0,0,0,0,0,0,0,0,0,0,0,0,0,0,0,0,0,0,0,0,0,0,0,0,0,0,0,0,0,0,0,0,0,0,0,0,0,0,0,0,0,0,0,0,0,0,0,0,0,0,0,0,0,0,0,0,0,0,0,0,0,0,0,0,0,0,0,0,0,0,0,0,0,0,0,0,0,0,0,0,0,0,0,0,0,0,0,0,0,0,0,0,0,0,0,0,0,0,0,0,0,0,0,0,0,0,0,0,0,0,0,0,0,0,0,0,0,0,0,0,0,0,0,0,0,0,0,0,0,0,0,0,0,0,0,0,0,0,0,0,0,0,0,0,0,0,0,0,0,0,0,0,0,0,0,0,0,0,0,0,0,0,0,0,0,0,0,0,0,0,0,0,0,0,0,0,0,0,0,0,0,0,0,0,0,0,0,0,0,0,0,0,0,0,0,0,0,0,0,0,0,0,0,0,0,0,0,0,0,0,0,0,0,0,0,0,0,0,0,0,0,0,0,0,0,0,0,0,0,0,0,
0,0,0,0,0,0,0,0,0,0,0,0,0,0,0,0,0,0,0,0,0,0,0,0,0,0,0,0,0,0,0,0,0,0,0,0,0,0,0,0,0,0,0,0,0,0,0,0,0,0,0,0,0,0,0,0,0,0,0,0,0,0,0,0,0,0,0,0,0,0,0,0,0,0,0,0,0,0,0,0,0,0,0,0,0,0,0,0,0,0,0,0,0,0,0,0,0,0,0,0,0,0,0,0,0,0,0,0,0,0,0,0,0,0,0,0,0,0,0,0,0,0,0,0,0,0,0,0,0,0,0,0,0,0,0,0,0,0,0,0,0,0,0,0,0,0,0,0,0,0,0,0,0,0,0,0,0,0,0,0,0,0,0,0,0,0,0,0,0,0,0,0,0,0,0,0,0,0,0,0,0,0,0,0,0,0,0,0,0,0,0,0,0,0,0,0,0,0,0,0,0,0,0,0,0,0,0,0,0,0,0,0,0,0,0,0,0,0,0,0,0,0,0,0,0,0,0,0,0,0,0,0,0,0,0,0,0,0,0,0,
0,0,0,0,0,0,0,0,0,0,0,0,0,0,0,0,0,0,0,0,0,0,0,0,0,0,0,0,0,0,0,0,0,0,0,0,0,0,0,0,0,0,0,0,0,0,0,0,0,0,0,0,0,0,0,0,0,0,0,0,0,0,0,0,0,0,0,0,0,0,0,0,0,0,0,0,0,0,0,0,0,0,0,0,0,0,0,0,0,0,0,0,0,0,0,0,0,0,0,0,0,0,0,0,0,0,0,0,0,0,0,0,0,0,0,0,0,0,0,0,0,0,0,0,0,0,0,0,0,0,0,0,0,0,0,0,0,0,0,0,0,0,0,0,0,0,0,0,0,0,0,0,0,0,0,0,0,0,0,0,0,0,0,0,0,0,0,0,0,0,0,0,0,0,0,0,0,0,0,0,0,0,0,0,0,0,0,0,0,0,0,0,0,0,0,0,0,0,0,0,0,0,0,0,0,0,0,0,0,0,0,0,0,0,0,0,0,0,0,0,0,0,0,0,0,0,0,0,0,0,0,0,0,0,0,0,0,0,0,0,
0,0,0,0,0,0,0,0,0,0,0,0,0,0,0,0,0,0,0,0,0,0,0,0,0,0,0,0,0,0,0,0,0,0,0,0,0,0,0,0,0,0,0,0,0,0,0,0,0,0,0,0,0,0,0,0,0,0,0,0,0,0,0,0,0,0,0,0,0,0,0,0,0,0,0,0,0,0,0,0,0,0,0,0,0,0,0,0,0,0,0,0,0,0,0,0,0,0,0,0,0,0,0,0,0,0,0,0,0,0,0,0,0,0,0,0,0,0,0,0,0,0,0,0,0,0,0,0,0,0,0,0,0,0,0,0,0,0,0,0,0,0,0,0,0,0,0,0,0,0,0,0,0,0,0,0,0,0,0,0,0,0,0,0,0,0,0,0,0,0,0,0,0,0,0,0,0,0,0,0,0,0,0,0,0,0,0,0,0,0,0,0,0,0,0,0,0,0,0,0,0,0,0,0,0,0,0,0,0,0,0,0,0,0,0,0,0,0,0,0,0,0,0,0,0,0,0,0,0,0,0,0,0,0,0,0,0,0,0,0,
0,0,0,0,0,0,0,0,0,0,0,0,0,0,0,0,0,0,0,0,0,0,0,0,0,0,0,0,0,0,0,0,0,0,0,0,0,0,0,0,0,0,0,0,0,0,0,0,0,0,0,0,0,0,0,0,0,0,0,0,0,0,0,0,0,0,0,0,0,0,0,0,0,0,0,0,0,0,0,0,0,0,0,0,0,0,0,0,0,0,0,0,0,0,0,0,0,0,0,0,0,0,0,0,0,0,0,0,0,0,0,0,0,0,0,0,0,0,0,0,0,0,0,0,0,0,0,0,0,0,0,0,0,0,0,0,0,0,0,0,0,0,0,0,0,0,0,0,0,0,0,0,0,0,0,0,0,0,0,0,0,0,0,0,0,0,0,0,0,0,0,0,0,0,0,0,0,0,0,0,0,0,0,0,0,0,0,0,0,0,0,0,0,0,0,0,0,0,0,0,0,0,0,0,0,0,0,0,0,0,0,0,0,0,0,0,0,0,0,0,0,0,0,0,0,0,0,0,0,0,0,0,0,0,0,0,0,0,0,0,
0,0,0,0,0,0,0,0,0,0,0,0,0,0,0,0,0,0,0,0,0,0,0,0,0,0,0,0,0,0,0,0,0,0,0,0,0,0,0,0,0,0,0,0,0,0,0,0,0,0,0,0,0,0,0,0,0,0,0,0,0,0,0,0,0,0,0,0,0,0,0,0,0,0,0,0,0,0,0,0,0,0,0,0,0,0,0,0,0,0,0,0,0,0,0,0,0,0,0,0,0,0,0,0,0,0,0,0,0,0,0,0,0,0,0,0,0,0,0,0,0,0,0,0,0,0,0,0,0,0,0,0,0,0,0,0,0,0,0,0,0,0,0,0,0,0,0,0,0,0,0,0,0,0,0,0,0,0,0,0,0,0,0,0,0,0,0,0,0,0,0,0,0,0,0,0,0,0,0,0,0,0,0,0,0,0,0,0,0,0,0,0,0,0,0,0,0,0,0,0,0,0,0,0,0,0,0,0,0,0,0,0,0,0,0,0,0,0,0,0,0,0,0,0,0,0,0,0,0,0,0,0,0,0,0,0,0,0,0,0,
0,0,0,0,0,0,0,0,0,0,0,0,0,0,0,0,0,0,0,0,0,0,0,0,0,0,0,0,0,0,0,0,0,0,0,0,0,0,0,0,0,0,0,0,0,0,0,0,0,0,0,0,0,0,0,0,0,0,0,0,0,0,0,0,0,0,0,0,0,0,0,0,0,0,0,0,0,0,0,0,0,0,0,0,0,0,0,0,0,0,0,0,0,0,0,0,0,0,0,0,0,0,0,0,0,0,0,0,0,0,0,0,0,0,0,0,0,0,0,0,0,0,0,0,0,0,0,0,0,0,0,0,0,0,0,0,0,0,0,0,0,0,0,0,0,0,0,0,0,0,0,0,0,0,0,0,0,0,0,0,0,0,0,0,0,0,0,0,0,0,0,0,0,0,0,0,0,0,0,0,0,0,0,0,0,0,0,0,0,0,0,0,0,0,0,0,0,0,0,0,0,0,0,0,0,0,0,0,0,0,0,0,0,0,0,0,0,0,0,0,0,0,0,0,0,0,0,0,0,0,0,0,0,0,0,0,0,0,0,0,
0,0,0,0,0,0,0,0,0,0,0,0,0,0,0,0,0,0,0,0,0,0,0,0,0,0,0,0,0,0,0,0,0,0,0,0,0,0,0,0,0,0,0,0,0,0,0,0,0,0,0,0,0,0,0,0,0,0,0,0,0,0,0,0,0,0,0,0,0,0,0,0,0,0,0,0,0,0,0,0,0,0,0,0,0,0,0,0,0,0,0,0,0,0,0,0,0,0,0,0,0,0,0,0,0,0,0,0,0,0,0,0,0,0,0,0,0,0,0,0,0,0,0,0,0,0,0,0,0,0,0,0,0,0,0,0,0,0,0,0,0,0,0,0,0,0,0,0,0,0,0,0,0,0,0,0,0,0,0,0,0,0,0,0,0,0,0,0,0,0,0,0,0,0,0,0,0,0,0,0,0,0,0,0,0,0,0,0,0,0,0,0,0,0,0,0,0,0,0,0,0,0,0,0,0,0,0,0,0,0,0,0,0,0,0,0,0,0,0,0,0,0,0,0,0,0,0,0,0,0,0,0,0,0,0,0,0,0,0,0,
0,0,0,0,0,0,0,0,0,0,0,0,0,0,0,0,0,0,0,0,0,0,0,0,0,0,0,0,0,0,0,0,0,0,0,0,0,0,0,0,0,0,0,0,0,0,0,0,0,0,0,0,0,0,0,0,0,0,0,0,0,0,0,0,0,0,0,0,0,0,0,0,0,0,0,0,0,0,0,0,0,0,0,0,0,0,0,0,0,0,0,0,0,0,0,0,0,0,0,0,0,0,0,0,0,0,0,0,0,0,0,0,0,0,0,0,0,0,0,0,0,0,0,0,0,0,0,0,0,0,0,0,0,0,0,0,0,0,0,0,0,0,0,0,0,0,0,0,0,0,0,0,0,0,0,0,0,0,0,0,0,0,0,0,0,0,0,0,0,0,0,0,0,0,0,0,0,0,0,0,0,0,0,0,0,0,0,0,0,0,0,0,0,0,0,0,0,0,0,0,0,0,0,0,0,0,0,0,0,0,0,0,0,0,0,0,0,0,0,0,0,0,0,0,0,0,0,0,0,0,0,0,0,0,0,0,0,0,0,0,
0,0,0,0,0,0,0,0,0,0,0,0,0,0,0,0,0,0,0,0,0,0,0,0,0,0,0,0,0,0,0,0,0,0,0,0,0,0,0,0,0,0,0,0,0,0,0,0,0,0,0,0,0,0,0,0,0,0,0,0,0,0,0,0,0,0,0,0,0,0,0,0,0,0,0,0,0,0,0,0,0,0,0,0,0,0,0,0,0,0,0,0,0,0,0,0,0,0,0,0,0,0,0,0,0,0,0,0,0,0,0,0,0,0,0,0,0,0,0,0,0,0,0,0,0,0,0,0,0,0,0,0,0,0,0,0,0,0,0,0,0,0,0,0,0,0,0,0,0,0,0,0,0,0,0,0,0,0,0,0,0,0,0,0,0,0,0,0,0,0,0,0,0,0,0,0,0,0,0,0,0,0,0,0,0,0,0,0,0,0,0,0,0,0,0,0,0,0,0,0,0,0,0,0,0,0,0,0,0,0,0,0,0,0,0,0,0,0,0,0,0,0,0,0,0,0,0,0,0,0,0,0,0,0,0,0,0,0,0,0,
0,0,0,0,0,0,0,0,0,0,0,0,0,0,0,0,0,0,0,0,0,0,0,0,0,0,0,0,0,0,0,0,0,0,0,0,0,0,0,0,0,0,0,0,0,0,0,0,0,0,0,0,0,0,0,0,0,0,0,0,0,0,0,0,0,0,0,0,0,0,0,0,0,0,0,0,0,0,0,0,0,0,0,0,0,0,0,0,0,0,0,0,0,0,0,0,0,0,0,0,0,0,0,0,0,0,0,0,0,0,0,0,0,0,0,0,0,0,0,0,0,0,0,0,0,0,0,0,0,0,0,0,0,0,0,0,0,0,0,0,0,0,0,0,0,0,0,0,0,0,0,0,0,0,0,0,0,0,0,0,0,0,0,0,0,0,0,0,0,0,0,0,0,0,0,0,0,0,0,0,0,0,0,0,0,0,0,0,0,0,0,0,0,0,0,0,0,0,0,0,0,0,0,0,0,0,0,0,0,0,0,0,0,0,0,0,0,0,0,0,0,0,0,0,0,0,0,0,0,0,0,0,0,0,0,0,0,0,0,0,
0,0,0,0,0,0,0,0,0,0,0,0,0,0,0,0,0,0,0,0,0,0,0,0,0,0,0,0,0,0,0,0,0,0,0,0,0,0,0,0,0,0,0,0,0,0,0,0,0,0,0,0,0,0,0,0,0,0,0,0,0,0,0,0,0,0,0,0,0,0,0,0,0,0,0,0,0,0,0,0,0,0,0,0,0,0,0,0,0,0,0,0,0,0,0,0,0,0,0,0,0,0,0,0,0,0,0,0,0,0,0,0,0,0,0,0,0,0,0,0,0,0,0,0,0,0,0,0,0,0,0,0,0,0,0,0,0,0,0,0,0,0,0,0,0,0,0,0,0,0,0,0,0,0,0,0,0,0,0,0,0,0,0,0,0,0,0,0,0,0,0,0,0,0,0,0,0,0,0,0,0,0,0,0,0,0,0,0,0,0,0,0,0,0,0,0,0,0,0,0,0,0,0,0,0,0,0,0,0,0,0,0,0,0,0,0,0,0,0,0,0,0,0,0,0,0,0,0,0,0,0,0,0,0,0,0,0,0,0,0,
0,0,0,0,0,0,0,0,0,0,0,0,0,0,0,0,0,0,0,0,0,0,0,0,0,0,0,0,0,0,0,0,0,0,0,0,0,0,0,0,0,0,0,0,0,0,0,0,0,0,0,0,0,0,0,0,0,0,0,0,0,0,0,0,0,0,0,0,0,0,0,0,0,0,0,0,0,0,0,0,0,0,0,0,0,0,0,0,0,0,0,0,0,0,0,0,0,0,0,0,0,0,0,0,0,0,0,0,0,0,0,0,0,0,0,0,0,0,0,0,0,0,0,0,0,0,0,0,0,0,0,0,0,0,0,0,0,0,0,0,0,0,0,0,0,0,0,0,0,0,0,0,0,0,0,0,0,0,0,0,0,0,0,0,0,0,0,0,0,0,0,0,0,0,0,0,0,0,0,0,0,0,0,0,0,0,0,0,0,0,0,0,0,0,0,0,0,0,0,0,0,0,0,0,0,0,0,0,0,0,0,0,0,0,0,0,0,0,0,0,0,0,0,0,0,0,0,0,0,0,0,0,0,0,0,0,0,0,0,0,
0,0,0,0,0,0,0,0,0,0,0,0,0,0,0,0,0,0,0,0,0,0,0,0,0,0,0,0,0,0,0,0,0,0,0,0,0,0,0,0,0,0,0,0,0,0,0,0,0,0,0,0,0,0,0,0,0,0,0,0,0,0,0,0,0,0,0,0,0,0,0,0,0,0,0,0,0,0,0,0,0,0,0,0,0,0,0,0,0,0,0,0,0,0,0,0,0,0,0,0,0,0,0,0,0,0,0,0,0,0,0,0,0,0,0,0,0,0,0,0,0,0,0,0,0,0,0,0,0,0,0,0,0,0,0,0,0,0,0,0,0,0,0,0,0,0,0,0,0,0,0,0,0,0,0,0,0,0,0,0,0,0,0,0,0,0,0,0,0,0,0,0,0,0,0,0,0,0,0,0,0,0,0,0,0,0,0,0,0,0,0,0,0,0,0,0,0,0,0,0,0,0,0,0,0,0,0,0,0,0,0,0,0,0,0,0,0,0,0,0,0,0,0,0,0,0,0,0,0,0,0,0,0,0,0,0,0,0,0,0,
0,0,0,0,0,0,0,0,0,0,0,0,0,0,0,0,0,0,0,0,0,0,0,0,0,0,0,0,0,0,0,0,0,0,0,0,0,0,0,0,0,0,0,0,0,0,0,0,0,0,0,0,0,0,0,0,0,0,0,0,0,0,0,0,0,0,0,0,0,0,0,0,0,0,0,0,0,0,0,0,0,0,0,0,0,0,0,0,0,0,0,0,0,0,0,0,0,0,0,0,0,0,0,0,0,0,0,0,0,0,0,0,0,0,0,0,0,0,0,0,0,0,0,0,0,0,0,0,0,0,0,0,0,0,0,0,0,0,0,0,0,0,0,0,0,0,0,0,0,0,0,0,0,0,0,0,0,0,0,0,0,0,0,0,0,0,0,0,0,0,0,0,0,0,0,0,0,0,0,0,0,0,0,0,0,0,0,0,0,0,0,0,0,0,0,0,0,0,0,0,0,0,0,0,0,0,0,0,0,0,0,0,0,0,0,0,0,0,0,0,0,0,0,0,0,0,0,0,0,0,0,0,0,0,0,0,0,0,0,0,
0,0,0,0,0,0,0,0,0,0,0,0,0,0,0,0,0,0,0,0,0,0,0,0,0,0,0,0,0,0,0,0,0,0,0,0,0,0,0,0,0,0,0,0,0,0,0,0,0,0,0,0,0,0,0,0,0,0,0,0,0,0,0,0,0,0,0,0,0,0,0,0,0,0,0,0,0,0,0,0,0,0,0,0,0,0,0,0,0,0,0,0,0,0,0,0,0,0,0,0,0,0,0,0,0,0,0,0,0,0,0,0,0,0,0,0,0,0,0,0,0,0,0,0,0,0,0,0,0,0,0,0,0,0,0,0,0,0,0,0,0,0,0,0,0,0,0,0,0,0,0,0,0,0,0,0,0,0,0,0,0,0,0,0,0,0,0,0,0,0,0,0,0,0,0,0,0,0,0,0,0,0,0,0,0,0,0,0,0,0,0,0,0,0,0,0,0,0,0,0,0,0,0,0,0,0,0,0,0,0,0,0,0,0,0,0,0,0,0,0,0,0,0,0,0,0,0,0,0,0,0,0,0,0,0,0,0,0,0,0,
0,0,0,0,0,0,0,0,0,0,0,0,0,0,0,0,0,0,0,0,0,0,0,0,0,0,0,0,0,0,0,0,0,0,0,0,0,0,0,0,0,0,0,0,0,0,0,0,0,0,0,0,0,0,0,0,0,0,0,0,0,0,0,0,0,0,0,0,0,0,0,0,0,0,0,0,0,0,0,0,0,0,0,0,0,0,0,0,0,0,0,0,0,0,0,0,0,0,0,0,0,0,0,0,0,0,0,0,0,0,0,0,0,0,0,0,0,0,0,0,0,0,0,0,0,0,0,0,0,0,0,0,0,0,0,0,0,0,0,0,0,0,0,0,0,0,0,0,0,0,0,0,0,0,0,0,0,0,0,0,0,0,0,0,0,0,0,0,0,0,0,0,0,0,0,0,0,0,0,0,0,0,0,0,0,0,0,0,0,0,0,0,0,0,0,0,0,0,0,0,0,0,0,0,0,0,0,0,0,0,0,0,0,0,0,0,0,0,0,0,0,0,0,0,0,0,0,0,0,0,0,0,0,0,0,0,0,0,0,0,
0,0,0,0,0,0,0,0,0,0,0,0,0,0,0,0,0,0,0,0,0,0,0,0,0,0,0,0,0,0,0,0,0,0,0,0,0,0,0,0,0,0,0,0,0,0,0,0,0,0,0,0,0,0,0,0,0,0,0,0,0,0,0,0,0,0,0,0,0,0,0,0,0,0,0,0,0,0,0,0,0,0,0,0,0,0,0,0,0,0,0,0,0,0,0,0,0,0,0,0,0,0,0,0,0,0,0,0,0,0,0,0,0,0,0,0,0,0,0,0,0,0,0,0,0,0,0,0,0,0,0,0,0,0,0,0,0,0,0,0,0,0,0,0,0,0,0,0,0,0,0,0,0,0,0,0,0,0,0,0,0,0,0,0,0,0,0,0,0,0,0,0,0,0,0,0,0,0,0,0,0,0,0,0,0,0,0,0,0,0,0,0,0,0,0,0,0,0,0,0,0,0,0,0,0,0,0,0,0,0,0,0,0,0,0,0,0,0,0,0,0,0,0,0,0,0,0,0,0,0,0,0,0,0,0,0,0,0,0,0,
0,0,0,0,0,0,0,0,0,0,0,0,0,0,0,0,0,0,0,0,0,0,0,0,0,0,0,0,0,0,0,0,0,0,0,0,0,0,0,0,0,0,0,0,0,0,0,0,0,0,0,0,0,0,0,0,0,0,0,0,0,0,0,0,0,0,0,0,0,0,0,0,0,0,0,0,0,0,0,0,0,0,0,0,0,0,0,0,0,0,0,0,0,0,0,0,0,0,0,0,0,0,0,0,0,0,0,0,0,0,0,0,0,0,0,0,0,0,0,0,0,0,0,0,0,0,0,0,0,0,0,0,0,0,0,0,0,0,0,0,0,0,0,0,0,0,0,0,0,0,0,0,0,0,0,0,0,0,0,0,0,0,0,0,0,0,0,0,0,0,0,0,0,0,0,0,0,0,0,0,0,0,0,0,0,0,0,0,0,0,0,0,0,0,0,0,0,0,0,0,0,0,0,0,0,0,0,0,0,0,0,0,0,0,0,0,0,0,0,0,0,0,0,0,0,0,0,0,0,0,0,0,0,0,0,0,0,0,0,0,
0,0,0,0,0,0,0,0,0,0,0,0,0,0,0,0,0,0,0,0,0,0,0,0,0,0,0,0,0,0,0,0,0,0,0,0,0,0,0,0,0,0,0,0,0,0,0,0,0,0,0,0,0,0,0,0,0,0,0,0,0,0,0,0,0,0,0,0,0,0,0,0,0,0,0,0,0,0,0,0,0,0,0,0,0,0,0,0,0,0,0,0,0,0,0,0,0,0,0,0,0,0,0,0,0,0,0,0,0,0,0,0,0,0,0,0,0,0,0,0,0,0,0,0,0,0,0,0,0,0,0,0,0,0,0,0,0,0,0,0,0,0,0,0,0,0,0,0,0,0,0,0,0,0,0,0,0,0,0,0,0,0,0,0,0,0,0,0,0,0,0,0,0,0,0,0,0,0,0,0,0,0,0,0,0,0,0,0,0,0,0,0,0,0,0,0,0,0,0,0,0,0,0,0,0,0,0,0,0,0,0,0,0,0,0,0,0,0,0,0,0,0,0,0,0,0,0,0,0,0,0,0,0,0,0,0,0,0,0,0,
0,0,0,0,0,0,0,0,0,0,0,0,0,0,0,0,0,0,0,0,0,0,0,0,0,0,0,0,0,0,0,0,0,0,0,0,0,0,0,0,0,0,0,0,0,0,0,0,0,0,0,0,0,0,0,0,0,0,0,0,0,0,0,0,0,0,0,0,0,0,0,0,0,0,0,0,0,0,0,0,0,0,0,0,0,0,0,0,0,0,0,0,0,0,0,0,0,0,0,0,0,0,0,0,0,0,0,0,0,0,0,0,0,0,0,0,0,0,0,0,0,0,0,0,0,0,0,0,0,0,0,0,0,0,0,0,0,0,0,0,0,0,0,0,0,0,0,0,0,0,0,0,0,0,0,0,0,0,0,0,0,0,0,0,0,0,0,0,0,0,0,0,0,0,0,0,0,0,0,0,0,0,0,0,0,0,0,0,0,0,0,0,0,0,0,0,0,0,0,0,0,0,0,0,0,0,0,0,0,0,0,0,0,0,0,0,0,0,0,0,0,0,0,0,0,0,0,0,0,0,0,0,0,0,0,0,0,0,0,0,
0,0,0,0,0,0,0,0,0,0,0,0,0,0,0,0,0,0,0,0,0,0,0,0,0,0,0,0,0,0,0,0,0,0,0,0,0,0,0,0,0,0,0,0,0,0,0,0,0,0,0,0,0,0,0,0,0,0,0,0,0,0,0,0,0,0,0,0,0,0,0,0,0,0,0,0,0,0,0,0,0,0,0,0,0,0,0,0,0,0,0,0,0,0,0,0,0,0,0,0,0,0,0,0,0,0,0,0,0,0,0,0,0,0,0,0,0,0,0,0,0,0,0,0,0,0,0,0,0,0,0,0,0,0,0,0,0,0,0,0,0,0,0,0,0,0,0,0,0,0,0,0,0,0,0,0,0,0,0,0,0,0,0,0,0,0,0,0,0,0,0,0,0,0,0,0,0,0,0,0,0,0,0,0,0,0,0,0,0,0,0,0,0,0,0,0,0,0,0,0,0,0,0,0,0,0,0,0,0,0,0,0,0,0,0,0,0,0,0,0,0,0,0,0,0,0,0,0,0,0,0,0,0,0,0,0,0,0,0,0,
0,0,0,0,0,0,0,0,0,0,0,0,0,0,0,0,0,0,0,0,0,0,0,0,0,0,0,0,0,0,0,0,0,0,0,0,0,0,0,0,0,0,0,0,0,0,0,0,0,0,0,0,0,0,0,0,0,0,0,0,0,0,0,0,0,0,0,0,0,0,0,0,0,0,0,0,0,0,0,0,0,0,0,0,0,0,0,0,0,0,0,0,0,0,0,0,0,0,0,0,0,0,0,0,0,0,0,0,0,0,0,0,0,0,0,0,0,0,0,0,0,0,0,0,0,0,0,0,0,0,0,0,0,0,0,0,0,0,0,0,0,0,0,0,0,0,0,0,0,0,0,0,0,0,0,0,0,0,0,0,0,0,0,0,0,0,0,0,0,0,0,0,0,0,0,0,0,0,0,0,0,0,0,0,0,0,0,0,0,0,0,0,0,0,0,0,0,0,0,0,0,0,0,0,0,0,0,0,0,0,0,0,0,0,0,0,0,0,0,0,0,0,0,0,0,0,0,0,0,0,0,0,0,0,0,0,0,0,0,0,
0,0,0,0,0,0,0,0,0,0,0,0,0,0,0,0,0,0,0,0,0,0,0,0,0,0,0,0,0,0,0,0,0,0,0,0,0,0,0,0,0,0,0,0,0,0,0,0,0,0,0,0,0,0,0,0,0,0,0,0,0,0,0,0,0,0,0,0,0,0,0,0,0,0,0,0,0,0,0,0,0,0,0,0,0,0,0,0,0,0,0,0,0,0,0,0,0,0,0,0,0,0,0,0,0,0,0,0,0,0,0,0,0,0,0,0,0,0,0,0,0,0,0,0,0,0,0,0,0,0,0,0,0,0,0,0,0,0,0,0,0,0,0,0,0,0,0,0,0,0,0,0,0,0,0,0,0,0,0,0,0,0,0,0,0,0,0,0,0,0,0,0,0,0,0,0,0,0,0,0,0,0,0,0,0,0,0,0,0,0,0,0,0,0,0,0,0,0,0,0,0,0,0,0,0,0,0,0,0,0,0,0,0,0,0,0,0,0,0,0,0,0,0,0,0,0,0,0,0,0,0,0,0,0,0,0,0,0,0,0,
0,0,0,0,0,0,0,0,0,0,0,0,0,0,0,0,0,0,0,0,0,0,0,0,0,0,0,0,0,0,0,0,0,0,0,0,0,0,0,0,0,0,0,0,0,0,0,0,0,0,0,0,0,0,0,0,0,0,0,0,0,0,0,0,0,0,0,0,0,0,0,0,0,0,0,0,0,0,0,0,0,0,0,0,0,0,0,0,0,0,0,0,0,0,0,0,0,0,0,0,0,0,0,0,0,0,0,0,0,0,0,0,0,0,0,0,0,0,0,0,0,0,0,0,0,0,0,0,0,0,0,0,0,0,0,0,0,0,0,0,0,0,0,0,0,0,0,0,0,0,0,0,0,0,0,0,0,0,0,0,0,0,0,0,0,0,0,0,0,0,0,0,0,0,0,0,0,0,0,0,0,0,0,0,0,0,0,0,0,0,0,0,0,0,0,0,0,0,0,0,0,0,0,0,0,0,0,0,0,0,0,0,0,0,0,0,0,0,0,0,0,0,0,0,0,0,0,0,0,0,0,0,0,0,0,0,0,0,0,0,
0,0,0,0,0,0,0,0,0,0,0,0,0,0,0,0,0,0,0,0,0,0,0,0,0,0,0,0,0,0,0,0,0,0,0,0,0,0,0,0,0,0,0,0,0,0,0,0,0,0,0,0,0,0,0,0,0,0,0,0,0,0,0,0,0,0,0,0,0,0,0,0,0,0,0,0,0,0,0,0,0,0,0,0,0,0,0,0,0,0,0,0,0,0,0,0,0,0,0,0,0,0,0,0,0,0,0,0,0,0,0,0,0,0,0,0,0,0,0,0,0,0,0,0,0,0,0,0,0,0,0,0,0,0,0,0,0,0,0,0,0,0,0,0,0,0,0,0,0,0,0,0,0,0,0,0,0,0,0,0,0,0,0,0,0,0,0,0,0,0,0,0,0,0,0,0,0,0,0,0,0,0,0,0,0,0,0,0,0,0,0,0,0,0,0,0,0,0,0,0,0,0,0,0,0,0,0,0,0,0,0,0,0,0,0,0,0,0,0,0,0,0,0,0,0,0,0,0,0,0,0,0,0,0,0,0,0,0,0,0,
0,0,0,0,0,0,0,0,0,0,0,0,0,0,0,0,0,0,0,0,0,0,0,0,0,0,0,0,0,0,0,0,0,0,0,0,0,0,0,0,0,0,0,0,0,0,0,0,0,0,0,0,0,0,0,0,0,0,0,0,0,0,0,0,0,0,0,0,0,0,0,0,0,0,0,0,0,0,0,0,0,0,0,0,0,0,0,0,0,0,0,0,0,0,0,0,0,0,0,0,0,0,0,0,0,0,0,0,0,0,0,0,0,0,0,0,0,0,0,0,0,0,0,0,0,0,0,0,0,0,0,0,0,0,0,0,0,0,0,0,0,0,0,0,0,0,0,0,0,0,0,0,0,0,0,0,0,0,0,0,0,0,0,0,0,0,0,0,0,0,0,0,0,0,0,0,0,0,0,0,0,0,0,0,0,0,0,0,0,0,0,0,0,0,0,0,0,0,0,0,0,0,0,0,0,0,0,0,0,0,0,0,0,0,0,0,0,0,0,0,0,0,0,0,0,0,0,0,0,0,0,0,0,0,0,0,0,0,0,0,
0,0,0,0,0,0,0,0,0,0,0,0,0,0,0,0,0,0,0,0,0,0,0,0,0,0,0,0,0,0,0,0,0,0,0,0,0,0,0,0,0,0,0,0,0,0,0,0,0,0,0,0,0,0,0,0,0,0,0,0,0,0,0,0,0,0,0,0,0,0,0,0,0,0,0,0,0,0,0,0,0,0,0,0,0,0,0,0,0,0,0,0,0,0,0,0,0,0,0,0,0,0,0,0,0,0,0,0,0,0,0,0,0,0,0,0,0,0,0,0,0,0,0,0,0,0,0,0,0,0,0,0,0,0,0,0,0,0,0,0,0,0,0,0,0,0,0,0,0,0,0,0,0,0,0,0,0,0,0,0,0,0,0,0,0,0,0,0,0,0,0,0,0,0,0,0,0,0,0,0,0,0,0,0,0,0,0,0,0,0,0,0,0,0,0,0,0,0,0,0,0,0,0,0,0,0,0,0,0,0,0,0,0,0,0,0,0,0,0,0,0,0,0,0,0,0,0,0,0,0,0,0,0,0,0,0,0,0,0,0,
0,0,0,0,0,0,0,0,0,0,0,0,0,0,0,0,0,0,0,0,0,0,0,0,0,0,0,0,0,0,0,0,0,0,0,0,0,0,0,0,0,0,0,0,0,0,0,0,0,0,0,0,0,0,0,0,0,0,0,0,0,0,0,0,0,0,0,0,0,0,0,0,0,0,0,0,0,0,0,0,0,0,0,0,0,0,0,0,0,0,0,0,0,0,0,0,0,0,0,0,0,0,0,0,0,0,0,0,0,0,0,0,0,0,0,0,0,0,0,0,0,0,0,0,0,0,0,0,0,0,0,0,0,0,0,0,0,0,0,0,0,0,0,0,0,0,0,0,0,0,0,0,0,0,0,0,0,0,0,0,0,0,0,0,0,0,0,0,0,0,0,0,0,0,0,0,0,0,0,0,0,0,0,0,0,0,0,0,0,0,0,0,0,0,0,0,0,0,0,0,0,0,0,0,0,0,0,0,0,0,0,0,0,0,0,0,0,0,0,0,0,0,0,0,0,0,0,0,0,0,0,0,0,0,0,0,0,0,0,0,
0,0,0,0,0,0,0,0,0,0,0,0,0,0,0,0,0,0,0,0,0,0,0,0,0,0,0,0,0,0,0,0,0,0,0,0,0,0,0,0,0,0,0,0,0,0,0,0,0,0,0,0,0,0,0,0,0,0,0,0,0,0,0,0,0,0,0,0,0,0,0,0,0,0,0,0,0,0,0,0,0,0,0,0,0,0,0,0,0,0,0,0,0,0,0,0,0,0,0,0,0,0,0,0,0,0,0,0,0,0,0,0,0,0,0,0,0,0,0,0,0,0,0,0,0,0,0,0,0,0,0,0,0,0,0,0,0,0,0,0,0,0,0,0,0,0,0,0,0,0,0,0,0,0,0,0,0,0,0,0,0,0,0,0,0,0,0,0,0,0,0,0,0,0,0,0,0,0,0,0,0,0,0,0,0,0,0,0,0,0,0,0,0,0,0,0,0,0,0,0,0,0,0,0,0,0,0,0,0,0,0,0,0,0,0,0,0,0,0,0,0,0,0,0,0,0,0,0,0,0,0,0,0,0,0,0,0,0,0,0,
0,0,0,0,0,0,0,0,0,0,0,0,0,0,0,0,0,0,0,0,0,0,0,0,0,0,0,0,0,0,0,0,0,0,0,0,0,0,0,0,0,0,0,0,0,0,0,0,0,0,0,0,0,0,0,0,0,0,0,0,0,0,0,0,0,0,0,0,0,0,0,0,0,0,0,0,0,0,0,0,0,0,0,0,0,0,0,0,0,0,0,0,0,0,0,0,0,0,0,0,0,0,0,0,0,0,0,0,0,0,0,0,0,0,0,0,0,0,0,0,0,0,0,0,0,0,0,0,0,0,0,0,0,0,0,0,0,0,0,0,0,0,0,0,0,0,0,0,0,0,0,0,0,0,0,0,0,0,0,0,0,0,0,0,0,0,0,0,0,0,0,0,0,0,0,0,0,0,0,0,0,0,0,0,0,0,0,0,0,0,0,0,0,0,0,0,0,0,0,0,0,0,0,0,0,0,0,0,0,0,0,0,0,0,0,0,0,0,0,0,0,0,0,0,0,0,0,0,0,0,0,0,0,0,0,0,0,0,0,0,
0,0,0,0,0,0,0,0,0,0,0,0,0,0,0,0,0,0,0,0,0,0,0,0,0,0,0,0,0,0,0,0,0,0,0,0,0,0,0,0,0,0,0,0,0,0,0,0,0,0,0,0,0,0,0,0,0,0,0,0,0,0,0,0,0,0,0,0,0,0,0,0,0,0,0,0,0,0,0,0,0,0,0,0,0,0,0,0,0,0,0,0,0,0,0,0,0,0,0,0,0,0,0,0,0,0,0,0,0,0,0,0,0,0,0,0,0,0,0,0,0,0,0,0,0,0,0,0,0,0,0,0,0,0,0,0,0,0,0,0,0,0,0,0,0,0,0,0,0,0,0,0,0,0,0,0,0,0,0,0,0,0,0,0,0,0,0,0,0,0,0,0,0,0,0,0,0,0,0,0,0,0,0,0,0,0,0,0,0,0,0,0,0,0,0,0,0,0,0,0,0,0,0,0,0,0,0,0,0,0,0,0,0,0,0,0,0,0,0,0,0,0,0,0,0,0,0,0,0,0,0,0,0,0,0,0,0,0,0,0,
0,0,0,0,0,0,0,0,0,0,0,0,0,0,0,0,0,0,0,0,0,0,0,0,0,0,0,0,0,0,0,0,0,0,0,0,0,0,0,0,0,0,0,0,0,0,0,0,0,0,0,0,0,0,0,0,0,0,0,0,0,0,0,0,0,0,0,0,0,0,0,0,0,0,0,0,0,0,0,0,0,0,0,0,0,0,0,0,0,0,0,0,0,0,0,0,0,0,0,0,0,0,0,0,0,0,0,0,0,0,0,0,0,0,0,0,0,0,0,0,0,0,0,0,0,0,0,0,0,0,0,0,0,0,0,0,0,0,0,0,0,0,0,0,0,0,0,0,0,0,0,0,0,0,0,0,0,0,0,0,0,0,0,0,0,0,0,0,0,0,0,0,0,0,0,0,0,0,0,0,0,0,0,0,0,0,0,0,0,0,0,0,0,0,0,0,0,0,0,0,0,0,0,0,0,0,0,0,0,0,0,0,0,0,0,0,0,0,0,0,0,0,0,0,0,0,0,0,0,0,0,0,0,0,0,0,0,0,0,0,
0,0,0,0,0,0,0,0,0,0,0,0,0,0,0,0,0,0,0,0,0,0,0,0,0,0,0,0,0,0,0,0,0,0,0,0,0,0,0,0,0,0,0,0,0,0,0,0,0,0,0,0,0,0,0,0,0,0,0,0,0,0,0,0,0,0,0,0,0,0,0,0,0,0,0,0,0,0,0,0,0,0,0,0,0,0,0,0,0,0,0,0,0,0,0,0,0,0,0,0,0,0,0,0,0,0,0,0,0,0,0,0,0,0,0,0,0,0,0,0,0,0,0,0,0,0,0,0,0,0,0,0,0,0,0,0,0,0,0,0,0,0,0,0,0,0,0,0,0,0,0,0,0,0,0,0,0,0,0,0,0,0,0,0,0,0,0,0,0,0,0,0,0,0,0,0,0,0,0,0,0,0,0,0,0,0,0,0,0,0,0,0,0,0,0,0,0,0,0,0,0,0,0,0,0,0,0,0,0,0,0,0,0,0,0,0,0,0,0,0,0,0,0,0,0,0,0,0,0,0,0,0,0,0,0,0,0,0,0,0,
0,0,0,0,0,0,0,0,0,0,0,0,0,0,0,0,0,0,0,0,0,0,0,0,0,0,0,0,0,0,0,0,0,0,0,0,0,0,0,0,0,0,0,0,0,0,0,0,0,0,0,0,0,0,0,0,0,0,0,0,0,0,0,0,0,0,0,0,0,0,0,0,0,0,0,0,0,0,0,0,0,0,0,0,0,0,0,0,0,0,0,0,0,0,0,0,0,0,0,0,0,0,0,0,0,0,0,0,0,0,0,0,0,0,0,0,0,0,0,0,0,0,0,0,0,0,0,0,0,0,0,0,0,0,0,0,0,0,0,0,0,0,0,0,0,0,0,0,0,0,0,0,0,0,0,0,0,0,0,0,0,0,0,0,0,0,0,0,0,0,0,0,0,0,0,0,0,0,0,0,0,0,0,0,0,0,0,0,0,0,0,0,0,0,0,0,0,0,0,0,0,0,0,0,0,0,0,0,0,0,0,0,0,0,0,0,0,0,0,0,0,0,0,0,0,0,0,0,0,0,0,0,0,0,0,0,0,0,0,0,
0,0,0,0,0,0,0,0,0,0,0,0,0,0,0,0,0,0,0,0,0,0,0,0,0,0,0,0,0,0,0,0,0,0,0,0,0,0,0,0,0,0,0,0,0,0,0,0,0,0,0,0,0,0,0,0,0,0,0,0,0,0,0,0,0,0,0,0,0,0,0,0,0,0,0,0,0,0,0,0,0,0,0,0,0,0,0,0,0,0,0,0,0,0,0,0,0,0,0,0,0,0,0,0,0,0,0,0,0,0,0,0,0,0,0,0,0,0,0,0,0,0,0,0,0,0,0,0,0,0,0,0,0,0,0,0,0,0,0,0,0,0,0,0,0,0,0,0,0,0,0,0,0,0,0,0,0,0,0,0,0,0,0,0,0,0,0,0,0,0,0,0,0,0,0,0,0,0,0,0,0,0,0,0,0,0,0,0,0,0,0,0,0,0,0,0,0,0,0,0,0,0,0,0,0,0,0,0,0,0,0,0,0,0,0,0,0,0,0,0,0,0,0,0,0,0,0,0,0,0,0,0,0,0,0,0,0,0,0,0,
0,0,0,0,0,0,0,0,0,0,0,0,0,0,0,0,0,0,0,0,0,0,0,0,0,0,0,0,0,0,0,0,0,0,0,0,0,0,0,0,0,0,0,0,0,0,0,0,0,0,0,0,0,0,0,0,0,0,0,0,0,0,0,0,0,0,0,0,0,0,0,0,0,0,0,0,0,0,0,0,0,0,0,0,0,0,0,0,0,0,0,0,0,0,0,0,0,0,0,0,0,0,0,0,0,0,0,0,0,0,0,0,0,0,0,0,0,0,0,0,0,0,0,0,0,0,0,0,0,0,0,0,0,0,0,0,0,0,0,0,0,0,0,0,0,0,0,0,0,0,0,0,0,0,0,0,0,0,0,0,0,0,0,0,0,0,0,0,0,0,0,0,0,0,0,0,0,0,0,0,0,0,0,0,0,0,0,0,0,0,0,0,0,0,0,0,0,0,0,0,0,0,0,0,0,0,0,0,0,0,0,0,0,0,0,0,0,0,0,0,0,0,0,0,0,0,0,0,0,0,0,0,0,0,0,0,0,0,0,0,
0,0,0,0,0,0,0,0,0,0,0,0,0,0,0,0,0,0,0,0,0,0,0,0,0,0,0,0,0,0,0,0,0,0,0,0,0,0,0,0,0,0,0,0,0,0,0,0,0,0,0,0,0,0,0,0,0,0,0,0,0,0,0,0,0,0,0,0,0,0,0,0,0,0,0,0,0,0,0,0,0,0,0,0,0,0,0,0,0,0,0,0,0,0,0,0,0,0,0,0,0,0,0,0,0,0,0,0,0,0,0,0,0,0,0,0,0,0,0,0,0,0,0,0,0,0,0,0,0,0,0,0,0,0,0,0,0,0,0,0,0,0,0,0,0,0,0,0,0,0,0,0,0,0,0,0,0,0,0,0,0,0,0,0,0,0,0,0,0,0,0,0,0,0,0,0,0,0,0,0,0,0,0,0,0,0,0,0,0,0,0,0,0,0,0,0,0,0,0,0,0,0,0,0,0,0,0,0,0,0,0,0,0,0,0,0,0,0,0,0,0,0,0,0,0,0,0,0,0,0,0,0,0,0,0,0,0,0,0,0,
0,0,0,0,0,0,0,0,0,0,0,0,0,0,0,0,0,0,0,0,0,0,0,0,0,0,0,0,0,0,0,0,0,0,0,0,0,0,0,0,0,0,0,0,0,0,0,0,0,0,0,0,0,0,0,0,0,0,0,0,0,0,0,0,0,0,0,0,0,0,0,0,0,0,0,0,0,0,0,0,0,0,0,0,0,0,0,0,0,0,0,0,0,0,0,0,0,0,0,0,0,0,0,0,0,0,0,0,0,0,0,0,0,0,0,0,0,0,0,0,0,0,0,0,0,0,0,0,0,0,0,0,0,0,0,0,0,0,0,0,0,0,0,0,0,0,0,0,0,0,0,0,0,0,0,0,0,0,0,0,0,0,0,0,0,0,0,0,0,0,0,0,0,0,0,0,0,0,0,0,0,0,0,0,0,0,0,0,0,0,0,0,0,0,0,0,0,0,0,0,0,0,0,0,0,0,0,0,0,0,0,0,0,0,0,0,0,0,0,0,0,0,0,0,0,0,0,0,0,0,0,0,0,0,0,0,0,0,0,0,
0,0,0,0,0,0,0,0,0,0,0,0,0,0,0,0,0,0,0,0,0,0,0,0,0,0,0,0,0,0,0,0,0,0,0,0,0,0,0,0,0,0,0,0,0,0,0,0,0,0,0,0,0,0,0,0,0,0,0,0,0,0,0,0,0,0,0,0,0,0,0,0,0,0,0,0,0,0,0,0,0,0,0,0,0,0,0,0,0,0,0,0,0,0,0,0,0,0,0,0,0,0,0,0,0,0,0,0,0,0,0,0,0,0,0,0,0,0,0,0,0,0,0,0,0,0,0,0,0,0,0,0,0,0,0,0,0,0,0,0,0,0,0,0,0,0,0,0,0,0,0,0,0,0,0,0,0,0,0,0,0,0,0,0,0,0,0,0,0,0,0,0,0,0,0,0,0,0,0,0,0,0,0,0,0,0,0,0,0,0,0,0,0,0,0,0,0,0,0,0,0,0,0,0,0,0,0,0,0,0,0,0,0,0,0,0,0,0,0,0,0,0,0,0,0,0,0,0,0,0,0,0,0,0,0,0,0,0,0,0,
0,0,0,0,0,0,0,0,0,0,0,0,0,0,0,0,0,0,0,0,0,0,0,0,0,0,0,0,0,0,0,0,0,0,0,0,0,0,0,0,0,0,0,0,0,0,0,0,0,0,0,0,0,0,0,0,0,0,0,0,0,0,0,0,0,0,0,0,0,0,0,0,0,0,0,0,0,0,0,0,0,0,0,0,0,0,0,0,0,0,0,0,0,0,0,0,0,0,0,0,0,0,0,0,0,0,0,0,0,0,0,0,0,0,0,0,0,0,0,0,0,0,0,0,0,0,0,0,0,0,0,0,0,0,0,0,0,0,0,0,0,0,0,0,0,0,0,0,0,0,0,0,0,0,0,0,0,0,0,0,0,0,0,0,0,0,0,0,0,0,0,0,0,0,0,0,0,0,0,0,0,0,0,0,0,0,0,0,0,0,0,0,0,0,0,0,0,0,0,0,0,0,0,0,0,0,0,0,0,0,0,0,0,0,0,0,0,0,0,0,0,0,0,0,0,0,0,0,0,0,0,0,0,0,0,0,0,0,0,0,
0,0,0,0,0,0,0,0,0,0,0,0,0,0,0,0,0,0,0,0,0,0,0,0,0,0,0,0,0,0,0,0,0,0,0,0,0,0,0,0,0,0,0,0,0,0,0,0,0,0,0,0,0,0,0,0,0,0,0,0,0,0,0,0,0,0,0,0,0,0,0,0,0,0,0,0,0,0,0,0,0,0,0,0,0,0,0,0,0,0,0,0,0,0,0,0,0,0,0,0,0,0,0,0,0,0,0,0,0,0,0,0,0,0,0,0,0,0,0,0,0,0,0,0,0,0,0,0,0,0,0,0,0,0,0,0,0,0,0,0,0,0,0,0,0,0,0,0,0,0,0,0,0,0,0,0,0,0,0,0,0,0,0,0,0,0,0,0,0,0,0,0,0,0,0,0,0,0,0,0,0,0,0,0,0,0,0,0,0,0,0,0,0,0,0,0,0,0,0,0,0,0,0,0,0,0,0,0,0,0,0,0,0,0,0,0,0,0,0,0,0,0,0,0,0,0,0,0,0,0,0,0,0,0,0,0,0,0,0,0,
0,0,0,0,0,0,0,0,0,0,0,0,0,0,0,0,0,0,0,0,0,0,0,0,0,0,0,0,0,0,0,0,0,0,0,0,0,0,0,0,0,0,0,0,0,0,0,0,0,0,0,0,0,0,0,0,0,0,0,0,0,0,0,0,0,0,0,0,0,0,0,0,0,0,0,0,0,0,0,0,0,0,0,0,0,0,0,0,0,0,0,0,0,0,0,0,0,0,0,0,0,0,0,0,0,0,0,0,0,0,0,0,0,0,0,0,0,0,0,0,0,0,0,0,0,0,0,0,0,0,0,0,0,0,0,0,0,0,0,0,0,0,0,0,0,0,0,0,0,0,0,0,0,0,0,0,0,0,0,0,0,0,0,0,0,0,0,0,0,0,0,0,0,0,0,0,0,0,0,0,0,0,0,0,0,0,0,0,0,0,0,0,0,0,0,0,0,0,0,0,0,0,0,0,0,0,0,0,0,0,0,0,0,0,0,0,0,0,0,0,0,0,0,0,0,0,0,0,0,0,0,0,0,0,0,0,0,0,0,0,
0,0,0,0,0,0,0,0,0,0,0,0,0,0,0,0,0,0,0,0,0,0,0,0,0,0,0,0,0,0,0,0,0,0,0,0,0,0,0,0,0,0,0,0,0,0,0,0,0,0,0,0,0,0,0,0,0,0,0,0,0,0,0,0,0,0,0,0,0,0,0,0,0,0,0,0,0,0,0,0,0,0,0,0,0,0,0,0,0,0,0,0,0,0,0,0,0,0,0,0,0,0,0,0,0,0,0,0,0,0,0,0,0,0,0,0,0,0,0,0,0,0,0,0,0,0,0,0,0,0,0,0,0,0,0,0,0,0,0,0,0,0,0,0,0,0,0,0,0,0,0,0,0,0,0,0,0,0,0,0,0,0,0,0,0,0,0,0,0,0,0,0,0,0,0,0,0,0,0,0,0,0,0,0,0,0,0,0,0,0,0,0,0,0,0,0,0,0,0,0,0,0,0,0,0,0,0,0,0,0,0,0,0,0,0,0,0,0,0,0,0,0,0,0,0,0,0,0,0,0,0,0,0,0,0,0,0,0,0,0,
0,0,0,0,0,0,0,0,0,0,0,0,0,0,0,0,0,0,0,0,0,0,0,0,0,0,0,0,0,0,0,0,0,0,0,0,0,0,0,0,0,0,0,0,0,0,0,0,0,0,0,0,0,0,0,0,0,0,0,0,0,0,0,0,0,0,0,0,0,0,0,0,0,0,0,0,0,0,0,0,0,0,0,0,0,0,0,0,0,0,0,0,0,0,0,0,0,0,0,0,0,0,0,0,0,0,0,0,0,0,0,0,0,0,0,0,0,0,0,0,0,0,0,0,0,0,0,0,0,0,0,0,0,0,0,0,0,0,0,0,0,0,0,0,0,0,0,0,0,0,0,0,0,0,0,0,0,0,0,0,0,0,0,0,0,0,0,0,0,0,0,0,0,0,0,0,0,0,0,0,0,0,0,0,0,0,0,0,0,0,0,0,0,0,0,0,0,0,0,0,0,0,0,0,0,0,0,0,0,0,0,0,0,0,0,0,0,0,0,0,0,0,0,0,0,0,0,0,0,0,0,0,0,0,0,0,0,0,0,0,
0,0,0,0,0,0,0,0,0,0,0,0,0,0,0,0,0,0,0,0,0,0,0,0,0,0,0,0,0,0,0,0,0,0,0,0,0,0,0,0,0,0,0,0,0,0,0,0,0,0,0,0,0,0,0,0,0,0,0,0,0,0,0,0,0,0,0,0,0,0,0,0,0,0,0,0,0,0,0,0,0,0,0,0,0,0,0,0,0,0,0,0,0,0,0,0,0,0,0,0,0,0,0,0,0,0,0,0,0,0,0,0,0,0,0,0,0,0,0,0,0,0,0,0,0,0,0,0,0,0,0,0,0,0,0,0,0,0,0,0,0,0,0,0,0,0,0,0,0,0,0,0,0,0,0,0,0,0,0,0,0,0,0,0,0,0,0,0,0,0,0,0,0,0,0,0,0,0,0,0,0,0,0,0,0,0,0,0,0,0,0,0,0,0,0,0,0,0,0,0,0,0,0,0,0,0,0,0,0,0,0,0,0,0,0,0,0,0,0,0,0,0,0,0,0,0,0,0,0,0,0,0,0,0,0,0,0,0,0,0,
0,0,0,0,0,0,0,0,0,0,0,0,0,0,0,0,0,0,0,0,0,0,0,0,0,0,0,0,0,0,0,0,0,0,0,0,0,0,0,0,0,0,0,0,0,0,0,0,0,0,0,0,0,0,0,0,0,0,0,0,0,0,0,0,0,0,0,0,0,0,0,0,0,0,0,0,0,0,0,0,0,0,0,0,0,0,0,0,0,0,0,0,0,0,0,0,0,0,0,0,0,0,0,0,0,0,0,0,0,0,0,0,0,0,0,0,0,0,0,0,0,0,0,0,0,0,0,0,0,0,0,0,0,0,0,0,0,0,0,0,0,0,0,0,0,0,0,0,0,0,0,0,0,0,0,0,0,0,0,0,0,0,0,0,0,0,0,0,0,0,0,0,0,0,0,0,0,0,0,0,0,0,0,0,0,0,0,0,0,0,0,0,0,0,0,0,0,0,0,0,0,0,0,0,0,0,0,0,0,0,0,0,0,0,0,0,0,0,0,0,0,0,0,0,0,0,0,0,0,0,0,0,0,0,0,0,0,0,0,0,
0,0,0,0,0,0,0,0,0,0,0,0,0,0,0,0,0,0,0,0,0,0,0,0,0,0,0,0,0,0,0,0,0,0,0,0,0,0,0,0,0,0,0,0,0,0,0,0,0,0,0,0,0,0,0,0,0,0,0,0,0,0,0,0,0,0,0,0,0,0,0,0,0,0,0,0,0,0,0,0,0,0,0,0,0,0,0,0,0,0,0,0,0,0,0,0,0,0,0,0,0,0,0,0,0,0,0,0,0,0,0,0,0,0,0,0,0,0,0,0,0,0,0,0,0,0,0,0,0,0,0,0,0,0,0,0,0,0,0,0,0,0,0,0,0,0,0,0,0,0,0,0,0,0,0,0,0,0,0,0,0,0,0,0,0,0,0,0,0,0,0,0,0,0,0,0,0,0,0,0,0,0,0,0,0,0,0,0,0,0,0,0,0,0,0,0,0,0,0,0,0,0,0,0,0,0,0,0,0,0,0,0,0,0,0,0,0,0,0,0,0,0,0,0,0,0,0,0,0,0,0,0,0,0,0,0,0,0,0,0,
0,0,0,0,0,0,0,0,0,0,0,0,0,0,0,0,0,0,0,0,0,0,0,0,0,0,0,0,0,0,0,0,0,0,0,0,0,0,0,0,0,0,0,0,0,0,0,0,0,0,0,0,0,0,0,0,0,0,0,0,0,0,0,0,0,0,0,0,0,0,0,0,0,0,0,0,0,0,0,0,0,0,0,0,0,0,0,0,0,0,0,0,0,0,0,0,0,0,0,0,0,0,0,0,0,0,0,0,0,0,0,0,0,0,0,0,0,0,0,0,0,0,0,0,0,0,0,0,0,0,0,0,0,0,0,0,0,0,0,0,0,0,0,0,0,0,0,0,0,0,0,0,0,0,0,0,0,0,0,0,0,0,0,0,0,0,0,0,0,0,0,0,0,0,0,0,0,0,0,0,0,0,0,0,0,0,0,0,0,0,0,0,0,0,0,0,0,0,0,0,0,0,0,0,0,0,0,0,0,0,0,0,0,0,0,0,0,0,0,0,0,0,0,0,0,0,0,0,0,0,0,0,0,0,0,0,0,0,0,0,
0,0,0,0,0,0,0,0,0,0,0,0,0,0,0,0,0,0,0,0,0,0,0,0,0,0,0,0,0,0,0,0,0,0,0,0,0,0,0,0,0,0,0,0,0,0,0,0,0,0,0,0,0,0,0,0,0,0,0,0,0,0,0,0,0,0,0,0,0,0,0,0,0,0,0,0,0,0,0,0,0,0,0,0,0,0,0,0,0,0,0,0,0,0,0,0,0,0,0,0,0,0,0,0,0,0,0,0,0,0,0,0,0,0,0,0,0,0,0,0,0,0,0,0,0,0,0,0,0,0,0,0,0,0,0,0,0,0,0,0,0,0,0,0,0,0,0,0,0,0,0,0,0,0,0,0,0,0,0,0,0,0,0,0,0,0,0,0,0,0,0,0,0,0,0,0,0,0,0,0,0,0,0,0,0,0,0,0,0,0,0,0,0,0,0,0,0,0,0,0,0,0,0,0,0,0,0,0,0,0,0,0,0,0,0,0,0,0,0,0,0,0,0,0,0,0,0,0,0,0,0,0,0,0,0,0,0,0,0,0,
0,0,0,0,0,0,0,0,0,0,0,0,0,0,0,0,0,0,0,0,0,0,0,0,0,0,0,0,0,0,0,0,0,0,0,0,0,0,0,0,0,0,0,0,0,0,0,0,0,0,0,0,0,0,0,0,0,0,0,0,0,0,0,0,0,0,0,0,0,0,0,0,0,0,0,0,0,0,0,0,0,0,0,0,0,0,0,0,0,0,0,0,0,0,0,0,0,0,0,0,0,0,0,0,0,0,0,0,0,0,0,0,0,0,0,0,0,0,0,0,0,0,0,0,0,0,0,0,0,0,0,0,0,0,0,0,0,0,0,0,0,0,0,0,0,0,0,0,0,0,0,0,0,0,0,0,0,0,0,0,0,0,0,0,0,0,0,0,0,0,0,0,0,0,0,0,0,0,0,0,0,0,0,0,0,0,0,0,0,0,0,0,0,0,0,0,0,0,0,0,0,0,0,0,0,0,0,0,0,0,0,0,0,0,0,0,0,0,0,0,0,0,0,0,0,0,0,0,0,0,0,0,0,0,0,0,0,0,0,0,
0,0,0,0,0,0,0,0,0,0,0,0,0,0,0,0,0,0,0,0,0,0,0,0,0,0,0,0,0,0,0,0,0,0,0,0,0,0,0,0,0,0,0,0,0,0,0,0,0,0,0,0,0,0,0,0,0,0,0,0,0,0,0,0,0,0,0,0,0,0,0,0,0,0,0,0,0,0,0,0,0,0,0,0,0,0,0,0,0,0,0,0,0,0,0,0,0,0,0,0,0,0,0,0,0,0,0,0,0,0,0,0,0,0,0,0,0,0,0,0,0,0,0,0,0,0,0,0,0,0,0,0,0,0,0,0,0,0,0,0,0,0,0,0,0,0,0,0,0,0,0,0,0,0,0,0,0,0,0,0,0,0,0,0,0,0,0,0,0,0,0,0,0,0,0,0,0,0,0,0,0,0,0,0,0,0,0,0,0,0,0,0,0,0,0,0,0,0,0,0,0,0,0,0,0,0,0,0,0,0,0,0,0,0,0,0,0,0,0,0,0,0,0,0,0,0,0,0,0,0,0,0,0,0,0,0,0,0,0,0,
0,0,0,0,0,0,0,0,0,0,0,0,0,0,0,0,0,0,0,0,0,0,0,0,0,0,0,0,0,0,0,0,0,0,0,0,0,0,0,0,0,0,0,0,0,0,0,0,0,0,0,0,0,0,0,0,0,0,0,0,0,0,0,0,0,0,0,0,0,0,0,0,0,0,0,0,0,0,0,0,0,0,0,0,0,0,0,0,0,0,0,0,0,0,0,0,0,0,0,0,0,0,0,0,0,0,0,0,0,0,0,0,0,0,0,0,0,0,0,0,0,0,0,0,0,0,0,0,0,0,0,0,0,0,0,0,0,0,0,0,0,0,0,0,0,0,0,0,0,0,0,0,0,0,0,0,0,0,0,0,0,0,0,0,0,0,0,0,0,0,0,0,0,0,0,0,0,0,0,0,0,0,0,0,0,0,0,0,0,0,0,0,0,0,0,0,0,0,0,0,0,0,0,0,0,0,0,0,0,0,0,0,0,0,0,0,0,0,0,0,0,0,0,0,0,0,0,0,0,0,0,0,0,0,0,0,0,0,0,0,
0,0,0,0,0,0,0,0,0,0,0,0,0,0,0,0,0,0,0,0,0,0,0,0,0,0,0,0,0,0,0,0,0,0,0,0,0,0,0,0,0,0,0,0,0,0,0,0,0,0,0,0,0,0,0,0,0,0,0,0,0,0,0,0,0,0,0,0,0,0,0,0,0,0,0,0,0,0,0,0,0,0,0,0,0,0,0,0,0,0,0,0,0,0,0,0,0,0,0,0,0,0,0,0,0,0,0,0,0,0,0,0,0,0,0,0,0,0,0,0,0,0,0,0,0,0,0,0,0,0,0,0,0,0,0,0,0,0,0,0,0,0,0,0,0,0,0,0,0,0,0,0,0,0,0,0,0,0,0,0,0,0,0,0,0,0,0,0,0,0,0,0,0,0,0,0,0,0,0,0,0,0,0,0,0,0,0,0,0,0,0,0,0,0,0,0,0,0,0,0,0,0,0,0,0,0,0,0,0,0,0,0,0,0,0,0,0,0,0,0,0,0,0,0,0,0,0,0,0,0,0,0,0,0,0,0,0,0,0,0,
0,0,0,0,0,0,0,0,0,0,0,0,0,0,0,0,0,0,0,0,0,0,0,0,0,0,0,0,0,0,0,0,0,0,0,0,0,0,0,0,0,0,0,0,0,0,0,0,0,0,0,0,0,0,0,0,0,0,0,0,0,0,0,0,0,0,0,0,0,0,0,0,0,0,0,0,0,0,0,0,0,0,0,0,0,0,0,0,0,0,0,0,0,0,0,0,0,0,0,0,0,0,0,0,0,0,0,0,0,0,0,0,0,0,0,0,0,0,0,0,0,0,0,0,0,0,0,0,0,0,0,0,0,0,0,0,0,0,0,0,0,0,0,0,0,0,0,0,0,0,0,0,0,0,0,0,0,0,0,0,0,0,0,0,0,0,0,0,0,0,0,0,0,0,0,0,0,0,0,0,0,0,0,0,0,0,0,0,0,0,0,0,0,0,0,0,0,0,0,0,0,0,0,0,0,0,0,0,0,0,0,0,0,0,0,0,0,0,0,0,0,0,0,0,0,0,0,0,0,0,0,0,0,0,0,0,0,0,0,0,
0,0,0,0,0,0,0,0,0,0,0,0,0,0,0,0,0,0,0,0,0,0,0,0,0,0,0,0,0,0,0,0,0,0,0,0,0,0,0,0,0,0,0,0,0,0,0,0,0,0,0,0,0,0,0,0,0,0,0,0,0,0,0,0,0,0,0,0,0,0,0,0,0,0,0,0,0,0,0,0,0,0,0,0,0,0,0,0,0,0,0,0,0,0,0,0,0,0,0,0,0,0,0,0,0,0,0,0,0,0,0,0,0,0,0,0,0,0,0,0,0,0,0,0,0,0,0,0,0,0,0,0,0,0,0,0,0,0,0,0,0,0,0,0,0,0,0,0,0,0,0,0,0,0,0,0,0,0,0,0,0,0,0,0,0,0,0,0,0,0,0,0,0,0,0,0,0,0,0,0,0,0,0,0,0,0,0,0,0,0,0,0,0,0,0,0,0,0,0,0,0,0,0,0,0,0,0,0,0,0,0,0,0,0,0,0,0,0,0,0,0,0,0,0,0,0,0,0,0,0,0,0,0,0,0,0,0,0,0,0
</data>
 </layer>
 <layer id="7" name="zones" width="240" height="240">
  <data encoding="csv">
0,0,0,0,0,0,0,0,0,0,0,0,0,0,0,0,0,0,0,0,0,0,0,0,0,0,0,0,0,0,0,0,0,0,0,0,0,0,0,0,0,0,0,0,0,0,0,0,0,0,0,0,0,0,0,0,0,0,0,0,0,0,0,0,0,0,0,0,0,0,0,0,0,0,0,0,0,0,0,0,0,0,0,0,0,0,0,0,0,0,0,0,0,0,0,0,0,0,0,0,0,0,0,0,0,0,0,0,0,0,0,0,0,0,0,0,0,0,0,0,0,0,0,0,0,0,0,0,0,0,0,0,0,0,0,0,0,0,0,0,0,0,0,0,0,0,0,0,0,0,0,0,0,0,0,0,0,0,0,0,0,0,0,0,0,0,0,0,0,0,0,0,0,0,0,0,0,0,0,0,0,0,0,0,0,0,0,0,0,0,0,0,0,0,0,0,0,0,0,0,0,0,0,0,0,0,0,0,0,0,0,0,0,0,0,0,0,0,0,0,0,0,0,0,0,0,0,0,0,0,0,0,0,0,0,0,0,0,0,0,
0,0,0,0,0,0,0,0,0,0,0,0,0,0,0,0,0,0,0,0,0,0,0,0,0,0,0,0,0,0,0,0,0,0,0,0,0,0,0,0,0,0,0,0,0,0,0,0,0,0,0,0,0,0,0,0,0,0,0,0,0,0,0,0,0,0,0,0,0,0,0,0,0,0,0,0,0,0,0,0,0,0,0,0,0,0,0,0,0,0,0,0,0,0,0,0,0,0,0,0,0,0,0,0,0,0,0,0,0,0,0,0,0,0,0,0,0,0,0,0,0,0,0,0,0,0,0,0,0,0,0,0,0,0,0,0,0,0,0,0,0,0,0,0,0,0,0,0,0,0,0,0,0,0,0,0,0,0,0,0,0,0,0,0,0,0,0,0,0,0,0,0,0,0,0,0,0,0,0,0,0,0,0,0,0,0,0,0,0,0,0,0,0,0,0,0,0,0,0,0,0,0,0,0,0,0,0,0,0,0,0,0,0,0,0,0,0,0,0,0,0,0,0,0,0,0,0,0,0,0,0,0,0,0,0,0,0,0,0,0,
0,0,0,0,0,0,0,0,0,0,0,0,0,0,0,0,0,0,0,0,0,0,0,0,0,0,0,0,0,0,0,0,0,0,0,0,0,0,0,0,0,0,0,0,0,0,0,0,0,0,0,0,0,0,0,0,0,0,0,0,0,0,0,0,0,0,0,0,0,0,0,0,0,0,0,0,0,0,0,0,0,0,0,0,0,0,0,0,0,0,0,0,0,0,0,0,0,0,0,0,0,0,0,0,0,0,0,0,0,0,0,0,0,0,0,0,0,0,0,0,0,0,0,0,0,0,0,0,0,0,0,0,0,0,0,0,0,0,0,0,0,0,0,0,0,0,0,0,0,0,0,0,0,0,0,0,0,0,0,0,0,0,0,0,0,0,0,0,0,0,0,0,0,0,0,0,0,0,0,0,0,0,0,0,0,0,0,0,0,0,0,0,0,0,0,0,0,0,0,0,0,0,0,0,0,0,0,0,0,0,0,0,0,0,0,0,0,0,0,0,0,0,0,0,0,0,0,0,0,0,0,0,0,0,0,0,0,0,0,0,
0,0,0,0,0,0,0,0,0,0,0,0,0,0,0,0,0,0,0,0,0,0,0,0,0,0,0,0,0,0,0,0,0,0,0,0,0,0,0,0,0,0,0,0,0,0,0,0,0,0,0,0,0,0,0,0,0,0,0,0,0,0,0,0,0,0,0,0,0,0,0,0,0,0,0,0,0,0,0,0,0,0,0,0,0,0,0,0,0,0,0,0,0,0,0,0,0,0,0,0,0,0,0,0,0,0,0,0,0,0,0,0,0,0,0,0,0,0,0,0,0,0,0,0,0,0,0,0,0,0,0,0,0,0,0,0,0,0,0,0,0,0,0,0,0,0,0,0,0,0,0,0,0,0,0,0,0,0,0,0,0,0,0,0,0,0,0,0,0,0,0,0,0,0,0,0,0,0,0,0,0,0,0,0,0,0,0,0,0,0,0,0,0,0,0,0,0,0,0,0,0,0,0,0,0,0,0,0,0,0,0,0,0,0,0,0,0,0,0,0,0,0,0,0,0,0,0,0,0,0,0,0,0,0,0,0,0,0,0,0,
0,0,0,0,0,0,0,0,0,0,0,0,0,0,0,0,0,0,0,0,0,0,0,0,0,0,0,0,0,0,0,0,0,0,0,0,0,0,0,0,0,0,0,0,0,0,0,0,0,0,0,0,0,0,0,0,0,0,0,0,0,0,0,0,0,0,0,0,0,0,0,0,0,0,0,0,0,0,0,0,0,0,0,0,0,0,0,0,0,0,0,0,0,0,0,0,0,0,0,0,0,0,0,0,0,0,0,0,0,0,0,0,0,0,0,0,0,0,0,0,0,0,0,0,0,0,0,0,0,0,0,0,0,0,0,0,0,0,0,0,0,0,0,0,0,0,0,0,0,0,0,0,0,0,0,0,0,0,0,0,0,0,0,0,0,0,0,0,0,0,0,0,0,0,0,0,0,0,0,0,0,0,0,0,0,0,0,0,0,0,0,0,0,0,0,0,0,0,0,0,0,0,0,0,0,0,0,0,0,0,0,0,0,0,0,0,0,0,0,0,0,0,0,0,0,0,0,0,0,0,0,0,0,0,0,0,0,0,0,0,
0,0,0,0,0,0,0,0,0,0,0,0,0,0,0,0,0,0,0,0,0,0,0,0,0,0,0,0,0,0,0,0,0,0,0,0,0,0,0,0,0,0,0,0,0,0,0,0,0,0,0,0,0,0,0,0,0,0,0,0,0,0,0,0,0,0,0,0,0,0,0,0,0,0,0,0,0,0,0,0,0,0,0,0,0,0,0,0,0,0,0,0,0,0,0,0,0,0,0,0,0,0,0,0,0,0,0,0,0,0,0,0,0,0,0,0,0,0,0,0,0,0,0,0,0,0,0,0,0,0,0,0,0,0,0,0,0,0,0,0,0,0,0,0,0,0,0,0,0,0,0,0,0,0,0,0,0,0,0,0,0,0,0,0,0,0,0,0,0,0,0,0,0,0,0,0,0,0,0,0,0,0,0,0,0,0,0,0,0,0,0,0,0,0,0,0,0,0,0,0,0,0,0,0,0,0,0,0,0,0,0,0,0,0,0,0,0,0,0,0,0,0,0,0,0,0,0,0,0,0,0,0,0,0,0,0,0,0,0,0,
0,0,0,0,0,0,0,0,0,0,0,0,0,0,0,0,0,0,0,0,0,0,0,0,0,0,0,0,0,0,0,0,0,0,0,0,0,0,0,0,0,0,0,0,0,0,0,0,0,0,0,0,0,0,0,0,0,0,0,0,0,0,0,0,0,0,0,0,0,0,0,0,0,0,0,0,0,0,0,0,0,0,0,0,0,0,0,0,0,0,0,0,0,0,0,0,0,0,0,0,0,0,0,0,0,0,0,0,0,0,0,0,0,0,0,0,0,0,0,0,0,0,0,0,0,0,0,0,0,0,0,0,0,0,0,0,0,0,0,0,0,0,0,0,0,0,0,0,0,0,0,0,0,0,0,0,0,0,0,0,0,0,0,0,0,0,0,0,0,0,0,0,0,0,0,0,0,0,0,0,0,0,0,0,0,0,0,0,0,0,0,0,0,0,0,0,0,0,0,0,0,0,0,0,0,0,0,0,0,0,0,0,0,0,0,0,0,0,0,0,0,0,0,0,0,0,0,0,0,0,0,0,0,0,0,0,0,0,0,0,
0,0,0,0,0,0,0,0,0,0,0,0,0,0,0,0,0,0,0,0,0,0,0,0,0,0,0,0,0,0,0,0,0,0,0,0,0,0,0,0,0,0,0,0,0,0,0,0,0,0,0,0,0,0,0,0,0,0,0,0,0,0,0,0,0,0,0,0,0,0,0,0,0,0,0,0,0,0,0,0,0,0,0,0,0,0,0,0,0,0,0,0,0,0,0,0,0,0,0,0,0,0,0,0,0,0,0,0,0,0,0,0,0,0,0,0,0,0,0,0,0,0,0,0,0,0,0,0,0,0,0,0,0,0,0,0,0,0,0,0,0,0,0,0,0,0,0,0,0,0,0,0,0,0,0,0,0,0,0,0,0,0,0,0,0,0,0,0,0,0,0,0,0,0,0,0,0,0,0,0,0,0,0,0,0,0,0,0,0,0,0,0,0,0,0,0,0,0,0,0,0,0,0,0,0,0,0,0,0,0,0,0,0,0,0,0,0,0,0,0,0,0,0,0,0,0,0,0,0,0,0,0,0,0,0,0,0,0,0,0,
0,0,0,0,0,0,0,0,0,0,0,0,0,0,0,0,0,0,0,0,0,0,0,0,0,0,0,0,0,0,0,0,0,0,0,0,0,0,0,0,0,0,0,0,0,0,0,0,0,0,0,0,0,0,0,0,0,0,0,0,0,0,0,0,0,0,0,0,0,0,0,0,0,0,0,0,0,0,0,0,0,0,0,0,0,0,0,0,0,0,0,0,0,0,0,0,0,0,0,0,0,0,0,0,0,0,0,0,0,0,0,0,0,0,0,0,0,0,0,0,0,0,0,0,0,0,0,0,0,0,0,0,0,0,0,0,0,0,0,0,0,0,0,0,0,0,0,0,0,0,0,0,0,0,0,0,0,0,0,0,0,0,0,0,0,0,0,0,0,0,0,0,0,0,0,0,0,0,0,0,0,0,0,0,0,0,0,0,0,0,0,0,0,0,0,0,0,0,0,0,0,0,0,0,0,0,0,0,0,0,0,0,0,0,0,0,0,0,0,0,0,0,0,0,0,0,0,0,0,0,0,0,0,0,0,0,0,0,0,0,
0,0,0,0,0,0,0,0,0,0,0,0,0,0,0,0,0,0,0,0,0,0,0,0,0,0,0,0,0,0,0,0,0,0,0,0,0,0,0,0,0,0,0,0,0,0,0,0,0,0,0,0,0,0,0,0,0,0,0,0,0,0,0,0,0,0,0,0,0,0,0,0,0,0,0,0,0,0,0,0,0,0,0,0,0,0,0,0,0,0,0,0,0,0,0,0,0,0,0,0,0,0,0,0,0,0,0,0,0,0,0,0,0,0,0,0,0,0,0,0,0,0,0,0,0,0,0,0,0,0,0,0,0,0,0,0,0,0,0,0,0,0,0,0,0,0,0,0,0,0,0,0,0,0,0,0,0,0,0,0,0,0,0,0,0,0,0,0,0,0,0,0,0,0,0,0,0,0,0,0,0,0,0,0,0,0,0,0,0,0,0,0,0,0,0,0,0,0,0,0,0,0,0,0,0,0,0,0,0,0,0,0,0,0,0,0,0,0,0,0,0,0,0,0,0,0,0,0,0,0,0,0,0,0,0,0,0,0,0,0,
0,0,0,0,0,0,0,0,0,0,0,0,0,0,0,0,0,0,0,0,0,0,0,0,0,0,0,0,0,0,0,0,0,0,0,0,0,0,0,0,0,0,0,0,0,0,0,0,0,0,0,0,0,0,0,0,0,0,0,0,0,0,0,0,0,0,0,0,0,0,0,0,0,0,0,0,0,0,0,0,0,0,0,0,0,0,0,0,0,0,0,0,0,0,0,0,0,0,0,0,0,0,0,0,0,0,0,0,0,0,0,0,0,0,0,0,0,0,0,0,0,0,0,0,0,0,0,0,0,0,0,0,0,0,0,0,0,0,0,0,0,0,0,0,0,0,0,0,0,0,0,0,0,0,0,0,0,0,0,0,0,0,0,0,0,0,0,0,0,0,0,0,0,0,0,0,0,0,0,0,0,0,0,0,0,0,0,0,0,0,0,0,0,0,0,0,0,0,0,0,0,0,0,0,0,0,0,0,0,0,0,0,0,0,0,0,0,0,0,0,0,0,0,0,0,0,0,0,0,0,0,0,0,0,0,0,0,0,0,0,
0,0,0,0,0,0,0,0,0,0,0,0,0,0,0,0,0,0,0,0,0,0,0,0,0,0,0,0,0,0,0,0,0,0,0,0,0,0,0,0,0,0,0,0,0,0,0,0,0,0,0,0,0,0,0,0,0,0,0,0,0,0,0,0,0,0,0,0,0,0,0,0,0,0,0,0,0,0,0,0,0,0,0,0,0,0,0,0,0,0,0,0,0,0,0,0,0,0,0,0,0,0,0,0,0,0,0,0,0,0,0,0,0,0,0,0,0,0,0,0,0,0,0,0,0,0,0,0,0,0,0,0,0,0,0,0,0,0,0,0,0,0,0,0,0,0,0,0,0,0,0,0,0,0,0,0,0,0,0,0,0,0,0,0,0,0,0,0,0,0,0,0,0,0,0,0,0,0,0,0,0,0,0,0,0,0,0,0,0,0,0,0,0,0,0,0,0,0,0,0,0,0,0,0,0,0,0,0,0,0,0,0,0,0,0,0,0,0,0,0,0,0,0,0,0,0,0,0,0,0,0,0,0,0,0,0,0,0,0,0,
0,0,0,0,0,0,0,0,0,0,0,0,0,0,0,0,0,0,0,0,0,0,0,0,0,0,0,0,0,0,0,0,0,0,0,0,0,0,0,0,0,0,0,0,0,0,0,0,0,0,0,0,0,0,0,0,0,0,0,0,0,0,0,0,0,0,0,0,0,0,0,0,0,0,0,0,0,0,0,0,0,0,0,0,0,0,0,0,0,0,0,0,0,0,0,0,0,0,0,0,0,0,0,0,0,0,0,0,0,0,0,0,0,0,0,0,0,0,0,0,0,0,0,0,0,0,0,0,0,0,0,0,0,0,0,0,0,0,0,0,0,0,0,0,0,0,0,0,0,0,0,0,0,0,0,0,0,0,0,0,0,0,0,0,0,0,0,0,0,0,0,0,0,0,0,0,0,0,0,0,0,0,0,0,0,0,0,0,0,0,0,0,0,0,0,0,0,0,0,0,0,0,0,0,0,0,0,0,0,0,0,0,0,0,0,0,0,0,0,0,0,0,0,0,0,0,0,0,0,0,0,0,0,0,0,0,0,0,0,0,
0,0,0,0,0,0,0,0,0,0,0,0,0,0,0,0,0,0,0,0,0,0,0,0,0,0,0,0,0,0,0,0,0,0,0,0,0,0,0,0,0,0,0,0,0,0,0,0,0,0,0,0,0,0,0,0,0,0,0,0,0,0,0,0,0,0,0,0,0,0,0,0,0,0,0,0,0,0,0,0,0,0,0,0,0,0,0,0,0,0,0,0,0,0,0,0,0,0,0,0,0,0,0,0,0,0,0,0,0,0,0,0,0,0,0,0,0,0,0,0,0,0,0,0,0,0,0,0,0,0,0,0,0,0,0,0,0,0,0,0,0,0,0,0,0,0,0,0,0,0,0,0,0,0,0,0,0,0,0,0,0,0,0,0,0,0,0,0,0,0,0,0,0,0,0,0,0,0,0,0,0,0,0,0,0,0,0,0,0,0,0,0,0,0,0,0,0,0,0,0,0,0,0,0,0,0,0,0,0,0,0,0,0,0,0,0,0,0,0,0,0,0,0,0,0,0,0,0,0,0,0,0,0,0,0,0,0,0,0,0,
0,0,0,0,0,0,0,0,0,0,0,0,0,0,0,0,0,0,0,0,0,0,0,0,0,0,0,0,0,0,0,0,0,0,0,0,0,0,0,0,0,0,0,0,0,0,0,0,0,0,0,0,0,0,0,0,0,0,0,0,0,0,0,0,0,0,0,0,0,0,0,0,0,0,0,0,0,0,0,0,0,0,0,0,0,0,0,0,0,0,0,0,0,0,0,0,0,0,0,0,0,0,0,0,0,0,0,0,0,0,0,0,0,0,0,0,0,0,0,0,0,0,0,0,0,0,0,0,0,0,0,0,0,0,0,0,0,0,0,0,0,0,0,0,0,0,0,0,0,0,0,0,0,0,0,0,0,0,0,0,0,0,0,0,0,0,0,0,0,0,0,0,0,0,0,0,0,0,0,0,0,0,0,0,0,0,0,0,0,0,0,0,0,0,0,0,0,0,0,0,0,0,0,0,0,0,0,0,0,0,0,0,0,0,0,0,0,0,0,0,0,0,0,0,0,0,0,0,0,0,0,0,0,0,0,0,0,0,0,0,
0,0,0,0,0,0,0,0,0,0,0,0,0,0,0,0,0,0,0,0,0,0,0,0,0,0,0,0,0,0,0,0,0,0,0,0,0,0,0,0,0,0,0,0,0,0,0,0,0,0,0,0,0,0,0,0,0,0,0,0,0,0,0,0,0,0,0,0,0,0,0,0,0,0,0,0,0,0,0,0,0,0,0,0,0,0,0,0,0,0,0,0,0,0,0,0,0,0,0,0,0,0,0,0,0,0,0,0,0,0,0,0,0,0,0,0,0,0,0,0,0,0,0,0,0,0,0,0,0,0,0,0,0,0,0,0,0,0,0,0,0,0,0,0,0,0,0,0,0,0,0,0,0,0,0,0,0,0,0,0,0,0,0,0,0,0,0,0,0,0,0,0,0,0,0,0,0,0,0,0,0,0,0,0,0,0,0,0,0,0,0,0,0,0,0,0,0,0,0,0,0,0,0,0,0,0,0,0,0,0,0,0,0,0,0,0,0,0,0,0,0,0,0,0,0,0,0,0,0,0,0,0,0,0,0,0,0,0,0,0,
0,0,0,0,0,0,0,0,0,0,0,0,0,0,0,0,0,0,0,0,0,0,0,0,0,0,0,0,0,0,0,0,0,0,0,0,0,0,0,0,0,0,0,0,0,0,0,0,0,0,0,0,0,0,0,0,0,0,0,0,0,0,0,0,0,0,0,0,0,0,0,0,0,0,0,0,0,0,0,0,0,0,0,0,0,0,0,0,0,0,0,0,0,0,0,0,0,0,0,0,0,0,0,0,0,0,0,0,0,0,0,0,0,0,0,0,0,0,0,0,0,0,0,0,0,0,0,0,0,0,0,0,0,0,0,0,0,0,0,0,0,0,0,0,0,0,0,0,0,0,0,0,0,0,0,0,0,0,0,0,0,0,0,0,0,0,0,0,0,0,0,0,0,0,0,0,0,0,0,0,0,0,0,0,0,0,0,0,0,0,0,0,0,0,0,0,0,0,0,0,0,0,0,0,0,0,0,0,0,0,0,0,0,0,0,0,0,0,0,0,0,0,0,0,0,0,0,0,0,0,0,0,0,0,0,0,0,0,0,0,
0,0,0,0,0,0,0,0,0,0,0,0,0,0,0,0,0,0,0,0,0,0,0,0,0,0,0,0,0,0,0,0,0,0,0,0,0,0,0,0,0,0,0,0,0,0,0,0,0,0,0,0,0,0,0,0,0,0,0,0,0,0,0,0,0,0,0,0,0,0,0,0,0,0,0,0,0,0,0,0,0,0,0,0,0,0,0,0,0,0,0,0,0,0,0,0,0,0,0,0,0,0,0,0,0,0,0,0,0,0,0,0,0,0,0,0,0,0,0,0,0,0,0,0,0,0,0,0,0,0,0,0,0,0,0,0,0,0,0,0,0,0,0,0,0,0,0,0,0,0,0,0,0,0,0,0,0,0,0,0,0,0,0,0,0,0,0,0,0,0,0,0,0,0,0,0,0,0,0,0,0,0,0,0,0,0,0,0,0,0,0,0,0,0,0,0,0,0,0,0,0,0,0,0,0,0,0,0,0,0,0,0,0,0,0,0,0,0,0,0,0,0,0,0,0,0,0,0,0,0,0,0,0,0,0,0,0,0,0,0,
0,0,0,0,0,0,0,0,0,0,0,0,0,0,0,0,0,0,0,0,0,0,0,0,0,0,0,0,0,0,0,0,0,0,0,0,0,0,0,0,0,0,0,0,0,0,0,0,0,0,0,0,0,0,0,0,0,0,0,0,0,0,0,0,0,0,0,0,0,0,0,0,0,0,0,0,0,0,0,0,0,0,0,0,0,0,0,0,0,0,0,0,0,0,0,0,0,0,0,0,0,0,0,0,0,0,0,0,0,0,0,0,0,0,0,0,0,0,0,0,0,0,0,0,0,0,0,0,0,0,0,0,0,0,0,0,0,0,0,0,0,0,0,0,0,0,0,0,0,0,0,0,0,0,0,0,0,0,0,0,0,0,0,0,0,0,0,0,0,0,0,0,0,0,0,0,0,0,0,0,0,0,0,0,0,0,0,0,0,0,0,0,0,0,0,0,0,0,0,0,0,0,0,0,0,0,0,0,0,0,0,0,0,0,0,0,0,0,0,0,0,0,0,0,0,0,0,0,0,0,0,0,0,0,0,0,0,0,0,0,
0,0,0,0,0,0,0,0,0,0,0,0,0,0,0,0,0,0,0,0,0,0,0,0,0,0,0,0,0,0,0,0,0,0,0,0,0,0,0,0,0,0,0,0,0,0,0,0,0,0,0,0,0,0,0,0,0,0,0,0,0,0,0,0,0,0,0,0,0,0,0,0,0,0,0,0,0,0,0,0,0,0,0,0,0,0,0,0,0,0,0,0,0,0,0,0,0,0,0,0,0,0,0,0,0,0,0,0,0,0,0,0,0,0,0,0,0,0,0,0,0,0,0,0,0,0,0,0,0,0,0,0,0,0,0,0,0,0,0,0,0,0,0,0,0,0,0,0,0,0,0,0,0,0,0,0,0,0,0,0,0,0,0,0,0,0,0,0,0,0,0,0,0,0,0,0,0,0,0,0,0,0,0,0,0,0,0,0,0,0,0,0,0,0,0,0,0,0,0,0,0,0,0,0,0,0,0,0,0,0,0,0,0,0,0,0,0,0,0,0,0,0,0,0,0,0,0,0,0,0,0,0,0,0,0,0,0,0,0,0,
0,0,0,0,0,0,0,0,0,0,0,0,0,0,0,0,0,0,0,0,0,0,0,0,0,0,0,0,0,0,0,0,0,0,0,0,0,0,0,0,0,0,0,0,0,0,0,0,0,0,0,0,0,0,0,0,0,0,0,0,0,0,0,0,0,0,0,0,0,0,0,0,0,0,0,0,0,0,0,0,0,0,0,0,0,0,0,0,0,0,0,0,0,0,0,0,0,0,0,0,0,0,0,0,0,0,0,0,0,0,0,0,0,0,0,0,0,0,0,0,0,0,0,0,0,0,0,0,0,0,0,0,0,0,0,0,0,0,0,0,0,0,0,0,0,0,0,0,0,0,0,0,0,0,0,0,0,0,0,0,0,0,0,0,0,0,0,0,0,0,0,0,0,0,0,0,0,0,0,0,0,0,0,0,0,0,0,0,0,0,0,0,0,0,0,0,0,0,0,0,0,0,0,0,0,0,0,0,0,0,0,0,0,0,0,0,0,0,0,0,0,0,0,0,0,0,0,0,0,0,0,0,0,0,0,0,0,0,0,0,
0,0,0,0,0,0,0,0,0,0,0,0,0,0,0,0,0,0,0,0,0,0,0,0,0,0,0,0,0,0,0,0,0,0,0,0,0,0,0,0,0,0,0,0,0,0,0,0,0,0,0,0,0,0,0,0,0,0,0,0,0,0,0,0,0,0,0,0,0,0,0,0,0,0,0,0,0,0,0,0,0,0,0,0,0,0,0,0,0,0,0,0,0,0,0,0,0,0,0,0,0,0,0,0,0,0,0,0,0,0,0,0,0,0,0,0,0,0,0,0,0,0,0,0,0,0,0,0,0,0,0,0,0,0,0,0,0,0,0,0,0,0,0,0,0,0,0,0,0,0,0,0,0,0,0,0,0,0,0,0,0,0,0,0,0,0,0,0,0,0,0,0,0,0,0,0,0,0,0,0,0,0,0,0,0,0,0,0,0,0,0,0,0,0,0,0,0,0,0,0,0,0,0,0,0,0,0,0,0,0,0,0,0,0,0,0,0,0,0,0,0,0,0,0,0,0,0,0,0,0,0,0,0,0,0,0,0,0,0,0,
0,0,0,0,0,0,0,0,0,0,0,0,0,0,0,0,0,0,0,0,0,0,0,0,0,0,0,0,0,0,0,0,0,0,0,0,0,0,0,0,0,0,0,0,0,0,0,0,0,0,0,0,0,0,0,0,0,0,0,0,0,0,0,0,0,0,0,0,0,0,0,0,0,0,0,0,0,0,0,0,0,0,0,0,0,0,0,0,0,0,0,0,0,0,0,0,0,0,0,0,0,0,0,0,0,0,0,0,0,0,0,0,0,0,0,0,0,0,0,0,0,0,0,0,0,0,0,0,0,0,0,0,0,0,0,0,0,0,0,0,0,0,0,0,0,0,0,0,0,0,0,0,0,0,0,0,0,0,0,0,0,0,0,0,0,0,0,0,0,0,0,0,0,0,0,0,0,0,0,0,0,0,0,0,0,0,0,0,0,0,0,0,0,0,0,0,0,0,0,0,0,0,0,0,0,0,0,0,0,0,0,0,0,0,0,0,0,0,0,0,0,0,0,0,0,0,0,0,0,0,0,0,0,0,0,0,0,0,0,0,
0,0,0,0,0,0,0,0,0,0,0,0,0,0,0,0,0,0,0,0,0,0,0,0,0,0,0,0,0,0,0,0,0,0,0,0,0,0,0,0,0,0,0,0,0,0,0,0,0,0,0,0,0,0,0,0,0,0,0,0,0,0,0,0,0,0,0,0,0,0,0,0,0,0,0,0,0,0,0,0,0,0,0,0,0,0,0,0,0,0,0,0,0,0,0,0,0,0,0,0,0,0,0,0,0,0,0,0,0,0,0,0,0,0,0,0,0,0,0,0,0,0,0,0,0,0,0,0,0,0,0,0,0,0,0,0,0,0,0,0,0,0,0,0,0,0,0,0,0,0,0,0,0,0,0,0,0,0,0,0,0,0,0,0,0,0,0,0,0,0,0,0,0,0,0,0,0,0,0,0,0,0,0,0,0,0,0,0,0,0,0,0,0,0,0,0,0,0,0,0,0,0,0,0,0,0,0,0,0,0,0,0,0,0,0,0,0,0,0,0,0,0,0,0,0,0,0,0,0,0,0,0,0,0,0,0,0,0,0,0,
0,0,0,0,0,0,0,0,0,0,0,0,0,0,0,0,0,0,0,0,0,0,0,0,0,0,0,0,0,0,0,0,0,0,0,0,0,0,0,0,0,0,0,0,0,0,0,0,0,0,0,0,0,0,0,0,0,0,0,0,0,0,0,0,0,0,0,0,0,0,0,0,0,0,0,0,0,0,0,0,0,0,0,0,0,0,0,0,0,0,0,0,0,0,0,0,0,0,0,0,0,0,0,0,0,0,0,0,0,0,0,0,0,0,0,0,0,0,0,0,0,0,0,0,0,0,0,0,0,0,0,0,0,0,0,0,0,0,0,0,0,0,0,0,0,0,0,0,0,0,0,0,0,0,0,0,0,0,0,0,0,0,0,0,0,0,0,0,0,0,0,0,0,0,0,0,0,0,0,0,0,0,0,0,0,0,0,0,0,0,0,0,0,0,0,0,0,0,0,0,0,0,0,0,0,0,0,0,0,0,0,0,0,0,0,0,0,0,0,0,0,0,0,0,0,0,0,0,0,0,0,0,0,0,0,0,0,0,0,0,
0,0,0,0,0,0,0,0,0,0,0,0,0,0,0,0,0,0,0,0,0,0,0,0,0,0,0,0,0,0,0,0,0,0,0,0,0,0,0,0,0,0,0,0,0,0,0,0,0,0,0,0,0,0,0,0,0,0,0,0,0,0,0,0,0,0,0,0,0,0,0,0,0,0,0,0,0,0,0,0,0,0,0,0,0,0,0,0,0,0,0,0,0,0,0,0,0,0,0,0,0,0,0,0,0,0,0,0,0,0,0,0,0,0,0,0,0,0,0,0,0,0,0,0,0,0,0,0,0,0,0,0,0,0,0,0,0,0,0,0,0,0,0,0,0,0,0,0,0,0,0,0,0,0,0,0,0,0,0,0,0,0,0,0,0,0,0,0,0,0,0,0,0,0,0,0,0,0,0,0,0,0,0,0,0,0,0,0,0,0,0,0,0,0,0,0,0,0,0,0,0,0,0,0,0,0,0,0,0,0,0,0,0,0,0,0,0,0,0,0,0,0,0,0,0,0,0,0,0,0,0,0,0,0,0,0,0,0,0,0,
0,0,0,0,0,0,0,0,0,0,0,0,0,0,0,0,0,0,0,0,0,0,0,0,0,0,0,0,0,0,0,0,0,0,0,0,0,0,0,0,0,0,0,0,0,0,0,0,0,0,0,0,0,0,0,0,0,0,0,0,0,0,0,0,0,0,0,0,0,0,0,0,0,0,0,0,0,0,0,0,0,0,0,0,0,0,0,0,0,0,0,0,0,0,0,0,0,0,0,0,0,0,0,0,0,0,0,0,0,0,0,0,0,0,0,0,0,0,0,0,0,0,0,0,0,0,0,0,0,0,0,0,0,0,0,0,0,0,0,0,0,0,0,0,0,0,0,0,0,0,0,0,0,0,0,0,0,0,0,0,0,0,0,0,0,0,0,0,0,0,0,0,0,0,0,0,0,0,0,0,0,0,0,0,0,0,0,0,0,0,0,0,0,0,0,0,0,0,0,0,0,0,0,0,0,0,0,0,0,0,0,0,0,0,0,0,0,0,0,0,0,0,0,0,0,0,0,0,0,0,0,0,0,0,0,0,0,0,0,0,
0,0,0,0,0,0,0,0,0,0,0,0,0,0,0,0,0,0,0,0,0,0,0,0,0,0,0,0,0,0,0,0,0,0,0,0,0,0,0,0,0,0,0,0,0,0,0,0,0,0,0,0,0,0,0,0,0,0,0,0,0,0,0,0,0,0,0,0,0,0,0,0,0,0,0,0,0,0,0,0,0,0,0,0,0,0,0,0,0,0,0,0,0,0,0,0,0,0,0,0,0,0,0,0,0,0,0,0,0,0,0,0,0,0,0,0,0,0,0,0,0,0,0,0,0,0,0,0,0,0,0,0,0,0,0,0,0,0,0,0,0,0,0,0,0,0,0,0,0,0,0,0,0,0,0,0,0,0,0,0,0,0,0,0,0,0,0,0,0,0,0,0,0,0,0,0,0,0,0,0,0,0,0,0,0,0,0,0,0,0,0,0,0,0,0,0,0,0,0,0,0,0,0,0,0,0,0,0,0,0,0,0,0,0,0,0,0,0,0,0,0,0,0,0,0,0,0,0,0,0,0,0,0,0,0,0,0,0,0,0,
0,0,0,0,0,0,0,0,0,0,0,0,0,0,0,0,0,0,0,0,0,0,0,0,0,0,0,0,0,0,0,0,0,0,0,0,0,0,0,0,0,0,0,0,0,0,0,0,0,0,0,0,0,59047,59047,59047,59047,59047,59047,59047,59047,59047,59047,59047,59047,59047,59047,59047,59047,0,0,0,0,0,0,0,0,0,0,0,0,0,0,0,0,0,0,0,0,0,0,0,0,0,0,0,0,0,0,0,0,0,0,0,0,0,0,0,0,0,0,0,0,0,0,0,0,0,0,0,0,0,0,0,0,0,0,0,0,0,0,0,0,0,0,0,0,0,0,0,0,0,0,0,0,0,0,0,0,0,0,0,0,0,0,0,0,0,0,0,0,0,0,0,0,0,0,0,0,0,0,0,0,0,0,0,0,0,0,0,0,0,0,0,0,0,0,0,0,0,0,0,0,0,0,0,0,0,0,0,0,0,0,0,0,0,0,0,0,0,0,0,0,0,0,0,0,0,0,0,0,0,0,0,0,0,0,0,0,0,0,0,0,0,0,0,0,0,0,0,
0,0,0,0,0,0,0,0,0,0,0,0,0,0,0,0,0,0,0,0,0,0,0,0,0,0,0,0,0,0,0,0,0,0,0,0,0,0,0,0,0,0,0,0,0,0,0,0,0,0,0,0,0,59047,59047,59047,59047,59047,59047,59047,59047,59047,59047,59047,59047,59047,59047,59047,59047,0,0,0,0,0,0,0,0,0,0,0,0,0,0,0,0,0,0,0,0,0,0,0,0,0,0,0,0,0,0,0,0,0,0,0,0,0,0,0,0,0,0,0,0,0,0,0,0,0,0,0,0,0,0,0,0,0,0,0,0,0,0,0,0,0,0,0,0,0,0,0,0,0,0,0,0,0,0,0,0,0,0,0,0,0,0,0,0,0,0,0,0,0,0,0,0,0,0,0,0,0,0,0,0,0,0,0,0,0,0,0,0,0,0,0,0,0,0,0,0,0,0,0,0,0,0,0,0,0,0,0,0,0,0,0,0,0,0,0,0,0,0,0,0,0,0,0,0,0,0,0,0,0,0,0,0,0,0,0,0,0,0,0,0,0,0,0,0,0,0,0,
0,0,0,0,0,0,0,0,0,0,0,0,0,0,0,0,0,0,0,0,0,0,0,0,0,0,0,0,0,0,0,0,0,0,0,0,0,0,0,0,0,0,0,0,0,0,0,0,0,0,0,0,0,59047,59047,59047,59047,59047,59047,59047,59047,59047,59047,59047,59047,59047,59047,59047,59047,0,0,0,0,0,0,0,0,0,0,0,0,0,0,0,0,0,0,0,0,0,0,0,0,0,0,0,0,0,0,0,0,0,0,0,0,0,0,0,0,0,0,0,0,0,0,0,0,0,0,0,0,0,0,0,0,0,0,0,0,0,0,0,0,0,0,0,0,0,0,0,0,0,0,0,0,0,0,0,0,0,0,0,0,0,0,0,0,0,0,0,0,0,0,0,0,0,0,0,0,0,0,0,0,0,0,0,0,0,0,0,0,0,0,0,0,0,0,0,0,0,0,0,0,0,0,0,0,0,0,0,0,0,0,0,0,0,0,0,0,0,0,0,0,0,0,0,0,0,0,0,0,0,0,0,0,0,0,0,0,0,0,0,0,0,0,0,0,0,0,0,
0,0,0,0,0,0,0,0,0,0,0,0,0,0,0,0,0,0,0,0,0,0,0,0,0,0,0,0,0,0,0,0,0,0,0,0,0,0,0,0,0,0,0,0,0,0,0,0,0,0,0,0,0,59047,59047,59047,59047,59047,59047,59047,59047,59047,59047,59047,59047,59047,59047,59047,59047,0,0,0,0,0,0,0,0,0,0,0,0,0,0,0,0,0,0,0,0,0,0,0,0,0,0,0,0,0,0,0,0,0,0,0,0,0,0,0,0,0,0,0,0,0,0,0,0,0,0,0,0,0,0,0,0,0,0,0,0,0,0,0,0,0,0,0,0,0,0,0,0,0,0,0,0,0,0,0,0,0,0,0,0,0,0,0,0,0,0,0,0,0,0,0,0,0,0,0,0,0,0,0,0,0,0,0,0,0,0,0,0,0,0,0,0,0,0,0,0,0,0,0,0,0,0,0,0,0,0,0,0,0,0,0,0,0,0,0,0,0,0,0,0,0,0,0,0,0,0,0,0,0,0,0,0,0,0,0,0,0,0,0,0,0,0,0,0,0,0,0,
0,0,0,0,0,0,0,0,0,0,0,0,0,0,0,0,0,0,0,0,0,0,0,0,0,0,0,0,0,0,0,0,0,0,0,0,0,0,0,0,0,0,0,0,0,0,0,0,0,0,0,0,0,59047,59047,59047,59047,59047,59047,59047,59047,59047,59047,59047,59047,59047,59047,59047,59047,0,0,0,0,0,0,0,0,0,0,0,0,0,0,0,0,0,0,0,0,0,0,0,0,0,0,0,0,0,0,0,0,0,0,0,0,0,0,0,0,0,0,0,0,0,0,0,0,0,0,0,0,0,0,0,0,0,0,0,0,0,0,0,0,0,0,0,0,0,0,0,0,0,0,0,0,0,0,0,0,0,0,0,0,0,0,0,0,0,0,0,0,0,0,0,0,0,0,0,0,0,0,0,0,0,0,0,0,0,0,0,0,0,0,0,0,0,0,0,0,0,0,0,0,0,0,0,0,0,0,0,0,0,0,0,0,0,0,0,0,0,0,0,0,0,0,0,0,0,0,0,0,0,0,0,0,0,0,0,0,0,0,0,0,0,0,0,0,0,0,0,
0,0,0,0,0,0,0,0,0,0,0,0,0,0,0,0,0,0,0,0,0,0,0,0,0,0,0,0,0,0,0,0,0,0,0,0,0,0,0,0,0,0,0,0,0,0,0,0,0,0,0,0,0,59047,59047,59047,59047,59047,59047,59047,59047,59047,59047,59047,59047,59047,59047,59047,59047,0,0,0,0,0,0,0,0,0,0,0,0,0,0,0,0,0,0,0,0,0,0,0,0,0,0,0,0,0,0,0,0,0,0,0,0,0,0,0,0,0,0,0,0,0,0,0,0,0,0,0,0,0,0,0,0,0,0,0,0,0,0,0,0,0,0,0,0,0,0,0,0,0,0,0,0,0,0,0,0,0,0,0,0,0,0,0,0,0,0,0,0,0,0,0,0,0,0,0,0,0,0,0,0,0,0,0,0,0,0,0,0,0,0,0,0,0,0,0,0,0,0,0,0,0,0,0,0,0,0,0,0,0,0,0,0,0,0,0,0,0,0,0,0,0,0,0,0,0,0,0,0,0,0,0,0,0,0,0,0,0,0,0,0,0,0,0,0,0,0,0,
0,0,0,0,0,0,0,0,0,0,0,0,0,0,0,0,0,0,0,0,0,0,0,0,0,0,0,0,0,0,0,0,0,0,0,0,0,0,0,0,0,0,0,0,0,0,0,0,0,0,0,0,0,59047,59047,59047,59047,59047,59047,59047,59047,59047,59047,59047,59047,59047,59047,59047,59047,0,0,0,0,0,0,0,0,0,0,0,0,0,0,0,0,0,0,0,0,0,0,0,0,0,0,0,0,0,0,0,0,0,0,0,0,0,0,0,0,0,0,0,0,0,0,0,0,0,0,0,0,0,0,0,0,0,0,0,0,0,0,0,0,0,0,0,0,0,0,0,0,0,0,0,0,0,0,0,0,0,0,0,0,0,0,0,0,0,0,0,0,0,0,0,0,0,0,0,0,0,0,0,0,0,0,0,0,0,0,0,0,0,0,0,0,0,0,0,0,0,0,0,0,0,0,0,0,0,0,0,0,0,0,0,0,0,0,0,0,0,0,0,0,0,0,0,0,0,0,0,0,0,0,0,0,0,0,0,0,0,0,0,0,0,0,0,0,0,0,0,
0,0,0,0,0,0,0,0,0,0,0,0,0,0,0,0,0,0,0,0,0,0,0,0,0,0,0,0,0,0,0,0,0,0,0,0,0,0,0,0,0,0,0,0,0,0,0,0,0,0,0,0,0,59047,59047,59047,59047,59047,59047,59047,59047,59047,59047,59047,59047,59047,59047,59047,59047,0,0,0,0,0,0,0,0,0,0,0,0,0,0,0,0,0,0,0,0,0,0,0,0,0,0,0,0,0,0,0,0,0,0,0,0,0,0,0,0,0,0,0,0,0,0,0,0,0,0,0,0,0,0,0,0,0,0,0,0,0,0,0,0,0,0,0,0,0,0,0,0,0,0,0,0,0,0,0,0,0,0,0,0,0,0,0,0,0,0,0,0,0,0,0,0,0,0,0,0,0,0,0,0,0,0,0,0,0,0,0,0,0,0,0,0,0,0,0,0,0,0,0,0,0,0,0,0,0,0,0,0,0,0,0,0,0,0,0,0,0,0,0,0,0,0,0,0,0,0,0,0,0,0,0,0,0,0,0,0,0,0,0,0,0,0,0,0,0,0,0,
0,0,0,0,0,0,0,0,0,0,0,0,0,0,0,0,0,0,0,0,0,0,0,0,0,0,0,0,0,0,0,0,0,0,0,0,0,0,0,0,0,0,0,0,0,0,0,0,0,0,0,0,0,59047,59047,59047,59047,59047,59047,59047,59047,59047,59047,59047,59047,59047,59047,59047,59047,0,0,0,0,0,0,0,0,0,0,0,0,0,0,0,0,0,0,0,0,0,0,0,0,0,0,0,0,0,0,0,0,0,0,0,0,0,0,0,0,0,0,0,0,0,0,0,0,0,0,0,0,0,0,0,0,0,0,0,0,0,0,0,0,0,0,0,0,0,0,0,0,0,0,0,0,0,0,0,0,0,0,0,0,0,0,0,0,0,0,0,0,0,0,0,0,0,0,0,0,0,0,0,0,0,0,0,0,0,0,0,0,0,0,0,0,0,0,0,0,0,0,0,0,0,0,0,0,0,0,0,0,0,0,0,0,0,0,0,0,0,0,0,0,0,0,0,0,0,0,0,0,0,0,0,0,0,0,0,0,0,0,0,0,0,0,0,0,0,0,0,
0,0,0,0,0,0,0,0,0,0,0,0,0,0,0,0,0,0,0,0,0,0,0,0,0,0,0,0,0,0,0,0,0,0,0,0,0,0,0,0,0,0,0,0,0,0,0,0,0,0,0,0,0,59047,59047,59047,59047,59047,59047,59047,59047,59047,59047,59047,59047,59047,59047,59047,59047,0,0,0,0,0,0,0,0,0,0,0,0,0,0,0,0,0,0,0,0,0,0,0,0,0,0,0,0,0,0,0,0,0,0,0,0,0,0,0,0,0,0,0,0,0,0,0,0,0,0,0,0,0,0,0,0,0,0,0,0,0,0,0,0,0,0,0,0,0,0,0,0,0,0,0,0,0,0,0,0,0,0,0,0,0,0,0,0,0,0,0,0,0,0,0,0,0,0,0,0,0,0,0,0,0,0,0,0,0,0,0,0,0,0,0,0,0,0,0,0,0,0,0,0,0,0,0,0,0,0,0,0,0,0,0,0,0,0,0,0,0,0,0,0,0,0,0,0,0,0,0,0,0,0,0,0,0,0,0,0,0,0,0,0,0,0,0,0,0,0,0,
0,0,0,0,0,0,0,0,0,0,0,0,0,0,0,0,0,0,0,0,0,0,0,0,0,0,0,0,0,0,0,0,0,0,0,0,0,0,0,0,0,0,0,0,0,0,0,0,0,0,0,0,59047,59047,59047,59047,59047,59047,59047,59047,59047,59047,59047,59047,59047,59047,59047,59047,59047,0,0,0,0,0,0,0,0,0,0,0,0,0,0,0,0,0,0,0,0,0,0,0,0,0,0,0,0,0,0,0,0,0,0,0,0,0,0,0,0,0,0,0,0,0,0,0,0,0,0,0,0,0,0,0,0,0,0,0,0,0,0,0,0,0,0,0,0,0,0,0,0,0,0,0,0,0,0,0,0,0,0,0,0,0,0,0,0,0,0,0,0,0,0,0,0,0,0,0,0,0,0,0,0,0,0,0,0,0,0,0,0,0,0,0,0,0,0,0,0,0,0,0,0,0,0,0,0,0,0,0,0,0,0,0,0,0,0,0,0,0,0,0,0,0,0,0,0,0,0,0,0,0,0,0,0,0,0,0,0,0,0,0,0,0,0,0,0,0,0,0,
0,0,0,0,0,0,0,0,0,0,0,0,0,0,0,0,0,0,0,0,0,0,0,0,0,0,0,0,0,0,0,0,0,0,0,0,0,0,0,0,0,0,0,0,0,0,0,0,0,0,0,0,59047,59047,59047,59047,59047,59047,59047,59047,59047,59047,59047,59047,59047,59047,59047,59047,59047,0,0,0,0,0,0,0,0,0,0,0,0,0,0,0,0,0,0,0,0,0,0,0,0,0,0,0,0,0,0,0,0,0,0,0,0,0,0,0,0,0,0,0,0,0,0,0,0,0,0,0,0,0,0,0,0,0,0,0,0,0,0,0,0,0,0,0,0,0,0,0,0,0,0,0,0,0,0,0,0,0,0,0,0,0,0,0,0,0,0,0,0,0,0,0,0,0,0,0,0,0,0,0,0,0,0,0,0,0,0,0,0,0,0,0,0,0,0,0,0,0,0,0,0,0,0,0,0,0,0,0,0,0,0,0,0,0,0,0,0,0,0,0,0,0,0,0,0,0,0,0,0,0,0,0,0,0,0,0,0,0,0,0,0,0,0,0,0,0,0,0,
0,0,0,0,0,0,0,0,0,0,0,0,0,0,0,0,0,0,0,0,0,0,0,0,0,0,0,0,0,0,0,0,0,0,0,0,0,0,0,0,0,0,0,0,0,0,0,0,0,0,0,59047,59047,59047,59047,59047,59047,59047,59047,59047,59047,59047,59047,59047,59047,59047,59047,59047,59047,59047,0,0,0,0,0,0,0,0,0,0,0,0,0,0,0,0,0,0,0,0,0,0,0,0,0,0,0,0,0,0,0,0,0,0,0,0,0,0,0,0,0,0,0,0,0,0,0,0,0,0,0,0,0,0,0,0,0,0,0,0,0,0,0,0,0,0,0,0,0,0,0,0,0,0,0,0,0,0,0,0,0,0,0,0,0,0,0,0,0,0,0,0,0,0,0,0,0,0,0,0,0,0,0,0,0,0,0,0,0,0,0,0,0,0,0,0,0,0,0,0,0,0,0,0,0,0,0,0,0,0,0,0,0,0,0,0,0,0,0,0,0,0,0,0,0,0,0,0,0,0,0,0,0,0,0,0,0,0,0,0,0,0,0,0,0,0,0,0,0,0,
0,0,0,0,0,0,0,0,0,0,0,0,0,0,0,0,0,0,0,0,0,0,0,0,0,0,0,0,0,0,0,0,0,0,0,0,0,0,0,0,0,0,0,0,0,0,0,0,0,0,0,59047,59047,59047,59047,59047,59047,59047,59047,59047,59047,59047,59047,59047,59047,59047,59047,59047,59047,59047,59047,0,0,0,0,0,0,0,0,0,0,0,0,0,0,0,0,0,0,0,0,0,0,0,0,0,0,0,0,0,0,0,0,0,0,0,0,0,0,0,0,0,0,0,0,0,0,0,0,0,0,0,0,0,0,0,0,0,0,0,0,0,0,0,0,0,0,0,0,0,0,0,0,0,0,0,0,0,0,0,0,0,0,0,0,0,0,0,0,0,0,0,0,0,0,0,0,0,0,0,0,0,0,0,0,0,0,0,0,0,0,0,0,0,0,0,0,0,0,0,0,0,0,0,0,0,0,0,0,0,0,0,0,0,0,0,0,0,0,0,0,0,0,0,0,0,0,0,0,0,0,0,0,0,0,0,0,0,0,0,0,0,0,0,0,0,0,0,0,0,
0,0,0,0,0,0,0,0,0,0,0,0,0,0,0,0,0,0,0,0,0,0,0,0,0,0,0,0,0,0,0,0,0,0,0,0,0,0,0,0,0,0,0,0,0,0,0,0,0,0,0,59047,59047,59047,59047,59047,59047,59047,59047,59047,59047,59047,59047,59047,59047,59047,59047,59047,59047,59047,59047,59047,0,0,0,0,0,0,0,0,0,0,0,0,0,0,0,0,0,0,0,0,0,0,0,0,0,0,0,0,0,0,0,0,0,0,0,0,0,0,0,0,0,0,0,0,0,0,0,0,0,0,0,0,0,0,0,0,0,0,0,0,0,0,0,0,0,0,0,0,0,0,0,0,0,0,0,0,0,0,0,0,0,0,0,0,0,0,0,0,0,0,0,0,0,0,0,0,0,0,0,0,0,0,0,0,0,0,0,0,0,0,0,0,0,0,0,0,0,0,0,0,0,0,0,0,0,0,0,0,0,0,0,0,0,0,0,0,0,0,0,0,0,0,0,0,0,0,0,0,0,0,0,0,0,0,0,0,0,0,0,0,0,0,0,0,0,0,0,0,
0,0,0,0,0,0,0,0,0,0,0,0,0,0,0,0,0,0,0,0,0,0,0,0,0,0,0,0,0,0,0,0,0,0,0,0,0,0,0,0,0,0,0,0,0,0,0,0,0,0,0,59047,59047,59047,59047,59047,59047,59047,59047,59047,59047,59047,59047,59047,59047,59047,59047,59047,59047,59047,59047,59047,0,0,0,0,0,0,0,0,0,0,0,0,0,0,0,0,0,0,0,0,0,0,0,0,0,0,0,0,0,0,0,0,0,0,0,0,0,0,0,0,0,0,0,0,0,0,0,0,0,0,0,0,0,0,0,0,0,0,0,0,0,0,0,0,0,0,0,0,0,0,0,0,0,0,0,0,0,0,0,0,0,0,0,0,0,0,0,0,0,0,0,0,0,0,0,0,0,0,0,0,0,0,0,0,0,0,0,0,0,0,0,0,0,0,0,0,0,0,0,0,0,0,0,0,0,0,0,0,0,0,0,0,0,0,0,0,0,0,0,0,0,0,0,0,0,0,0,0,0,0,0,0,0,0,0,0,0,0,0,0,0,0,0,0,0,0,0,0,
0,0,0,0,0,0,0,0,0,0,0,0,0,0,0,0,0,0,0,0,0,0,0,0,0,0,0,0,0,0,0,0,0,0,0,0,0,0,0,0,0,0,0,0,0,0,0,0,0,0,0,0,0,0,0,0,0,0,0,0,59047,59047,59047,0,0,0,0,0,0,0,0,0,0,0,0,0,0,0,0,0,0,0,0,0,0,0,0,0,0,0,0,0,0,0,0,0,0,0,0,0,0,0,0,0,0,0,0,0,0,0,0,0,0,0,0,0,0,0,0,0,0,0,0,0,0,0,0,0,0,0,0,0,0,0,0,0,0,0,0,0,0,0,0,0,0,0,0,0,0,0,0,0,0,0,0,0,0,0,0,0,0,0,0,0,0,0,0,0,0,0,0,0,0,0,0,0,0,0,0,0,0,0,0,0,0,0,0,0,0,0,0,0,0,0,0,0,0,0,0,0,0,0,0,0,0,0,0,0,0,0,0,0,0,0,0,0,0,0,0,0,0,0,0,0,0,0,0,0,0,0,0,0,0,0,0,0,0,0,0,0,
0,0,0,0,0,0,0,0,0,0,0,0,0,0,0,0,0,0,0,0,0,0,0,0,0,0,0,0,0,0,0,0,0,0,0,0,0,0,0,0,0,0,0,0,0,0,0,0,0,0,0,0,0,0,0,0,0,0,0,0,0,0,0,0,0,0,0,0,0,0,0,0,0,0,0,0,0,0,0,0,0,0,0,0,0,0,0,0,0,0,0,0,0,0,0,0,0,0,0,0,0,0,0,0,0,0,0,0,0,0,0,0,0,0,0,0,0,0,0,0,0,0,0,0,0,0,0,0,0,0,0,0,0,0,0,0,0,0,0,0,0,0,0,0,0,0,0,0,0,0,0,0,0,0,0,0,0,0,0,0,0,0,0,0,0,0,0,0,0,0,0,0,0,0,0,0,0,0,0,0,0,0,0,0,0,0,0,0,0,0,0,0,0,0,0,0,0,0,0,0,0,0,0,0,0,0,0,0,0,0,0,0,0,0,0,0,0,0,0,0,0,0,0,0,0,0,0,0,0,0,0,0,0,0,0,0,0,0,0,0,
0,0,0,0,0,0,0,0,0,0,0,0,0,0,0,0,0,0,0,0,0,0,0,0,0,0,0,0,0,0,0,0,0,0,0,0,0,0,0,0,0,0,0,0,0,0,0,0,0,0,0,0,0,0,0,0,0,0,0,0,0,0,0,0,0,0,0,0,0,0,0,0,0,0,0,0,0,0,0,0,0,0,0,0,0,0,0,0,0,0,0,0,0,0,0,0,0,0,0,0,0,0,0,0,0,0,0,0,0,0,0,0,0,0,0,0,0,0,0,0,0,0,0,0,0,0,0,0,0,0,0,0,0,0,0,0,0,0,0,0,0,0,0,0,0,0,0,0,0,0,0,0,0,0,0,0,0,0,0,0,0,0,0,0,0,0,0,0,0,0,0,0,0,0,0,0,0,0,0,0,0,0,0,0,0,0,0,0,0,0,0,0,0,0,0,0,0,0,0,0,0,0,0,0,0,0,0,0,0,0,0,0,0,0,0,0,0,0,0,0,0,0,0,0,0,0,0,0,0,0,0,0,0,0,0,0,0,0,0,0,
0,0,0,0,0,0,0,0,0,0,0,0,0,0,0,0,0,0,0,0,0,0,0,0,0,0,0,0,0,0,0,0,0,0,0,0,0,0,0,0,0,0,0,0,0,0,0,0,0,0,0,0,0,0,0,0,0,0,0,0,0,0,0,0,0,0,0,0,0,0,0,0,0,0,0,0,0,0,0,0,0,0,0,0,0,0,0,0,0,0,0,0,0,0,0,0,0,0,0,0,0,0,0,0,0,0,0,0,0,0,0,0,0,0,0,0,0,0,0,0,0,0,0,0,0,0,0,0,0,0,0,0,0,0,0,0,0,0,0,0,0,0,0,0,0,0,0,0,0,0,0,0,0,0,0,0,0,0,0,0,0,0,0,0,0,0,0,0,0,0,0,0,0,0,0,0,0,0,0,0,0,0,0,0,0,0,0,0,0,0,0,0,0,0,0,0,0,0,0,0,0,0,0,0,0,0,0,0,0,0,0,0,0,0,0,0,0,0,0,0,0,0,0,0,0,0,0,0,0,0,0,0,0,0,0,0,0,0,0,0,
0,0,0,0,0,0,0,0,0,0,0,0,0,0,0,0,0,0,0,0,0,0,0,0,0,0,0,0,0,0,0,0,0,0,0,0,0,0,0,0,0,0,0,0,0,0,0,0,0,0,0,0,0,0,0,0,0,0,0,0,0,0,0,0,0,0,0,0,0,0,0,0,0,0,0,0,0,0,0,0,0,0,0,0,0,0,0,0,0,0,0,0,0,0,0,0,0,0,0,0,0,0,0,0,0,0,0,0,0,0,0,0,0,0,0,0,0,0,0,0,0,0,0,0,0,0,0,0,0,0,0,0,0,0,0,0,0,0,0,0,0,0,0,0,0,0,0,0,0,0,0,0,0,0,0,0,0,0,0,0,0,0,0,0,0,0,0,0,0,0,0,0,0,0,0,0,0,0,0,0,0,0,0,0,0,0,0,0,0,0,0,0,0,0,0,0,0,0,0,0,0,0,0,0,0,0,0,0,0,0,0,0,0,0,0,0,0,0,0,0,0,0,0,0,0,0,0,0,0,0,0,0,0,0,0,0,0,0,0,0,
0,0,0,0,0,0,0,0,0,0,0,0,0,0,0,0,0,0,0,0,0,0,0,0,0,0,0,0,0,0,0,0,0,0,0,0,0,0,0,0,0,0,0,0,0,0,0,0,0,0,0,0,0,0,0,0,0,0,0,0,0,0,0,0,0,0,0,0,0,0,0,0,0,0,0,0,0,0,0,0,0,0,0,0,0,0,0,0,0,0,0,0,0,0,0,0,0,0,0,0,0,0,0,0,0,0,0,0,0,0,0,0,0,0,0,0,0,0,0,0,0,0,0,0,0,0,0,0,0,0,0,0,0,0,0,0,0,0,0,0,0,0,0,0,0,0,0,0,0,0,0,0,0,0,0,0,0,0,0,0,0,0,0,0,0,0,0,0,0,0,0,0,0,0,0,0,0,0,0,0,0,0,0,0,0,0,0,0,0,0,0,0,0,0,0,0,0,0,0,0,0,0,0,0,0,0,0,0,0,0,0,0,0,0,0,0,0,0,0,0,0,0,0,0,0,0,0,0,0,0,0,0,0,0,0,0,0,0,0,0,
0,0,0,0,0,0,0,0,0,0,0,0,0,0,0,0,0,0,0,0,0,0,0,0,0,0,0,0,0,0,0,0,0,0,0,0,0,0,0,0,0,0,0,0,0,0,0,0,0,0,0,0,0,0,0,0,0,0,0,0,0,0,0,0,0,0,0,0,0,0,0,0,0,0,0,0,0,0,0,0,0,0,0,0,0,0,0,0,0,0,0,0,0,0,0,0,0,0,0,0,0,0,0,0,0,0,0,0,0,0,0,0,0,0,0,0,0,0,0,0,0,0,0,0,0,0,0,0,0,0,0,0,0,0,0,0,0,0,0,0,0,0,0,0,0,0,0,0,0,0,0,0,0,0,0,0,0,0,0,0,0,0,0,0,0,0,0,0,0,0,0,0,0,0,0,0,0,0,0,0,0,0,0,0,0,0,0,0,0,0,0,0,0,0,0,0,0,0,0,0,0,0,0,0,0,0,0,0,0,0,0,0,0,0,0,0,0,0,0,0,0,0,0,0,0,0,0,0,0,0,0,0,0,0,0,0,0,0,0,0,
0,0,0,0,0,0,0,0,0,0,0,0,0,0,0,0,0,0,0,0,0,0,0,0,0,0,0,0,0,0,0,0,0,0,0,0,0,0,0,0,0,0,0,0,0,0,0,0,0,0,0,0,0,0,0,0,0,0,0,0,0,0,0,0,0,0,0,0,0,0,0,0,0,0,0,0,0,0,0,0,0,0,0,0,0,0,0,0,0,0,0,0,0,0,0,0,0,0,0,0,0,0,0,0,0,0,0,0,0,0,0,0,0,0,0,0,0,0,0,0,0,0,0,0,0,0,0,0,0,0,0,0,0,0,0,0,0,0,0,0,0,0,0,0,0,0,0,0,0,0,0,0,0,0,0,0,0,0,0,0,0,0,0,0,0,0,0,0,0,0,0,0,0,0,0,0,0,0,0,0,0,0,0,0,0,0,0,0,0,0,0,0,0,0,0,0,0,0,0,0,0,0,0,0,0,0,0,0,0,0,0,0,0,0,0,0,0,0,0,0,0,0,0,0,0,0,0,0,0,0,0,0,0,0,0,0,0,0,0,0,
0,0,0,0,0,0,0,0,0,0,0,0,0,0,0,0,0,0,0,0,0,0,0,0,0,0,0,0,0,0,0,0,0,0,0,0,0,0,0,0,0,0,0,0,0,0,0,0,0,0,0,0,0,0,0,0,0,0,0,0,0,0,0,0,0,0,0,0,0,0,0,0,0,0,0,0,0,0,0,0,0,0,0,0,0,0,0,0,0,0,0,0,0,0,0,0,0,0,0,0,0,0,0,0,0,0,0,0,0,0,0,0,0,0,0,0,0,0,0,0,0,0,0,0,0,0,0,0,0,0,0,0,0,0,0,0,0,0,0,0,0,0,0,0,0,0,0,0,0,0,0,0,0,0,0,0,0,0,0,0,0,0,0,0,0,0,0,0,0,0,0,0,0,0,0,0,0,0,0,0,0,0,0,0,0,0,0,0,0,0,0,0,0,0,0,0,0,0,0,0,0,0,0,0,0,0,0,0,0,0,0,0,0,0,0,0,0,0,0,0,0,0,0,0,0,0,0,0,0,0,0,0,0,0,0,0,0,0,0,0,
0,0,0,0,0,0,0,0,0,0,0,0,0,0,0,0,0,0,0,0,0,0,0,0,0,0,0,0,0,0,0,0,0,0,0,0,0,0,0,0,0,0,0,0,0,0,0,0,0,0,0,0,0,0,0,0,0,0,0,0,0,0,0,0,0,0,0,0,0,0,0,0,0,0,0,0,0,0,0,0,0,0,0,0,0,0,0,0,0,0,0,0,0,0,0,0,0,0,0,0,0,0,0,0,0,0,0,0,0,0,0,0,0,0,0,0,0,0,0,0,0,0,0,0,0,0,0,0,0,0,0,0,0,0,0,0,0,0,0,0,0,0,0,0,0,0,0,0,0,0,0,0,0,0,0,0,0,0,0,0,0,0,0,0,0,0,0,0,0,0,0,0,0,0,0,0,0,0,0,0,0,0,0,0,0,0,0,0,0,0,0,0,0,0,0,0,0,0,0,0,0,0,0,0,0,0,0,0,0,0,0,0,0,0,0,0,0,0,0,0,0,0,0,0,0,0,0,0,0,0,0,0,0,0,0,0,0,0,0,0,
0,0,0,0,0,0,0,0,0,0,0,0,0,0,0,0,0,0,0,0,0,0,0,0,0,0,0,0,0,0,0,0,0,0,0,0,0,0,0,0,0,0,0,0,0,0,0,0,0,0,0,0,0,0,0,0,0,0,0,0,0,0,0,0,0,0,0,0,0,0,0,0,0,0,0,0,0,0,0,0,0,0,0,0,0,0,0,0,0,0,0,0,0,0,0,0,0,0,0,0,0,0,0,0,0,0,0,0,0,0,0,0,0,0,0,0,0,0,0,0,0,0,0,0,0,0,0,0,0,0,0,0,0,0,0,0,0,0,0,0,0,0,0,0,0,0,0,0,0,0,0,0,0,0,0,0,0,0,0,0,0,0,0,0,0,0,0,0,0,0,0,0,0,0,0,0,0,0,0,0,0,0,0,0,0,0,0,0,0,0,0,0,0,0,0,0,0,0,0,0,0,0,0,0,0,0,0,0,0,0,0,0,0,0,0,0,0,0,0,0,0,0,0,0,0,0,0,0,0,0,0,0,0,0,0,0,0,0,0,0,
0,0,0,0,0,0,0,0,0,0,0,0,0,0,0,0,0,0,0,0,0,0,0,0,0,0,0,0,0,0,0,0,0,0,0,0,0,0,0,0,0,0,0,0,0,0,0,0,0,0,0,0,0,0,0,0,0,0,0,0,0,0,0,0,0,0,0,0,0,0,0,0,0,0,0,0,0,0,0,0,0,0,0,0,0,0,0,0,0,0,0,0,0,0,0,0,0,0,0,0,0,0,0,0,0,0,0,0,0,0,0,0,0,0,0,0,0,0,0,0,0,0,0,0,0,0,0,0,0,0,0,0,0,0,0,0,0,0,0,0,0,0,0,0,0,0,0,0,0,0,0,0,0,0,0,0,0,0,0,0,0,0,0,0,0,0,0,0,0,0,0,0,0,0,0,0,0,0,0,0,0,0,0,0,0,0,0,0,0,0,0,0,0,0,0,0,0,0,0,0,0,0,0,0,0,0,0,0,0,0,0,0,0,0,0,0,0,0,0,0,0,0,0,0,0,0,0,0,0,0,0,0,0,0,0,0,0,0,0,0,
0,0,0,0,0,0,0,0,0,0,0,0,0,0,0,0,0,0,0,0,0,0,0,0,0,0,0,0,0,0,0,0,0,0,0,0,0,0,0,0,0,0,0,0,0,0,0,0,0,0,0,0,0,0,0,0,0,0,0,0,0,0,0,0,0,0,0,0,0,0,0,0,0,0,0,0,0,0,0,0,0,0,0,0,0,0,0,0,0,0,0,0,0,0,0,0,0,0,0,0,0,0,0,0,0,0,0,0,0,0,0,0,0,0,0,0,0,0,0,0,0,0,0,0,0,0,0,0,0,0,0,0,0,0,0,0,0,0,0,0,0,0,0,0,0,0,0,0,0,0,0,0,0,0,0,0,0,0,0,0,0,0,0,0,0,0,0,0,0,0,0,0,0,0,0,0,0,0,0,0,0,0,0,0,0,0,0,0,0,0,0,0,0,0,0,0,0,0,0,0,0,0,0,0,0,0,0,0,0,0,0,0,0,0,0,0,0,0,0,0,0,0,0,0,0,0,0,0,0,0,0,0,0,0,0,0,0,0,0,0,
0,0,0,0,0,0,0,0,0,0,0,0,0,0,0,0,0,0,0,0,0,0,0,0,0,0,0,0,0,0,0,0,0,0,0,0,0,0,0,0,0,0,0,0,0,0,0,0,0,0,0,0,0,0,0,0,0,0,0,0,0,0,0,0,0,0,0,0,0,0,0,0,0,0,0,0,0,0,0,0,0,0,0,0,0,0,0,0,0,0,0,0,0,0,0,0,0,0,0,0,0,0,0,0,0,0,0,0,0,0,0,0,0,0,0,0,0,0,0,0,0,0,0,0,0,0,0,0,0,0,0,0,0,0,0,0,0,0,0,0,0,0,0,0,0,0,0,0,0,0,0,0,0,0,0,0,0,0,0,0,0,0,0,0,0,0,0,0,0,0,0,0,0,0,0,0,0,0,0,0,0,0,0,0,0,0,0,0,0,0,0,0,0,0,0,0,0,0,0,0,0,0,0,0,0,0,0,0,0,0,0,0,0,0,0,0,0,0,0,0,0,0,0,0,0,0,0,0,0,0,0,0,0,0,0,0,0,0,0,0,
0,0,0,0,0,0,0,0,0,0,0,0,0,0,0,0,0,0,0,0,0,0,0,0,0,0,0,0,0,0,0,0,0,0,0,0,0,0,0,0,0,0,0,0,0,0,0,0,0,0,0,0,0,0,0,0,0,0,0,0,0,0,0,0,0,0,0,0,0,0,0,0,0,0,0,0,0,0,0,0,0,0,0,0,0,0,0,0,0,0,0,0,0,0,0,0,0,0,0,0,0,0,0,0,0,0,0,0,0,0,0,0,0,0,0,0,0,0,0,0,0,0,0,0,0,0,0,0,0,0,0,0,0,0,0,0,0,0,0,0,0,0,0,0,0,0,0,0,0,0,0,0,0,0,0,0,0,0,0,0,0,0,0,0,0,0,0,0,0,0,0,0,0,0,0,0,0,0,0,0,0,0,0,0,0,0,0,0,0,0,0,0,0,0,0,0,0,0,0,0,0,0,0,0,0,0,0,0,0,0,0,0,0,0,0,0,0,0,0,0,0,0,0,0,0,0,0,0,0,0,0,0,0,0,0,0,0,0,0,0,
0,0,0,0,0,0,0,0,0,0,0,0,0,0,0,0,0,0,0,0,0,0,0,0,0,0,0,0,0,0,0,0,0,0,0,0,0,0,0,0,0,0,0,0,0,0,0,0,0,0,0,0,0,0,0,0,0,0,0,0,0,0,0,0,0,0,0,0,0,0,0,0,0,0,0,0,0,0,0,0,0,0,0,0,0,0,0,0,0,0,0,0,0,0,0,0,0,0,0,0,0,0,0,0,0,0,0,0,0,0,0,0,0,0,0,0,0,0,0,0,0,0,0,0,0,0,0,0,0,0,0,0,0,0,0,0,0,0,0,0,0,0,0,0,0,0,0,0,0,0,0,0,0,0,0,0,0,0,0,0,0,0,0,0,0,0,0,0,0,0,0,0,0,0,0,0,0,0,0,0,0,0,0,0,0,0,0,0,0,0,0,0,0,0,0,0,0,0,0,0,0,0,0,0,0,0,0,0,0,0,0,0,0,0,0,0,0,0,0,0,0,0,0,0,0,0,0,0,0,0,0,0,0,0,0,0,0,0,0,0,
0,0,0,0,0,0,0,0,0,0,0,0,0,0,0,0,0,0,0,0,0,0,0,0,0,0,0,0,0,0,0,0,0,0,0,0,0,0,0,0,0,0,0,0,0,0,0,0,0,0,0,0,0,0,0,0,0,0,0,0,0,0,0,0,0,0,0,0,0,0,0,0,0,0,0,0,0,0,0,0,0,0,0,0,0,0,0,0,0,0,0,0,0,0,0,0,0,0,0,0,0,0,0,0,0,0,0,0,0,0,0,0,0,0,0,0,0,0,0,0,0,0,0,0,0,0,0,0,0,0,0,0,0,0,0,0,0,0,0,0,0,0,0,0,0,0,0,0,0,0,0,0,0,0,0,0,0,0,0,0,0,0,0,0,0,0,0,0,0,0,0,0,0,0,0,0,0,0,0,0,0,0,0,0,0,0,0,0,0,0,0,0,0,0,0,0,0,0,0,0,0,0,0,0,0,0,0,0,0,0,0,0,0,0,0,0,0,0,0,0,0,0,0,0,0,0,0,0,0,0,0,0,0,0,0,0,0,0,0,0,
0,0,0,0,0,0,0,0,0,0,0,0,0,0,0,0,0,0,0,0,0,0,0,0,0,0,0,0,0,0,0,0,0,0,0,0,0,0,0,0,0,0,0,0,0,0,0,0,0,0,0,0,0,0,0,0,0,0,0,0,0,0,0,0,0,0,0,0,0,0,0,0,0,0,0,0,0,0,0,0,0,0,0,0,0,0,0,0,0,0,0,0,0,0,0,0,0,0,0,0,0,0,0,0,0,0,0,0,0,0,0,0,0,0,0,0,0,0,0,0,0,0,0,0,0,0,0,0,0,0,0,0,0,0,0,0,0,0,0,0,0,0,0,0,0,0,0,0,0,0,0,0,0,0,0,0,0,0,0,0,0,0,0,0,0,0,0,0,0,0,0,0,0,0,0,0,0,0,0,0,0,0,0,0,0,0,0,0,0,0,0,0,0,0,0,0,0,0,0,0,0,0,0,0,0,0,0,0,0,0,0,0,0,0,0,0,0,0,0,0,0,0,0,0,0,0,0,0,0,0,0,0,0,0,0,0,0,0,0,0,
0,0,0,0,0,0,0,0,0,0,0,0,0,0,0,0,0,0,0,0,0,0,0,0,0,0,0,0,0,0,0,0,0,0,0,0,0,0,0,0,0,0,0,0,0,0,0,0,0,0,0,0,0,0,0,0,0,0,0,0,0,0,0,0,0,0,0,0,0,0,0,0,0,0,0,0,0,0,0,0,0,0,0,0,0,0,0,0,0,0,0,0,0,0,0,0,0,0,0,0,0,0,0,0,0,0,0,0,0,0,0,0,0,0,0,0,0,0,0,0,0,0,0,0,0,0,0,0,0,0,0,0,0,0,0,0,0,0,0,0,0,0,0,0,0,0,0,0,0,0,0,0,0,0,0,0,0,0,0,0,0,0,0,0,0,0,0,0,0,0,0,0,0,0,0,0,0,0,0,0,0,0,0,0,0,0,0,0,0,0,0,0,0,0,0,0,0,0,0,0,0,0,0,0,0,0,0,0,0,0,0,0,0,0,0,0,0,0,0,0,0,0,0,0,0,0,0,0,0,0,0,0,0,0,0,0,0,0,0,0,
0,0,0,0,0,0,0,0,0,0,0,0,0,0,0,0,0,0,0,0,0,0,0,0,0,0,0,0,0,0,0,0,0,0,0,0,0,0,0,0,0,0,0,0,0,0,0,0,0,0,0,0,0,0,0,0,0,0,0,0,0,0,0,0,0,0,0,0,0,0,0,0,0,0,0,0,0,0,0,0,0,0,0,0,0,0,0,0,0,0,0,0,0,0,0,0,0,0,0,0,0,0,0,0,0,0,0,0,0,0,0,0,0,0,0,0,0,0,0,0,0,0,0,0,0,0,0,0,0,0,0,0,0,0,0,0,0,0,0,0,0,0,0,0,0,0,0,0,0,0,0,0,0,0,0,0,0,0,0,0,0,0,0,0,0,0,0,0,0,0,0,0,0,0,0,0,0,0,0,0,0,0,0,0,0,0,0,0,0,0,0,0,0,0,0,0,0,0,0,0,0,0,0,0,0,0,0,0,0,0,0,0,0,0,0,0,0,0,0,0,0,0,0,0,0,0,0,0,0,0,0,0,0,0,0,0,0,0,0,0,
0,0,0,0,0,0,0,0,0,0,0,0,0,0,0,0,0,0,0,0,0,0,0,0,0,0,0,0,0,0,0,0,0,0,0,0,0,0,0,0,0,0,0,0,0,0,0,0,0,0,0,0,0,0,0,0,0,0,0,0,0,0,0,0,0,0,0,0,0,0,0,0,0,0,0,0,0,0,0,0,0,0,0,0,0,0,0,0,0,0,0,0,0,0,0,0,0,0,0,0,0,0,0,0,0,0,0,0,0,0,0,0,0,0,0,0,0,0,0,0,0,0,0,0,0,0,0,0,0,0,0,0,0,0,0,0,0,0,0,0,0,0,0,0,0,0,0,0,0,0,0,0,0,0,0,0,0,0,0,0,0,0,0,0,0,0,0,0,0,0,0,0,0,0,0,0,0,0,0,0,0,0,0,0,0,0,0,0,0,0,0,0,0,0,0,0,0,0,0,0,0,0,0,0,0,0,0,0,0,0,0,0,0,0,0,0,0,0,0,0,0,0,0,0,0,0,0,0,0,0,0,0,0,0,0,0,0,0,0,0,
0,0,0,0,0,0,0,0,0,0,0,0,0,0,0,0,0,0,0,0,0,0,0,0,0,0,0,0,0,0,0,0,0,0,0,0,0,0,0,0,0,0,0,0,0,0,0,0,0,0,0,0,0,0,0,0,0,0,0,0,0,0,0,0,0,0,0,0,0,0,0,0,0,0,0,0,0,0,0,0,0,0,0,0,0,0,0,0,0,0,0,0,0,0,0,0,0,0,0,0,0,0,0,0,0,0,0,0,0,0,0,0,0,0,0,0,0,0,0,0,0,0,0,0,0,0,0,0,0,0,0,0,0,0,0,0,0,0,0,0,0,0,0,0,0,0,0,0,0,0,0,0,0,0,0,0,0,0,0,0,0,0,0,0,0,0,0,0,0,0,0,0,0,0,0,0,0,0,0,0,0,0,0,0,0,0,0,0,0,0,0,0,0,0,0,0,0,0,0,0,0,0,0,0,0,0,0,0,0,0,0,0,0,0,0,0,0,0,0,0,0,0,0,0,0,0,0,0,0,0,0,0,0,0,0,0,0,0,0,0,
0,0,0,0,0,0,0,0,0,0,0,0,0,0,0,0,0,0,0,0,0,0,0,0,0,0,0,0,0,0,0,0,0,0,0,0,0,0,0,0,0,0,0,0,0,0,0,0,0,0,0,0,0,0,0,0,0,0,0,0,0,0,0,0,0,0,0,0,0,0,0,0,0,0,0,0,0,0,0,0,0,0,0,0,0,0,0,0,0,0,0,0,0,0,0,0,0,0,0,0,0,0,0,0,0,0,0,0,0,0,0,0,0,0,0,0,0,0,0,0,0,0,0,0,0,0,0,0,0,0,0,0,0,0,0,0,0,0,0,0,0,0,0,0,0,0,0,0,0,0,0,0,0,0,0,0,0,0,0,0,0,0,0,0,0,0,0,0,0,0,0,0,0,0,0,0,0,0,0,0,0,0,0,0,0,0,0,0,0,0,0,0,0,0,0,0,0,0,0,0,0,0,0,0,0,0,0,0,0,0,0,0,0,0,0,0,0,0,0,0,0,0,0,0,0,0,0,0,0,0,0,0,0,0,0,0,0,0,0,0,
0,0,0,0,0,0,0,0,0,0,0,0,0,0,0,0,0,0,0,0,0,0,0,0,0,0,0,0,0,0,0,0,0,0,0,0,0,0,0,0,0,0,0,0,0,0,0,0,0,0,0,0,0,0,0,0,0,0,0,0,0,0,0,0,0,0,0,0,0,0,0,0,0,0,0,0,0,0,0,0,0,0,0,0,0,0,0,0,0,0,0,0,0,0,0,0,0,0,0,0,0,0,0,0,0,0,0,0,0,0,0,0,0,0,0,0,0,0,0,0,0,0,0,0,0,0,0,0,0,0,0,0,0,0,0,0,0,0,0,0,0,0,0,0,0,0,0,0,0,0,0,0,0,0,0,0,0,0,0,0,0,0,0,0,0,0,0,0,0,0,0,0,0,0,0,0,0,0,0,0,0,0,0,0,0,0,0,0,0,0,0,0,0,0,0,0,0,0,0,0,0,0,0,0,0,0,0,0,0,0,0,0,0,0,0,0,0,0,0,0,0,0,0,0,0,0,0,0,0,0,0,0,0,0,0,0,0,0,0,0,
0,0,0,0,0,0,0,0,0,0,0,0,0,0,0,0,0,0,0,0,0,0,0,0,0,0,0,0,0,0,0,0,0,0,0,0,0,0,0,0,0,0,0,0,0,0,0,0,0,0,0,0,0,0,0,0,0,0,0,0,0,0,0,0,0,0,0,0,0,0,0,0,0,0,0,0,0,0,0,0,0,0,0,0,0,0,0,0,0,0,0,0,0,0,0,0,0,0,0,0,0,0,0,0,0,0,0,0,0,0,0,0,0,0,0,0,0,0,0,0,0,0,0,0,0,0,0,0,0,0,0,0,0,0,0,0,0,0,0,0,0,0,0,0,0,0,0,0,0,0,0,0,0,0,0,0,0,0,0,0,0,0,0,0,0,0,0,0,0,0,0,0,0,0,0,0,0,0,0,0,0,0,0,0,0,0,0,0,0,0,0,0,0,0,0,0,0,0,0,0,0,0,0,0,0,0,0,0,0,0,0,0,0,0,0,0,0,0,0,0,0,0,0,0,0,0,0,0,0,0,0,0,0,0,0,0,0,0,0,0,
0,0,0,0,0,0,0,0,0,0,0,0,0,0,0,0,0,0,0,0,0,0,0,0,0,0,0,0,0,0,0,0,0,0,0,0,0,0,0,0,0,0,0,0,0,0,0,0,0,0,0,0,0,0,0,0,0,0,0,0,0,0,0,0,0,0,0,0,0,0,0,0,0,0,0,0,0,0,0,0,0,0,0,0,0,0,0,0,0,0,0,0,0,0,0,0,0,0,0,0,0,0,0,0,0,0,0,0,0,0,0,0,0,0,0,0,0,0,0,0,0,0,0,0,0,0,0,0,0,0,0,0,0,0,0,0,0,0,0,0,0,0,0,0,0,0,0,0,0,0,0,0,0,0,0,0,0,0,0,0,0,0,0,0,0,0,0,0,0,0,0,0,0,0,0,0,0,0,0,0,0,0,0,0,0,0,0,0,0,0,0,0,0,0,0,0,0,0,0,0,0,0,0,0,0,0,0,0,0,0,0,0,0,0,0,0,0,0,0,0,0,0,0,0,0,0,0,0,0,0,0,0,0,0,0,0,0,0,0,0,
0,0,0,0,0,0,0,0,0,0,0,0,0,0,0,0,0,0,0,0,0,0,0,0,0,0,0,0,0,0,0,0,0,0,0,0,0,0,0,0,0,0,0,0,0,0,0,0,0,0,0,0,0,0,0,0,0,0,0,0,0,0,0,0,0,0,0,0,0,0,0,0,0,0,0,0,0,0,0,0,0,0,0,0,0,0,0,0,0,0,0,0,0,0,0,0,0,0,0,0,0,0,0,0,0,0,0,0,0,0,0,0,0,0,0,0,0,0,0,0,0,0,0,0,0,0,0,0,0,0,0,0,0,0,0,0,0,0,0,0,0,0,0,0,0,0,0,0,0,0,0,0,0,0,0,0,0,0,0,0,0,0,0,0,0,0,0,0,0,0,0,0,0,0,0,0,0,0,0,0,0,0,0,0,0,0,0,0,0,0,0,0,0,0,0,0,0,0,0,0,0,0,0,0,0,0,0,0,0,0,0,0,0,0,0,0,0,0,0,0,0,0,0,0,0,0,0,0,0,0,0,0,0,0,0,0,0,0,0,0,
0,0,0,0,0,0,0,0,0,0,0,0,0,0,0,0,0,0,0,0,0,0,0,0,0,0,0,0,0,0,0,0,0,0,0,0,0,0,0,0,0,0,0,0,0,0,0,0,0,0,0,0,0,0,0,0,0,0,0,0,0,0,0,0,0,0,0,0,0,0,0,0,0,0,0,0,0,0,0,0,0,0,0,0,0,0,0,0,0,0,0,0,0,0,0,0,0,0,0,0,0,0,0,0,0,0,0,0,0,0,0,0,0,0,0,0,0,0,0,0,0,0,0,0,0,0,0,0,0,0,0,0,0,0,0,0,0,0,0,0,0,0,0,0,0,0,0,0,0,0,0,0,0,0,0,0,0,0,0,0,0,0,0,0,0,0,0,0,0,0,0,0,0,0,0,0,0,0,0,0,0,0,0,0,0,0,0,0,0,0,0,0,0,0,0,0,0,0,0,0,0,0,0,0,0,0,0,0,0,0,0,0,0,0,0,0,0,0,0,0,0,0,0,0,0,0,0,0,0,0,0,0,0,0,0,0,0,0,0,0,
0,0,0,0,0,0,0,0,0,0,0,0,0,0,0,0,0,0,0,0,0,0,0,0,0,0,0,0,0,0,0,0,0,0,0,0,0,0,0,0,0,0,0,0,0,0,0,0,0,0,0,0,0,0,0,0,0,0,0,0,0,0,0,0,0,0,0,0,0,0,0,0,0,0,0,0,0,0,0,0,0,0,0,0,0,0,0,0,0,0,0,0,0,0,0,0,0,0,0,0,0,0,0,0,0,0,0,0,0,0,0,0,0,0,0,0,0,0,0,0,0,0,0,0,0,0,0,0,0,0,0,0,0,0,0,0,0,0,0,0,0,0,0,0,0,0,0,0,0,0,0,0,0,0,0,0,0,0,0,0,0,0,0,0,0,0,0,0,0,0,0,0,0,0,0,0,0,0,0,0,0,0,0,0,0,0,0,0,0,0,0,0,0,0,0,0,0,0,0,0,0,0,0,0,0,0,0,0,0,0,0,0,0,0,0,0,0,0,0,0,0,0,0,0,0,0,0,0,0,0,0,0,0,0,0,0,0,0,0,0,
0,0,0,0,0,0,0,0,0,0,0,0,0,0,0,0,0,0,0,0,0,0,0,0,0,0,0,0,0,0,0,0,0,0,0,0,0,0,0,0,0,0,0,0,0,0,0,0,0,0,0,0,0,0,0,0,0,0,0,0,0,0,0,0,0,0,0,0,0,0,0,0,0,0,0,0,0,0,0,0,0,0,0,0,0,0,0,0,0,0,0,0,0,0,0,0,0,0,0,0,0,0,0,0,0,0,0,0,0,0,0,0,0,0,0,0,0,0,0,0,0,0,0,0,0,0,0,0,0,0,0,0,0,0,0,0,0,0,0,0,0,0,0,0,0,0,0,0,0,0,0,0,0,0,0,0,0,0,0,0,0,0,0,0,0,0,0,0,0,0,0,0,0,0,0,0,0,0,0,0,0,0,0,0,0,0,0,0,0,0,0,0,0,0,0,0,0,0,0,0,0,0,0,0,0,0,0,0,0,0,0,0,0,0,0,0,0,0,0,0,0,0,0,0,0,0,0,0,0,0,0,0,0,0,0,0,0,0,0,0,
0,0,0,0,0,0,0,0,0,0,0,0,0,0,0,0,0,0,0,0,0,0,0,0,0,0,0,0,0,0,0,0,0,0,0,0,0,0,0,0,0,0,0,0,0,0,0,0,0,0,0,0,0,0,0,0,0,0,0,0,0,0,0,0,0,0,0,0,0,0,0,0,0,0,0,0,0,0,0,0,0,0,0,0,0,0,0,0,0,0,0,0,0,0,0,0,0,0,0,0,0,0,0,0,0,0,0,0,0,0,0,0,0,0,0,0,0,0,0,0,0,0,0,0,0,0,0,0,0,0,0,0,0,0,0,0,0,0,0,0,0,0,0,0,0,0,0,0,0,0,0,0,0,0,0,0,0,0,0,0,0,0,0,0,0,0,0,0,0,0,0,0,0,0,0,0,0,0,0,0,0,0,0,0,0,0,0,0,0,0,0,0,0,0,0,0,0,0,0,0,0,0,0,0,0,0,0,0,0,0,0,0,0,0,0,0,0,0,0,0,0,0,0,0,0,0,0,0,0,0,0,0,0,0,0,0,0,0,0,0,
0,0,0,0,0,0,0,0,0,0,0,0,0,0,0,0,0,0,0,0,0,0,0,0,0,0,0,0,0,0,0,0,0,0,0,0,0,0,0,0,0,0,0,0,0,0,0,0,0,0,0,0,0,0,0,0,0,0,0,0,0,0,0,0,0,0,0,0,0,0,0,0,0,0,0,0,0,0,0,0,0,0,0,0,0,0,0,0,0,0,0,0,0,0,0,0,0,0,0,0,0,0,0,0,0,0,0,0,0,0,0,0,0,0,0,0,0,0,0,0,0,0,0,0,0,0,0,0,0,0,0,0,0,0,0,0,0,0,0,0,0,0,0,0,0,0,0,0,0,0,0,0,0,0,0,0,0,0,0,0,0,0,0,0,0,0,0,0,0,0,0,0,0,0,0,0,0,0,0,0,0,0,0,0,0,0,0,0,0,0,0,0,0,0,0,0,0,0,0,0,0,0,0,0,0,0,0,0,0,0,0,0,0,0,0,0,0,0,0,0,0,0,0,0,0,0,0,0,0,0,0,0,0,0,0,0,0,0,0,0,
0,0,0,0,0,0,0,0,0,0,0,0,0,0,0,0,0,0,0,0,0,0,0,0,0,0,0,0,0,0,0,0,0,0,0,0,0,0,0,0,0,0,0,0,0,0,0,0,0,0,0,0,0,0,0,0,0,0,0,0,0,0,0,0,0,0,0,0,0,0,0,0,0,0,0,0,0,0,0,0,0,0,0,0,0,0,0,0,0,0,0,0,0,0,0,0,0,0,0,0,0,0,0,0,0,0,0,0,0,0,0,0,0,0,0,0,0,0,0,0,0,0,0,0,0,0,0,0,0,0,0,0,0,0,0,0,0,0,0,0,0,0,0,0,0,0,0,0,0,0,0,0,0,0,0,0,0,0,0,0,0,0,0,0,0,0,0,0,0,0,0,0,0,0,0,0,0,0,0,0,0,0,0,0,0,0,0,0,0,0,0,0,0,0,0,0,0,0,0,0,0,0,0,0,0,0,0,0,0,0,0,0,0,0,0,0,0,0,0,0,0,0,0,0,0,0,0,0,0,0,0,0,0,0,0,0,0,0,0,0,
0,0,0,0,0,0,0,0,0,0,0,0,0,0,0,0,0,0,0,0,0,0,0,0,0,0,0,0,0,0,0,0,0,0,0,0,0,0,0,0,0,0,0,0,0,0,0,0,0,0,0,0,0,0,0,0,0,0,0,0,0,0,0,0,0,0,0,0,0,0,0,0,0,0,0,0,0,0,0,0,0,0,0,0,0,0,0,0,0,0,0,0,0,0,0,0,0,0,0,0,0,0,0,0,0,0,0,0,0,0,0,0,0,0,0,0,0,0,0,0,0,0,0,0,0,0,0,0,0,0,0,0,0,0,0,0,0,0,0,0,0,0,0,0,0,0,0,0,0,0,0,0,0,0,0,0,0,0,0,0,0,0,0,0,0,0,0,0,0,0,0,0,0,0,0,0,0,0,0,0,0,0,0,0,0,0,0,0,0,0,0,0,0,0,0,0,0,0,0,0,0,0,0,0,0,0,0,0,0,0,0,0,0,0,0,0,0,0,0,0,0,0,0,0,0,0,0,0,0,0,0,0,0,0,0,0,0,0,0,0,
0,0,0,0,0,0,0,0,0,0,0,0,0,0,0,0,0,0,0,0,0,0,0,0,0,0,0,0,0,0,0,0,0,0,0,0,0,0,0,0,0,0,0,0,0,0,0,0,0,0,0,0,0,0,0,0,0,0,0,0,0,0,0,0,0,0,0,0,0,0,0,0,0,0,0,0,0,0,0,0,0,0,0,0,0,0,0,0,0,0,0,0,0,0,0,0,0,0,0,0,0,0,0,0,0,0,0,0,0,0,0,0,0,0,0,0,0,0,0,0,0,0,0,0,0,0,0,0,0,0,0,0,0,0,0,0,0,0,0,0,0,0,0,0,0,0,0,0,0,0,0,0,0,0,0,0,0,0,0,0,0,0,0,0,0,0,0,0,0,0,0,0,0,0,0,0,0,0,0,0,0,0,0,0,0,0,0,0,0,0,0,0,0,0,0,0,0,0,0,0,0,0,0,0,0,0,0,0,0,0,0,0,0,0,0,0,0,0,0,0,0,0,0,0,0,0,0,0,0,0,0,0,0,0,0,0,0,0,0,0,
0,0,0,0,0,0,0,0,0,0,0,0,0,0,0,0,0,0,0,0,0,0,0,0,0,0,0,0,0,0,0,0,0,0,0,0,0,0,0,0,0,0,0,0,0,0,0,0,0,0,0,0,0,0,0,0,0,0,0,0,0,0,0,0,0,0,0,0,0,0,0,0,0,0,0,0,0,0,0,0,0,0,0,0,0,0,0,0,0,0,0,0,0,0,0,0,0,0,0,0,0,0,0,0,0,0,0,0,0,0,0,0,0,0,0,0,0,0,0,0,0,0,0,0,0,0,0,0,0,0,0,0,0,0,0,0,0,0,0,0,0,0,0,0,0,0,0,0,0,0,0,0,0,0,0,0,0,0,0,0,0,0,0,0,0,0,0,0,0,0,0,0,0,0,0,0,0,0,0,0,0,0,0,0,0,0,0,0,0,0,0,0,0,0,0,0,0,0,0,0,0,0,0,0,0,0,0,0,0,0,0,0,0,0,0,0,0,0,0,0,0,0,0,0,0,0,0,0,0,0,0,0,0,0,0,0,0,0,0,0,
0,0,0,0,0,0,0,0,0,0,0,0,0,0,0,0,0,0,0,0,0,0,0,0,0,0,0,0,0,0,0,0,0,0,0,0,0,0,0,0,0,0,0,0,0,0,0,0,0,0,0,0,0,0,0,0,0,0,0,0,0,0,0,0,0,0,0,0,0,0,0,0,0,0,0,0,0,0,0,0,0,0,0,0,0,0,0,0,0,0,0,0,0,0,0,0,0,0,0,0,0,0,0,0,0,0,0,0,0,0,0,0,0,0,0,0,0,0,0,0,0,0,0,0,0,0,0,0,0,0,0,0,0,0,0,0,0,0,0,0,0,0,0,0,0,0,0,0,0,0,0,0,0,0,0,0,0,0,0,0,0,0,0,0,0,0,0,0,0,0,0,0,0,0,0,0,0,0,0,0,0,0,0,0,0,0,0,0,0,0,0,0,0,0,0,0,0,0,0,0,0,0,0,0,0,0,0,0,0,0,0,0,0,0,0,0,0,0,0,0,0,0,0,0,0,0,0,0,0,0,0,0,0,0,0,0,0,0,0,0,
0,0,0,0,0,0,0,0,0,0,0,0,0,0,0,0,0,0,0,0,0,0,0,0,0,0,0,0,0,0,0,0,0,0,0,0,0,0,0,0,0,0,0,0,0,0,0,0,0,0,0,0,0,0,0,0,0,0,0,0,0,0,0,0,0,0,0,0,0,0,0,0,0,0,0,0,0,0,0,0,0,0,0,0,0,0,0,0,0,0,0,0,0,0,0,0,0,0,0,0,0,0,0,0,0,0,0,0,0,0,0,0,0,0,0,0,0,0,0,0,0,0,0,0,0,0,0,0,0,0,0,0,0,0,0,0,0,0,0,0,0,0,0,0,0,0,0,0,0,0,0,0,0,0,0,0,0,0,0,0,0,0,0,0,0,0,0,0,0,0,0,0,0,0,0,0,0,0,0,0,0,0,0,0,0,0,0,0,0,0,0,0,0,0,0,0,0,0,0,0,0,0,0,0,0,0,0,0,0,0,0,0,0,0,0,0,0,0,0,0,0,0,0,0,0,0,0,0,0,0,0,0,0,0,0,0,0,0,0,0,
0,0,0,0,0,0,0,0,0,0,0,0,0,0,0,0,0,0,0,0,0,0,0,0,0,0,0,0,0,0,0,0,0,0,0,0,0,0,0,0,0,0,0,0,0,0,0,0,0,0,0,0,0,0,0,0,0,0,0,0,0,0,0,0,0,0,0,0,0,0,0,0,0,0,0,0,0,0,0,0,0,0,0,0,0,0,0,0,0,0,0,0,0,0,0,0,0,0,0,0,0,0,0,0,0,0,0,0,0,0,0,0,0,0,0,0,0,0,0,0,0,0,0,0,0,0,0,0,0,0,0,0,0,0,0,0,0,0,0,0,0,0,0,0,0,0,0,0,0,0,0,0,0,0,0,0,0,0,0,0,0,0,0,0,0,0,0,0,0,0,0,0,0,0,0,0,0,0,0,0,0,0,0,0,0,0,0,0,0,0,0,0,0,0,0,0,0,0,0,0,0,0,0,0,0,0,0,0,0,0,0,0,0,0,0,0,0,0,0,0,0,0,0,0,0,0,0,0,0,0,0,0,0,0,0,0,0,0,0,0,
0,0,0,0,0,0,0,0,0,0,0,0,0,0,0,0,0,0,0,0,0,0,0,0,0,0,0,0,0,0,0,0,0,0,0,0,0,0,0,0,0,0,0,0,0,0,0,0,0,0,0,0,0,0,0,0,0,0,0,0,0,0,0,0,0,0,0,0,0,0,0,0,0,0,0,0,0,0,0,0,0,0,0,0,0,0,0,0,0,0,0,0,0,0,0,0,0,0,0,0,0,0,0,0,0,0,0,0,0,0,0,0,0,0,0,0,0,0,0,0,0,0,0,0,0,0,0,0,0,0,0,0,0,0,0,0,0,0,0,0,0,0,0,0,0,0,0,0,0,0,0,0,0,0,0,0,0,0,0,0,0,0,0,0,0,0,0,0,0,0,0,0,0,0,0,0,0,0,0,0,0,0,0,0,0,0,0,0,0,0,0,0,0,0,0,0,0,0,0,0,0,0,0,0,0,0,0,0,0,0,0,0,0,0,0,0,0,0,0,0,0,0,0,0,0,0,0,0,0,0,0,0,0,0,0,0,0,0,0,0,
0,0,0,0,0,0,0,0,0,0,0,0,0,0,0,0,0,0,0,0,0,0,0,0,0,0,0,0,0,0,0,0,0,0,0,0,0,0,0,0,0,0,0,0,0,0,0,0,0,0,0,0,0,0,0,0,0,0,0,0,0,0,0,0,0,0,0,0,0,0,0,0,0,0,0,0,0,0,0,0,0,0,0,0,0,0,0,0,0,0,0,0,0,0,0,0,0,0,0,0,0,0,0,0,0,0,0,0,0,0,0,0,0,0,0,0,0,0,0,0,0,0,0,0,0,0,0,0,0,0,0,0,0,0,0,0,0,0,0,0,0,0,0,0,0,0,0,0,0,0,0,0,0,0,0,0,0,0,0,0,0,0,0,0,0,0,0,0,0,0,0,0,0,0,0,0,0,0,0,0,0,0,0,0,0,0,0,0,0,0,0,0,0,0,0,0,0,0,0,0,0,0,0,0,0,0,0,0,0,0,0,0,0,0,0,0,0,0,0,0,0,0,0,0,0,0,0,0,0,0,0,0,0,0,0,0,0,0,0,0,
0,0,0,0,0,0,0,0,0,0,0,0,0,0,0,0,0,0,0,0,0,0,0,0,0,0,0,0,0,0,0,0,0,0,0,0,0,0,0,0,0,0,0,0,0,0,0,0,0,0,0,0,0,0,0,0,0,0,0,0,0,0,0,0,0,0,0,0,0,0,0,0,0,0,0,0,0,0,0,0,0,0,0,0,0,0,0,0,0,0,0,0,0,0,0,0,0,0,0,0,0,0,0,0,0,0,0,0,0,0,0,0,0,0,0,0,0,0,0,0,0,0,0,0,0,0,0,0,0,0,0,0,0,0,0,0,0,0,0,0,0,0,0,0,0,0,0,0,0,0,0,0,0,0,0,0,0,0,0,0,0,0,0,0,0,0,0,0,0,0,0,0,0,0,0,0,0,0,0,0,0,0,0,0,0,0,0,0,0,0,0,0,0,0,0,0,0,0,0,0,0,0,0,0,0,0,0,0,0,0,0,0,0,0,0,0,0,0,0,0,0,0,0,0,0,0,0,0,0,0,0,0,0,0,0,0,0,0,0,0,
0,0,0,0,0,0,0,0,0,0,0,0,0,0,0,0,0,0,0,0,0,0,0,0,0,0,0,0,0,0,0,0,0,0,0,0,0,0,0,0,0,0,0,0,0,0,0,0,0,0,0,0,0,0,0,0,0,0,0,0,0,0,0,0,0,0,0,0,0,0,0,0,0,0,0,0,0,0,0,0,0,0,0,0,0,0,0,0,0,0,0,0,0,0,0,0,0,0,0,0,0,0,0,0,0,0,0,0,0,0,0,0,0,0,0,0,0,0,0,0,0,0,0,0,0,0,0,0,0,0,0,0,0,0,0,0,0,0,0,0,0,0,0,0,0,0,0,0,0,0,0,0,0,0,0,0,0,0,0,0,0,0,0,0,0,0,0,0,0,0,0,0,0,0,0,0,0,0,0,0,0,0,0,0,0,0,0,0,0,0,0,0,0,0,0,0,0,0,0,0,0,0,0,0,0,0,0,0,0,0,0,0,0,0,0,0,0,0,0,0,0,0,0,0,0,0,0,0,0,0,0,0,0,0,0,0,0,0,0,0,
0,0,0,0,0,0,0,0,0,0,0,0,0,0,0,0,0,0,0,0,0,0,0,0,0,0,0,0,0,0,0,0,0,0,0,0,0,0,0,0,0,0,0,0,0,0,0,0,0,0,0,0,0,0,0,0,0,0,0,0,0,0,0,0,0,0,0,0,0,0,0,0,0,0,0,0,0,0,0,0,0,0,0,0,0,0,0,0,0,0,0,0,0,0,0,0,0,0,0,0,0,0,0,0,0,0,0,0,0,0,0,0,0,0,0,0,0,0,0,0,0,0,0,0,0,0,0,0,0,0,0,0,0,0,0,0,0,0,0,0,0,0,0,0,0,0,0,0,0,0,0,0,0,0,0,0,0,0,0,0,0,0,0,0,0,0,0,0,0,0,0,0,0,0,0,0,0,0,0,0,0,0,0,0,0,0,0,0,0,0,0,0,0,0,0,0,0,0,0,0,0,0,0,0,0,0,0,0,0,0,0,0,0,0,0,0,0,0,0,0,0,0,0,0,0,0,0,0,0,0,0,0,0,0,0,0,0,0,0,0,
0,0,0,0,0,0,0,0,0,0,0,0,0,0,0,0,0,0,0,0,0,0,0,0,0,0,0,0,0,0,0,0,0,0,0,0,0,0,0,0,0,0,0,0,0,0,0,0,0,0,0,0,0,0,0,0,0,0,0,0,0,0,0,0,0,0,0,0,0,0,0,0,0,0,0,0,0,0,0,0,0,0,0,0,0,0,0,0,0,0,0,0,0,0,0,0,0,0,0,0,0,0,0,0,0,0,0,0,0,0,0,0,0,0,0,0,0,0,0,0,0,0,0,0,0,0,0,0,0,0,0,0,0,0,0,0,0,0,0,0,0,0,0,0,0,0,0,0,0,0,0,0,0,0,0,0,0,0,0,0,0,0,0,0,0,0,0,0,0,0,0,0,0,0,0,0,0,0,0,0,0,0,0,0,0,0,0,0,0,0,0,0,0,0,0,0,0,0,0,0,0,0,0,0,0,0,0,0,0,0,0,0,0,0,0,0,0,0,0,0,0,0,0,0,0,0,0,0,0,0,0,0,0,0,0,0,0,0,0,0,
0,0,0,0,0,0,0,0,0,0,0,0,0,0,0,0,0,0,0,0,0,0,0,0,0,0,0,0,0,0,0,0,0,0,0,0,0,0,0,0,0,0,0,0,0,0,0,0,0,0,0,0,0,0,0,0,0,0,0,0,0,0,0,0,0,0,0,0,0,0,0,0,0,0,0,0,0,0,0,0,0,0,0,0,0,0,0,0,0,0,0,0,0,0,0,0,0,0,0,0,0,0,0,0,0,0,0,0,0,0,0,0,0,0,0,0,0,0,0,0,0,0,0,0,0,0,0,0,0,0,0,0,0,0,0,0,0,0,0,0,0,0,0,0,0,0,0,0,0,0,0,0,0,0,0,0,0,0,0,0,0,0,0,0,0,0,0,0,0,0,0,0,0,0,0,0,0,0,0,0,0,0,0,0,0,0,0,0,0,0,0,0,0,0,0,0,0,0,0,0,0,0,0,0,0,0,0,0,0,0,0,0,0,0,0,0,0,0,0,0,0,0,0,0,0,0,0,0,0,0,0,0,0,0,0,0,0,0,0,0,
0,0,0,0,0,0,0,0,0,0,0,0,0,0,0,0,0,0,0,0,0,0,0,0,0,0,0,0,0,0,0,0,0,0,0,0,0,0,0,0,0,0,0,0,0,0,0,0,0,0,0,0,0,0,0,0,0,0,0,0,0,0,0,0,0,0,0,0,0,0,0,0,0,0,0,0,0,0,0,0,0,0,0,0,0,0,0,0,0,0,0,0,0,0,0,0,0,0,0,0,0,0,0,0,0,0,0,0,0,0,0,0,0,0,0,0,0,0,0,0,0,0,0,0,0,0,0,0,0,0,0,0,0,0,0,0,0,0,0,0,0,0,0,0,0,0,0,0,0,0,0,0,0,0,0,0,0,0,0,0,0,0,0,0,0,0,0,0,0,0,0,0,0,0,0,0,0,0,0,0,0,0,0,0,0,0,0,0,0,0,0,0,0,0,0,0,0,0,0,0,0,0,0,0,0,0,0,0,0,0,0,0,0,0,0,0,0,0,0,0,0,0,0,0,0,0,0,0,0,0,0,0,0,0,0,0,0,0,0,0,
0,0,0,0,0,0,0,0,0,0,0,0,0,0,0,0,0,0,0,0,0,0,0,0,0,0,0,0,0,0,0,0,0,0,0,0,0,0,0,0,0,0,0,0,0,0,0,0,0,0,0,0,0,0,0,0,0,0,0,0,0,0,0,0,0,0,0,0,0,0,0,0,0,0,0,0,0,0,0,0,0,0,0,0,0,0,0,0,0,0,0,0,0,0,0,0,0,0,0,0,0,0,0,0,0,0,0,0,0,0,0,0,0,0,0,0,0,0,0,0,0,0,0,0,0,0,0,0,0,0,0,0,0,0,0,0,0,0,0,0,0,0,0,0,0,0,0,0,0,0,0,0,0,0,0,0,0,0,0,0,0,0,0,0,0,0,0,0,0,0,0,0,0,0,0,0,0,0,0,0,0,0,0,0,0,0,0,0,0,0,0,0,0,0,0,0,0,0,0,0,0,0,0,0,0,0,0,0,0,0,0,0,0,0,0,0,0,0,0,0,0,0,0,0,0,0,0,0,0,0,0,0,0,0,0,0,0,0,0,0,
0,0,0,0,0,0,0,0,0,0,0,0,0,0,0,0,0,0,0,0,0,0,0,0,0,0,0,0,0,0,0,0,0,0,0,0,0,0,0,0,0,0,0,0,0,0,0,0,0,0,0,0,0,0,0,0,0,0,0,0,0,0,0,0,0,0,0,0,0,0,0,0,0,0,0,0,0,0,0,0,0,0,0,0,0,0,0,0,0,0,0,0,0,0,0,0,0,0,0,0,0,0,0,0,0,0,0,0,0,0,0,0,0,0,0,0,0,0,0,0,0,0,0,0,0,0,0,0,0,0,0,0,0,0,0,0,0,0,0,0,0,0,0,0,0,0,0,0,0,0,0,0,0,0,0,0,0,0,0,0,0,0,0,0,0,0,0,0,0,0,0,0,0,0,0,0,0,0,0,0,0,0,0,0,0,0,0,0,0,0,0,0,0,0,0,0,0,0,0,0,0,0,0,0,0,0,0,0,0,0,0,0,0,0,0,0,0,0,0,0,0,0,0,0,0,0,0,0,0,0,0,0,0,0,0,0,0,0,0,0,
0,0,0,0,0,0,0,0,0,0,0,0,0,0,0,0,0,0,0,0,0,0,0,0,0,0,0,0,0,0,0,0,0,0,0,0,0,0,0,0,0,0,0,0,0,0,0,0,0,0,0,0,0,0,0,0,0,0,0,0,0,0,0,0,0,0,0,0,0,0,0,0,0,0,0,0,0,0,0,0,0,0,0,0,0,0,0,0,0,0,0,0,0,0,0,0,0,0,0,0,0,0,0,0,0,0,0,0,0,0,0,0,0,0,0,0,0,0,0,0,0,0,0,0,0,0,0,0,0,0,0,0,0,0,0,0,0,0,0,0,0,0,0,0,0,0,0,0,0,0,0,0,0,0,0,0,0,0,0,0,0,0,0,0,0,0,0,0,0,0,0,0,0,0,0,0,0,0,0,0,0,0,0,0,0,0,0,0,0,0,0,0,0,0,0,0,0,0,0,0,0,0,0,0,0,0,0,0,0,0,0,0,0,0,0,0,0,0,0,0,0,0,0,0,0,0,0,0,0,0,0,0,0,0,0,0,0,0,0,0,
0,0,0,0,0,0,0,0,0,0,0,0,0,0,0,0,0,0,0,0,0,0,0,0,0,0,0,0,0,0,0,0,0,0,0,0,0,0,0,0,0,0,0,0,0,0,0,0,0,0,0,0,0,0,0,0,0,0,0,0,0,0,0,0,0,0,0,0,0,0,0,0,0,0,0,0,0,0,0,0,0,0,0,0,0,0,0,0,0,0,0,0,0,0,0,0,0,0,0,0,0,0,0,0,0,0,0,0,0,0,0,0,0,0,0,0,0,0,0,0,0,0,0,0,0,0,0,0,0,0,0,0,0,0,0,0,0,0,0,0,0,0,0,0,0,0,0,0,0,0,0,0,0,0,0,0,0,0,0,0,0,0,0,0,0,0,0,0,0,0,0,0,0,0,0,0,0,0,0,0,0,0,0,0,0,0,0,0,0,0,0,0,0,0,0,0,0,0,0,0,0,0,0,0,0,0,0,0,0,0,0,0,0,0,0,0,0,0,0,0,0,0,0,0,0,0,0,0,0,0,0,0,0,0,0,0,0,0,0,0,
0,0,0,0,0,0,0,0,0,0,0,0,0,0,0,0,0,0,0,0,0,0,0,0,0,0,0,0,0,0,0,0,0,0,0,0,0,0,0,0,0,0,0,0,0,0,0,0,0,0,0,0,0,0,0,0,0,0,0,0,0,0,0,0,0,0,0,0,0,0,0,0,0,0,0,0,0,0,0,0,0,0,0,0,0,0,0,0,0,0,0,0,0,0,0,0,0,0,0,0,0,0,0,0,0,0,0,0,0,0,0,0,0,0,0,0,0,0,0,0,0,0,0,0,0,0,0,0,0,0,0,0,0,0,0,0,0,0,0,0,0,0,0,0,0,0,0,0,0,0,0,0,0,0,0,0,0,0,0,0,0,0,0,0,0,0,0,0,0,0,0,0,0,0,0,0,0,0,0,0,0,0,0,0,0,0,0,0,0,0,0,0,0,0,0,0,0,0,0,0,0,0,0,0,0,0,0,0,0,0,0,0,0,0,0,0,0,0,0,0,0,0,0,0,0,0,0,0,0,0,0,0,0,0,0,0,0,0,0,0,
0,0,0,0,0,0,0,0,0,0,0,0,0,0,0,0,0,0,0,0,0,0,0,0,0,0,0,0,0,0,0,0,0,0,0,0,0,0,0,0,0,0,0,0,0,0,0,0,0,0,0,0,0,0,0,0,0,0,0,0,0,0,0,0,0,0,0,0,0,0,0,0,0,0,0,0,0,0,0,0,0,0,0,0,0,0,0,0,0,0,0,0,0,0,0,0,0,0,0,0,0,0,0,0,0,0,0,0,0,0,0,0,0,0,0,0,0,0,0,0,0,0,0,0,0,0,0,0,0,0,0,0,0,0,0,0,0,0,0,0,0,0,0,0,0,0,0,0,0,0,0,0,0,0,0,0,0,0,0,0,0,0,0,0,0,0,0,0,0,0,0,0,0,0,0,0,0,0,0,0,0,0,0,0,0,0,0,0,0,0,0,0,0,0,0,0,0,0,0,0,0,0,0,0,0,0,0,0,0,0,0,0,0,0,0,0,0,0,0,0,0,0,0,0,0,0,0,0,0,0,0,0,0,0,0,0,0,0,0,0,
0,0,0,0,0,0,0,0,0,0,0,0,0,0,0,0,0,0,0,0,0,0,0,0,0,0,0,0,0,0,0,0,0,0,0,0,0,0,0,0,0,0,0,0,0,0,0,0,0,0,0,0,0,0,0,0,0,0,0,0,0,0,0,0,0,0,0,0,0,0,0,0,0,0,0,0,0,0,0,0,0,0,0,0,0,0,0,0,0,0,0,0,0,0,0,0,0,0,0,0,0,0,0,0,0,0,0,0,0,0,0,0,0,0,0,0,0,0,0,0,0,0,0,0,0,0,0,0,0,0,0,0,0,0,0,0,0,0,0,0,0,0,0,0,0,0,0,0,0,0,0,0,0,0,0,0,0,0,0,0,0,0,0,0,0,0,0,0,0,0,0,0,0,0,0,0,0,0,0,0,0,0,0,0,0,0,0,0,0,0,0,0,0,0,0,0,0,0,0,0,0,0,0,0,0,0,0,0,0,0,0,0,0,0,0,0,0,0,0,0,0,0,0,0,0,0,0,0,0,0,0,0,0,0,0,0,0,0,0,0,
0,0,0,0,0,0,0,0,0,0,0,0,0,0,0,0,0,0,0,0,0,0,0,0,0,0,0,0,0,0,0,0,0,0,0,0,0,0,0,0,0,0,0,0,0,0,0,0,0,0,0,0,0,0,0,0,0,0,0,0,0,0,0,0,0,0,0,0,0,0,0,0,0,0,0,0,0,0,0,0,0,0,0,0,0,0,0,0,0,0,0,0,0,0,0,0,0,0,0,0,0,0,0,0,0,0,0,0,0,0,0,0,0,0,0,0,0,0,0,0,0,0,0,0,0,0,0,0,0,0,0,0,0,0,0,0,0,0,0,0,0,0,0,0,0,0,0,0,0,0,0,0,0,0,0,0,0,0,0,0,0,0,0,0,0,0,0,0,0,0,0,0,0,0,0,0,0,0,0,0,0,0,0,0,0,0,0,0,0,0,0,0,0,0,0,0,0,0,0,0,0,0,0,0,0,0,0,0,0,0,0,0,0,0,0,0,0,0,0,0,0,0,0,0,0,0,0,0,0,0,0,0,0,0,0,0,0,0,0,0,
0,0,0,0,0,0,0,0,0,0,0,0,0,0,0,0,0,0,0,0,0,0,0,0,0,0,0,0,0,0,0,0,0,0,0,0,0,0,0,0,0,0,0,0,0,0,0,0,0,0,0,0,0,0,0,0,0,0,0,0,0,0,0,0,0,0,0,0,0,0,0,0,0,0,0,0,0,0,0,0,0,0,0,0,0,0,0,0,0,0,0,0,0,0,0,0,0,0,0,0,0,0,0,0,0,0,0,0,0,0,0,0,0,0,0,0,0,0,0,0,0,0,0,0,0,0,0,0,0,0,0,0,0,0,0,0,0,0,0,0,0,0,0,0,0,0,0,0,0,0,0,0,0,0,0,0,0,0,0,0,0,0,0,0,0,0,0,0,0,0,0,0,0,0,0,0,0,0,0,0,0,0,0,0,0,0,0,0,0,0,0,0,0,0,0,0,0,0,0,0,0,0,0,0,0,0,0,0,0,0,0,0,0,0,0,0,0,0,0,0,0,0,0,0,0,0,0,0,0,0,0,0,0,0,0,0,0,0,0,0,
0,0,0,0,0,0,0,0,0,0,0,0,0,0,0,0,0,0,0,0,0,0,0,0,0,0,0,0,0,0,0,0,0,0,0,0,0,0,0,0,0,0,0,0,0,0,0,0,0,0,0,0,0,0,0,0,0,0,0,0,0,0,0,0,0,0,0,0,0,0,0,0,0,0,0,0,0,0,0,0,0,0,0,0,0,0,0,0,0,0,0,0,0,0,0,0,0,0,0,0,0,0,0,0,0,0,0,0,0,0,0,0,0,0,0,0,0,0,0,0,0,0,0,0,0,0,0,0,0,0,0,0,0,0,0,0,0,0,0,0,0,0,0,0,0,0,0,0,0,0,0,0,0,0,0,0,0,0,0,0,0,0,0,0,0,0,0,0,0,0,0,0,0,0,0,0,0,0,0,0,0,0,0,0,0,0,0,0,0,0,0,0,0,0,0,0,0,0,0,0,0,0,0,0,0,0,0,0,0,0,0,0,0,0,0,0,0,0,0,0,0,0,0,0,0,0,0,0,0,0,0,0,0,0,0,0,0,0,0,0,
0,0,0,0,0,0,0,0,0,0,0,0,0,0,0,0,0,0,0,0,0,0,0,0,0,0,0,0,0,0,0,0,0,0,0,0,0,0,0,0,0,0,0,0,0,0,0,0,0,0,0,0,0,0,0,0,0,0,0,0,0,0,0,0,0,0,0,0,0,0,0,0,0,0,0,0,0,0,0,0,0,0,0,0,0,0,0,0,0,0,0,0,0,0,0,0,0,0,0,0,0,0,0,0,0,0,0,0,0,0,0,0,0,0,0,0,0,0,0,0,0,0,0,0,0,0,0,0,0,0,0,0,0,0,0,0,0,0,0,0,0,0,0,0,0,0,0,0,0,0,0,0,0,0,0,0,0,0,0,0,0,0,0,0,0,0,0,0,0,0,0,0,0,0,0,0,0,0,0,0,0,0,0,0,0,0,0,0,0,0,0,0,0,0,0,0,0,0,0,0,0,0,0,0,0,0,0,0,0,0,0,0,0,0,0,0,0,0,0,0,0,0,0,0,0,0,0,0,0,0,0,0,0,0,0,0,0,0,0,0,
0,0,0,0,0,0,0,0,0,0,0,0,0,0,0,0,0,0,0,0,0,0,0,0,0,0,0,0,0,0,0,0,0,0,0,0,0,0,0,0,0,0,0,0,0,0,0,0,0,0,0,0,0,0,0,0,0,0,0,0,0,0,0,0,0,0,0,0,0,0,0,0,0,0,0,0,0,0,0,0,0,0,0,0,0,0,0,0,0,0,0,0,0,0,0,0,0,0,0,0,0,0,0,0,0,0,0,0,0,0,0,0,0,0,0,0,0,0,0,0,0,0,0,0,0,0,0,0,0,0,0,0,0,0,0,0,0,0,0,0,0,0,0,0,0,0,0,0,0,0,0,0,0,0,0,0,0,0,0,0,0,0,0,0,0,0,0,0,0,0,0,0,0,0,0,0,0,0,0,0,0,0,0,0,0,0,0,0,0,0,0,0,0,0,0,0,0,0,0,0,0,0,0,0,0,0,0,0,0,0,0,0,0,0,0,0,0,0,0,0,0,0,0,0,0,0,0,0,0,0,0,0,0,0,0,0,0,0,0,0,
0,0,0,0,0,0,0,0,0,0,0,0,0,0,0,0,0,0,0,0,0,0,0,0,0,0,0,0,0,0,0,0,0,0,0,0,0,0,0,0,0,0,0,0,0,0,0,0,0,0,0,0,0,0,0,0,0,0,0,0,0,0,0,0,0,0,0,0,0,0,0,0,0,0,0,0,0,0,0,0,0,0,0,0,0,0,0,0,0,0,0,0,0,0,0,0,0,0,0,0,0,0,0,0,0,0,0,0,0,0,0,0,0,0,0,0,0,0,0,0,0,0,0,0,0,0,0,0,0,0,0,0,0,0,0,0,0,0,0,0,0,0,0,0,0,0,0,0,0,0,0,0,0,0,0,0,0,0,0,0,0,0,0,0,0,0,0,0,0,0,0,0,0,0,0,0,0,0,0,0,0,0,0,0,0,0,0,0,0,0,0,0,0,0,0,0,0,0,0,0,0,0,0,0,0,0,0,0,0,0,0,0,0,0,0,0,0,0,0,0,0,0,0,0,0,0,0,0,0,0,0,0,0,0,0,0,0,0,0,0,
0,0,0,0,0,0,0,0,0,0,0,0,0,0,0,0,0,0,0,0,0,0,0,0,0,0,0,0,0,0,0,0,0,0,0,0,0,0,0,0,0,0,0,0,0,0,0,0,0,0,0,0,0,0,0,0,0,0,0,0,0,0,0,0,0,0,0,0,0,0,0,0,0,0,0,0,0,0,0,0,0,0,0,0,0,0,0,0,0,0,0,0,0,0,0,0,0,0,0,0,0,0,0,0,0,0,0,0,0,0,0,0,0,0,0,0,0,0,0,0,0,0,0,0,0,0,0,0,0,0,0,0,0,0,0,0,0,0,0,0,0,0,0,0,0,0,0,0,0,0,0,0,0,0,0,0,0,0,0,0,0,0,0,0,0,0,0,0,0,0,0,0,0,0,0,0,0,0,0,0,0,0,0,0,0,0,0,0,0,0,0,0,0,0,0,0,0,0,0,0,0,0,0,0,0,0,0,0,0,0,0,0,0,0,0,0,0,0,0,0,0,0,0,0,0,0,0,0,0,0,0,0,0,0,0,0,0,0,0,0,
0,0,0,0,0,0,0,0,0,0,0,0,0,0,0,0,0,0,0,0,0,0,0,0,0,0,0,0,0,0,0,0,0,0,0,0,0,0,0,0,0,0,0,0,0,0,0,0,0,0,0,0,0,0,0,0,0,0,0,0,0,0,0,0,0,0,0,0,0,0,0,0,0,0,0,0,0,0,0,0,0,0,0,0,0,0,0,0,0,0,0,0,0,0,0,0,0,0,0,0,0,0,0,0,0,0,0,0,0,0,0,0,0,0,0,0,0,0,0,0,0,0,0,0,0,0,0,0,0,0,0,0,0,0,0,0,0,0,0,0,0,0,0,0,0,0,0,0,0,0,0,0,0,0,0,0,0,0,0,0,0,0,0,0,0,0,0,0,0,0,0,0,0,0,0,0,0,0,0,0,0,0,0,0,0,0,0,0,0,0,0,0,0,0,0,0,0,0,0,0,0,0,0,0,0,0,0,0,0,0,0,0,0,0,0,0,0,0,0,0,0,0,0,0,0,0,0,0,0,0,0,0,0,0,0,0,0,0,0,0,
0,0,0,0,0,0,0,0,0,0,0,0,0,0,0,0,0,0,0,0,0,0,0,0,0,0,0,0,0,0,0,0,0,0,0,0,0,0,0,0,0,0,0,0,0,0,0,0,0,0,0,0,0,0,0,0,0,0,0,0,0,0,0,0,0,0,0,0,0,0,0,0,0,0,0,0,0,0,0,0,0,0,0,0,0,0,0,0,0,0,0,0,0,0,0,0,0,0,0,0,0,0,0,0,0,0,0,0,0,0,0,0,0,0,0,0,0,0,0,0,0,0,0,0,0,0,0,0,0,0,0,0,0,0,0,0,0,0,0,0,0,0,0,0,0,0,0,0,0,0,0,0,0,0,0,0,0,0,0,0,0,0,0,0,0,0,0,0,0,0,0,0,0,0,0,0,0,0,0,0,0,0,0,0,0,0,0,0,0,0,0,0,0,0,0,0,0,0,0,0,0,0,0,0,0,0,0,0,0,0,0,0,0,0,0,0,0,0,0,0,0,0,0,0,0,0,0,0,0,0,0,0,0,0,0,0,0,0,0,0,
0,0,0,0,0,0,0,0,0,0,0,0,0,0,0,0,0,0,0,0,0,0,0,0,0,0,0,0,0,0,0,0,0,0,0,0,0,0,0,0,0,0,0,0,0,0,0,0,0,0,0,0,0,0,0,0,0,0,0,0,0,0,0,0,0,0,0,0,0,0,0,0,0,0,0,0,0,0,0,0,0,0,0,0,0,0,0,0,0,0,0,0,0,0,0,0,0,0,0,0,0,0,0,0,0,0,0,0,0,0,0,0,0,0,0,0,0,0,0,0,0,0,0,0,0,0,0,0,0,0,0,0,0,0,0,0,0,0,0,0,0,0,0,0,0,0,0,0,0,0,0,0,0,0,0,0,0,0,0,0,0,0,0,0,0,0,0,0,0,0,0,0,0,0,0,0,0,0,0,0,0,0,0,0,0,0,0,0,0,0,0,0,0,0,0,0,0,0,0,0,0,0,0,0,0,0,0,0,0,0,0,0,0,0,0,0,0,0,0,0,0,0,0,0,0,0,0,0,0,0,0,0,0,0,0,0,0,0,0,0,
0,0,0,0,0,0,0,0,0,0,0,0,0,0,0,0,0,0,0,0,0,0,0,0,0,0,0,0,0,0,0,0,0,0,0,0,0,0,0,0,0,0,0,0,0,0,0,0,0,0,0,0,0,0,0,0,0,0,0,0,0,0,0,0,0,0,0,0,0,0,0,0,0,0,0,0,0,0,0,0,0,0,0,0,0,0,0,0,0,0,0,0,0,0,0,0,0,0,0,0,0,0,0,0,0,0,0,0,0,0,0,0,0,0,0,0,0,0,0,0,0,0,0,0,0,0,0,0,0,0,0,0,0,0,0,0,0,0,0,0,0,0,0,0,0,0,0,0,0,0,0,0,0,0,0,0,0,0,0,0,0,0,0,0,0,0,0,0,0,0,0,0,0,0,0,0,0,0,0,0,0,0,0,0,0,0,0,0,0,0,0,0,0,0,0,0,0,0,0,0,0,0,0,0,0,0,0,0,0,0,0,0,0,0,0,0,0,0,0,0,0,0,0,0,0,0,0,0,0,0,0,0,0,0,0,0,0,0,0,0,
0,0,0,0,0,0,0,0,0,0,0,0,0,0,0,0,0,0,0,0,0,0,0,0,0,0,0,0,0,0,0,0,0,0,0,0,0,0,0,0,0,0,0,0,0,0,0,0,0,0,0,0,0,0,0,0,0,0,0,0,0,0,0,0,0,0,0,0,0,0,0,0,0,0,0,0,0,0,0,0,0,0,0,0,0,0,0,0,0,0,0,0,0,0,0,0,0,0,0,0,0,0,0,0,0,0,0,0,0,0,0,0,0,0,0,0,0,0,0,0,0,0,0,0,0,0,0,0,0,0,0,0,0,0,0,0,0,0,0,0,0,0,0,0,0,0,0,0,0,0,0,0,0,0,0,0,0,0,0,0,0,0,0,0,0,0,0,0,0,0,0,0,0,0,0,0,0,0,0,0,0,0,0,0,0,0,0,0,0,0,0,0,0,0,0,0,0,0,0,0,0,0,0,0,0,0,0,0,0,0,0,0,0,0,0,0,0,0,0,0,0,0,0,0,0,0,0,0,0,0,0,0,0,0,0,0,0,0,0,0,
0,0,0,0,0,0,0,0,0,0,0,0,0,0,0,0,0,0,0,0,0,0,0,0,0,0,0,0,0,0,0,0,0,0,0,0,0,0,0,0,0,0,0,0,0,0,0,0,0,0,0,0,0,0,0,0,0,0,0,0,0,0,0,0,0,0,0,0,0,0,0,0,0,0,0,0,0,0,0,0,0,0,0,0,0,0,0,0,0,0,0,0,0,0,0,0,0,0,0,0,0,0,0,0,0,0,0,0,0,0,0,0,0,0,0,0,0,0,0,0,0,0,0,0,0,0,0,0,0,0,0,0,0,0,0,0,0,0,0,0,0,0,0,0,0,0,0,0,0,0,0,0,0,0,0,0,0,0,0,0,0,0,0,0,0,0,0,0,0,0,0,0,0,0,0,0,0,0,0,0,0,0,0,0,0,0,0,0,0,0,0,0,0,0,0,0,0,0,0,0,0,0,0,0,0,0,0,0,0,0,0,0,0,0,0,0,0,0,0,0,0,0,0,0,0,0,0,0,0,0,0,0,0,0,0,0,0,0,0,0,
0,0,0,0,0,0,0,0,0,0,0,0,0,0,0,0,0,0,0,0,0,0,0,0,0,0,0,0,0,0,0,0,0,0,0,0,0,0,0,0,0,0,0,0,0,0,0,0,0,0,0,0,0,0,0,0,0,0,0,0,0,0,0,0,0,0,0,0,0,0,0,0,0,0,0,0,0,0,0,0,0,0,0,0,0,0,0,0,0,0,0,0,0,0,0,0,0,0,0,0,0,0,0,0,0,0,0,0,0,0,0,0,0,0,0,0,0,0,0,0,0,0,0,0,0,0,0,0,0,0,0,0,0,0,0,0,0,0,0,0,0,0,0,0,0,0,0,0,0,0,0,0,0,0,0,0,0,0,0,0,0,0,0,0,0,0,0,0,0,0,0,0,0,0,0,0,0,0,0,0,0,0,0,0,0,0,0,0,0,0,0,0,0,0,0,0,0,0,0,0,0,0,0,0,0,0,0,0,0,0,0,0,0,0,0,0,0,0,0,0,0,0,0,0,0,0,0,0,0,0,0,0,0,0,0,0,0,0,0,0,
0,0,0,0,0,0,0,0,0,0,0,0,0,0,0,0,0,0,0,0,0,0,0,0,0,0,0,0,0,0,0,0,0,0,0,0,0,0,0,0,0,0,0,0,0,0,0,0,0,0,0,0,0,0,0,0,0,0,0,0,0,0,0,0,0,0,0,0,0,0,0,0,0,0,0,0,0,0,0,0,0,0,0,0,0,0,0,0,0,0,0,0,0,0,0,0,0,0,0,0,0,0,0,0,0,0,0,0,0,0,0,0,0,0,0,0,0,0,0,0,0,0,0,0,0,0,0,0,0,0,0,0,0,0,0,0,0,0,0,0,0,0,0,0,0,0,0,0,0,0,0,0,0,0,0,0,0,0,0,0,0,0,0,0,0,0,0,0,0,0,0,0,0,0,0,0,0,0,0,0,0,0,0,0,0,0,0,0,0,0,0,0,0,0,0,0,0,0,0,0,0,0,0,0,0,0,0,0,0,0,0,0,0,0,0,0,0,0,0,0,0,0,0,0,0,0,0,0,0,0,0,0,0,0,0,0,0,0,0,0,
0,0,0,0,0,0,0,0,0,0,0,0,0,0,0,0,0,0,0,0,0,0,0,0,0,0,0,0,0,0,0,0,0,0,0,0,0,0,0,0,0,0,0,0,0,0,0,0,0,0,0,0,0,0,0,0,0,0,0,0,0,0,0,0,0,0,0,0,0,0,0,0,0,0,0,0,0,0,0,0,0,0,0,0,0,0,0,0,0,0,0,0,0,0,0,0,0,0,0,0,0,0,0,0,0,0,0,0,0,0,0,0,0,0,0,0,0,0,0,0,0,0,0,0,0,0,0,0,0,0,0,0,0,0,0,0,0,0,0,0,0,0,0,0,0,0,0,0,0,0,0,0,0,0,0,0,0,0,0,0,0,0,0,0,0,0,0,0,0,0,0,0,0,0,0,0,0,0,0,0,0,0,0,0,0,0,0,0,0,0,0,0,0,0,0,0,0,0,0,0,0,0,0,0,0,0,0,0,0,0,0,0,0,0,0,0,0,0,0,0,0,0,0,0,0,0,0,0,0,0,0,0,0,0,0,0,0,0,0,0,
0,0,0,0,0,0,0,0,0,0,0,0,0,0,0,0,0,0,0,0,0,0,0,0,0,0,0,0,0,0,0,0,0,0,0,0,0,0,0,0,0,0,0,0,0,0,0,0,0,0,0,0,0,0,0,0,0,0,0,0,0,0,0,0,0,0,0,0,0,0,0,0,0,0,0,0,0,0,0,0,0,0,0,0,0,0,0,0,0,0,0,0,0,0,0,0,0,0,0,0,0,0,0,0,0,0,0,0,0,0,0,0,0,0,0,0,0,0,0,0,0,0,0,0,0,0,0,0,0,0,0,0,0,0,0,0,0,0,0,0,0,0,0,0,0,0,0,0,0,0,0,0,0,0,0,0,0,0,0,0,0,0,0,0,0,0,0,0,0,0,0,0,0,0,0,0,0,0,0,0,0,0,0,0,0,0,0,0,0,0,0,0,0,0,0,0,0,0,0,0,0,0,0,0,0,0,0,0,0,0,0,0,0,0,0,0,0,0,0,0,0,0,0,0,0,0,0,0,0,0,0,0,0,0,0,0,0,0,0,0,
0,0,0,0,0,0,0,0,0,0,0,0,0,0,0,0,0,0,0,0,0,0,0,0,0,0,0,0,0,0,0,0,0,0,0,0,0,0,0,0,0,0,0,0,0,0,0,0,0,0,0,0,0,0,0,0,0,0,0,0,0,0,0,0,0,0,0,0,0,0,0,0,0,0,0,0,0,0,0,0,0,0,0,0,0,0,0,0,0,0,0,0,0,0,0,0,0,0,0,0,0,0,0,0,0,0,0,0,0,0,0,0,0,0,0,0,0,0,0,0,0,0,0,0,0,0,0,0,0,0,0,0,0,0,0,0,0,0,0,0,0,0,0,0,0,0,0,0,0,0,0,0,0,0,0,0,0,0,0,0,0,0,0,0,0,0,0,0,0,0,0,0,0,0,0,0,0,0,0,0,0,0,0,0,0,0,0,0,0,0,0,0,0,0,0,0,0,0,0,0,0,0,0,0,0,0,0,0,0,0,0,0,0,0,0,0,0,0,0,0,0,0,0,0,0,0,0,0,0,0,0,0,0,0,0,0,0,0,0,0,
0,0,0,0,0,0,0,0,0,0,0,0,0,0,0,0,0,0,0,0,0,0,0,0,0,0,0,0,0,0,0,0,0,0,0,0,0,0,0,0,0,0,0,0,0,0,0,0,0,0,0,0,0,0,0,0,0,0,0,0,0,0,0,0,0,0,0,0,0,0,0,0,0,0,0,0,0,0,0,0,0,0,0,0,0,0,0,0,0,0,0,0,0,0,0,0,0,0,0,0,0,0,0,0,0,0,0,0,0,0,0,0,0,0,0,0,0,0,0,0,0,0,0,0,0,0,0,0,0,0,0,0,0,0,0,0,0,0,0,0,0,0,0,0,0,0,0,0,0,0,0,0,0,0,0,0,0,0,0,0,0,0,0,0,0,0,0,0,0,0,0,0,0,0,0,0,0,0,0,0,0,0,0,0,0,0,0,0,0,0,0,0,0,0,0,0,0,0,0,0,0,0,0,0,0,0,0,0,0,0,0,0,0,0,0,0,0,0,0,0,0,0,0,0,0,0,0,0,0,0,0,0,0,0,0,0,0,0,0,0,
0,0,0,0,0,0,0,0,0,0,0,0,0,0,0,0,0,0,0,0,0,0,0,0,0,0,0,0,0,0,0,0,0,0,0,0,0,0,0,0,0,0,0,0,0,0,0,0,0,0,0,0,0,0,0,0,0,0,0,0,0,0,0,0,0,0,0,0,0,0,0,0,0,0,0,0,0,0,0,0,0,0,0,0,0,0,0,0,0,0,0,0,0,0,0,0,0,0,0,0,0,0,0,0,0,0,0,0,0,0,0,0,0,0,0,0,0,0,0,0,0,0,0,0,0,0,0,0,0,0,0,0,0,0,0,0,0,0,0,0,0,0,0,0,0,0,0,0,0,0,0,0,0,0,0,0,0,0,0,0,0,0,0,0,0,0,0,0,0,0,0,59046,59046,59046,59046,59046,59046,59046,59046,59046,59046,59046,59046,59046,59046,59046,59046,59046,59046,59046,59046,59046,59046,59046,59046,59046,59046,59046,59046,0,0,0,0,0,0,0,0,0,0,0,0,0,0,0,0,0,0,0,0,0,0,0,0,0,0,0,0,0,0,0,0,0,0,0,0,0,0,0,0,0,
0,0,0,0,0,0,0,0,0,0,0,0,0,0,0,0,0,0,0,0,0,0,0,0,0,0,0,0,0,0,0,0,0,0,0,0,0,0,0,0,0,0,0,0,0,0,0,0,0,0,0,0,0,0,0,0,0,0,0,0,0,0,0,0,0,0,0,0,0,0,0,0,0,0,0,0,0,0,0,0,0,0,0,0,0,0,0,0,0,0,0,0,0,0,0,0,0,0,0,0,0,0,0,0,0,0,0,0,0,0,0,0,0,0,0,0,0,0,0,0,0,0,0,0,0,0,0,0,0,0,0,0,0,0,0,0,0,0,0,0,0,0,0,0,0,0,0,0,0,0,0,0,0,0,0,0,0,0,0,0,0,0,0,0,0,0,0,0,0,0,0,59046,59046,59046,59046,59046,59046,59046,59046,59046,59046,59046,59046,59046,59046,59046,59046,59046,59046,59046,59046,59046,59046,59046,59046,59046,59046,59046,59046,0,0,0,0,0,0,0,0,0,0,0,0,0,0,0,0,0,0,0,0,0,0,0,0,0,0,0,0,0,0,0,0,0,0,0,0,0,0,0,0,0,
0,0,0,0,0,0,0,0,0,0,0,0,0,0,0,0,0,0,0,0,0,0,0,0,0,0,0,0,0,0,0,0,0,0,0,0,0,0,0,0,0,0,0,0,0,0,0,0,0,0,0,0,0,0,0,0,0,0,0,0,0,0,0,0,0,0,0,0,0,0,0,0,0,0,0,0,0,0,0,0,0,0,0,0,0,0,0,0,0,0,0,0,0,0,0,0,0,0,0,0,0,0,0,0,0,0,0,0,0,0,0,0,0,0,0,0,0,0,0,0,0,0,0,0,0,0,0,0,0,0,0,0,0,0,0,0,0,0,0,0,0,0,0,0,0,0,0,0,0,0,0,0,0,0,0,0,0,0,0,0,0,0,0,0,0,0,0,0,0,0,0,59046,59046,59046,59046,59046,59046,59046,59046,59046,59046,59046,59046,59046,59046,59046,59046,59046,59046,59046,59046,59046,59046,59046,59046,59046,59046,59046,59046,0,0,0,0,0,0,0,0,0,0,0,0,0,0,0,0,0,0,0,0,0,0,0,0,0,0,0,0,0,0,0,0,0,0,0,0,0,0,0,0,0,
0,0,0,0,0,0,0,0,0,0,0,0,0,0,0,0,0,0,0,0,0,0,0,0,0,0,0,0,0,0,0,0,0,0,0,0,0,0,0,0,0,0,0,0,0,0,0,0,0,0,0,0,0,0,0,0,0,0,0,0,0,0,0,0,0,0,0,0,0,0,0,0,0,0,0,0,0,0,0,0,0,0,0,0,0,0,0,0,0,0,0,0,0,0,0,0,0,0,0,0,0,0,0,0,0,0,0,0,0,0,0,0,0,0,0,0,0,0,0,0,0,0,0,0,0,0,0,0,0,0,0,0,0,0,0,0,0,0,0,0,0,0,0,0,0,0,0,0,0,0,0,0,0,0,0,0,0,0,0,0,0,0,0,0,0,0,0,0,0,0,0,59046,59046,59046,59046,59046,59046,59046,59046,59046,59046,59046,59046,59046,59046,59046,59046,59046,59046,59046,59046,59046,59046,59046,59046,59046,59046,59046,59046,0,0,0,0,0,0,0,0,0,0,0,0,0,0,0,0,0,0,0,0,0,0,0,0,0,0,0,0,0,0,0,0,0,0,0,0,0,0,0,0,0,
0,0,0,0,0,0,0,0,0,0,0,0,0,0,0,0,0,0,0,0,0,0,0,0,0,0,0,0,0,0,0,0,0,0,0,0,0,0,0,0,0,0,0,0,0,0,0,0,0,0,0,0,0,0,0,0,0,0,0,0,0,0,0,0,0,0,0,0,0,0,0,0,0,0,0,0,59048,59048,59048,59048,59048,59048,59048,59048,59048,59048,59048,59048,59048,59048,59048,59048,59048,59048,59048,59048,59048,59048,0,0,0,0,0,0,0,0,0,0,0,0,0,0,0,0,0,0,0,0,0,0,0,0,0,0,0,0,0,0,0,0,0,0,0,0,0,0,0,0,0,0,0,0,0,0,0,0,0,0,0,0,0,0,0,0,0,0,0,0,0,0,0,0,0,0,0,0,0,0,0,0,0,59046,59046,59046,59046,59046,59046,59046,59046,59046,59046,59046,59046,59046,59046,59046,59046,59046,59046,59046,59046,59046,59046,59046,59046,59046,59046,59046,59046,0,0,0,0,0,0,0,0,0,0,0,0,0,0,0,0,0,0,0,0,0,0,0,0,0,0,0,0,0,0,0,0,0,0,0,0,0,0,0,0,0,
0,0,0,0,0,0,0,0,0,0,0,0,0,0,0,0,0,0,0,0,0,0,0,0,0,0,0,0,0,0,0,0,0,0,0,0,0,0,0,0,0,0,0,0,0,0,0,0,0,0,0,0,0,0,0,0,0,0,0,0,0,0,0,0,0,0,0,0,0,0,0,0,0,0,0,0,59048,59048,59048,59048,59048,59048,59048,59048,59048,59048,59048,59048,59048,59048,59048,59048,59048,59048,59048,59048,59048,59048,0,0,0,0,0,0,0,0,0,0,0,0,0,0,0,0,0,0,0,0,0,0,0,0,0,0,0,0,0,0,0,0,0,0,0,0,0,0,0,0,0,0,0,0,0,0,0,0,0,0,0,0,0,0,0,0,0,0,0,0,0,0,0,0,0,0,0,0,0,0,0,0,0,59046,59046,59046,59046,59046,59046,59046,59046,59046,59046,59046,59046,59046,59046,59046,59046,59046,59046,59046,59046,59046,59046,59046,59046,59046,59046,59046,59046,0,0,0,0,0,0,0,0,0,0,0,0,0,0,0,0,0,0,0,0,0,0,0,0,0,0,0,0,0,0,0,0,0,0,0,0,0,0,0,0,0,
0,0,0,0,0,0,0,0,0,0,0,0,0,0,0,0,0,0,0,0,0,0,0,0,0,0,0,0,0,0,0,0,0,0,0,0,0,0,0,0,0,0,0,0,0,0,0,0,0,0,0,0,0,0,0,0,0,0,0,0,0,0,0,0,0,0,0,0,0,0,0,0,0,0,0,0,59048,59048,59048,59048,59048,59048,59048,59048,59048,59048,59048,59048,59048,59048,59048,59048,59048,59048,59048,59048,59048,59048,0,0,0,0,0,0,0,0,0,0,0,0,0,0,0,0,0,0,0,0,0,0,0,0,0,0,0,0,0,0,0,0,0,0,0,0,0,0,0,0,0,0,0,0,0,0,0,0,0,0,0,0,0,0,0,0,0,0,0,0,0,0,0,0,0,0,0,0,0,0,0,0,0,59046,59046,59046,59046,59046,59046,59046,59046,59046,59046,59046,59046,59046,59046,59046,59046,59046,59046,59046,59046,59046,59046,59046,59046,59046,59046,59046,59046,0,0,0,0,0,0,0,0,0,0,0,0,0,0,0,0,0,0,0,0,0,0,0,0,0,0,0,0,0,0,0,0,0,0,0,0,0,0,0,0,0,
0,0,0,0,0,0,0,0,0,0,0,0,0,0,0,0,0,0,0,0,0,0,0,0,0,0,0,0,0,0,0,0,0,0,0,0,0,0,0,0,0,0,0,0,0,0,0,0,0,0,0,0,0,0,0,0,0,0,0,0,0,0,0,0,0,0,0,0,0,0,0,0,0,0,0,0,59048,59048,59048,59048,59048,59048,59048,59048,59048,59048,59048,59048,59048,59048,59048,59048,59048,59048,59048,59048,59048,59048,0,0,0,0,0,0,0,0,0,0,0,0,0,0,0,0,0,0,0,0,0,0,0,0,0,0,0,0,0,0,0,0,0,0,0,0,0,0,0,0,0,0,0,0,0,0,0,0,0,0,0,0,0,0,0,0,0,0,0,0,0,0,0,0,0,0,0,0,0,0,0,0,0,59046,59046,59046,59046,59046,59046,59046,59046,59046,59046,59046,59046,59046,59046,59046,59046,59046,59046,59046,59046,59046,59046,59046,59046,59046,59046,59046,59046,0,0,0,0,0,0,0,0,0,0,0,0,0,0,0,0,0,0,0,0,0,0,0,0,0,0,0,0,0,0,0,0,0,0,0,0,0,0,0,0,0,
0,0,0,0,0,0,0,0,0,0,0,0,0,0,0,0,0,0,0,0,0,0,0,0,0,0,0,0,0,0,0,0,0,0,0,0,0,0,0,0,0,0,0,0,0,0,0,0,0,0,0,0,0,0,0,0,0,0,0,0,0,0,0,0,0,0,0,0,0,0,0,0,0,0,0,0,59048,59048,59048,59048,59048,59048,59048,59048,59048,59048,59048,59048,59048,59048,59048,59048,59048,59048,59048,59048,59048,59048,0,0,0,0,0,0,0,0,0,0,0,0,0,0,0,0,0,0,0,0,0,0,0,0,0,0,0,0,0,0,0,0,0,0,0,0,0,0,0,0,0,0,0,0,0,0,0,0,0,0,0,0,0,0,0,0,0,0,0,0,0,0,0,0,0,0,0,0,0,0,0,0,0,59046,59046,59046,59046,59046,59046,59046,59046,59046,59046,59046,59046,59046,59046,59046,59046,59046,59046,59046,59046,59046,59046,59046,59046,59046,59046,59046,59046,0,0,0,0,0,0,0,0,0,0,0,0,0,0,0,0,0,0,0,0,0,0,0,0,0,0,0,0,0,0,0,0,0,0,0,0,0,0,0,0,0,
0,0,0,0,0,0,0,0,0,0,0,0,0,0,0,0,0,0,0,0,0,0,0,0,0,0,0,0,0,0,0,0,0,0,0,0,0,0,0,0,0,0,0,0,0,0,0,0,0,0,0,0,0,0,0,0,0,0,0,0,0,0,0,0,0,0,0,0,0,0,0,0,0,0,0,0,59048,59048,59048,59048,59048,59048,59048,59048,59048,59048,59048,59048,59048,59048,59048,59048,59048,59048,59048,59048,59048,59048,0,0,0,0,0,0,0,0,0,0,0,0,0,0,0,0,0,0,0,0,0,0,0,0,0,0,0,0,0,0,0,0,0,0,0,0,0,0,0,0,0,0,0,0,0,0,0,0,0,0,0,0,0,0,0,0,0,0,0,0,0,0,0,0,0,0,0,0,0,0,0,0,0,59046,59046,59046,59046,59046,59046,59046,59046,59046,59046,59046,59046,59046,59046,59046,59046,59046,59046,59046,59046,59046,59046,59046,59046,59046,59046,59046,59046,0,0,0,0,0,0,0,0,0,0,0,0,0,0,0,0,0,0,0,0,0,0,0,0,0,0,0,0,0,0,0,0,0,0,0,0,0,0,0,0,0,
0,0,0,0,0,0,0,0,0,0,0,0,0,0,0,0,0,0,0,0,0,0,0,0,0,0,0,0,0,0,0,0,0,0,0,0,0,0,0,0,0,0,0,0,0,0,0,0,0,0,0,0,0,0,0,0,0,0,0,0,0,0,0,59048,59048,59048,59048,59048,59048,59048,59048,59048,59048,59048,59048,0,59048,59048,59048,59048,59048,59048,59048,59048,59048,59048,59048,59048,59048,59048,59048,59048,59048,59048,59048,59048,59048,59048,0,0,0,0,0,0,0,0,0,0,0,0,0,0,0,0,0,0,0,0,0,0,0,0,0,0,0,0,0,0,0,0,0,0,0,0,0,0,0,0,0,0,0,0,0,0,0,0,0,0,0,0,0,0,0,0,0,0,0,0,0,0,0,0,0,0,0,0,0,0,0,0,0,59046,59046,59046,59046,59046,59046,59046,59046,59046,59046,59046,59046,59046,59046,59046,59046,59046,59046,59046,59046,59046,59046,59046,59046,59046,59046,59046,59046,0,0,0,0,0,0,0,0,0,0,0,0,0,0,0,0,0,0,0,0,0,0,0,0,0,0,0,0,0,0,0,0,0,0,0,0,0,0,0,0,0,
0,0,0,0,0,0,0,0,0,0,0,0,0,0,0,0,0,0,0,0,0,0,0,0,0,0,0,0,0,0,0,0,0,0,0,0,0,0,0,0,0,0,0,0,0,0,0,0,0,0,0,0,0,0,0,0,0,0,0,0,0,0,0,59048,59048,59048,59048,59048,59048,59048,59048,59048,59048,59048,59048,0,59048,59048,59048,59048,59048,59048,59048,59048,59048,59048,59048,59048,59048,59048,59048,59048,59048,59048,59048,59048,59048,59048,0,0,0,0,0,0,0,0,0,0,0,0,0,0,0,0,0,0,0,0,0,0,0,0,0,0,0,0,0,0,0,0,0,0,0,0,0,0,0,0,0,0,0,0,0,0,0,0,0,0,0,0,0,0,0,0,0,0,0,0,0,0,0,0,0,0,0,0,0,0,0,0,0,59046,59046,59046,59046,59046,59046,59046,59046,59046,59046,59046,59046,59046,59046,59046,59046,59046,59046,59046,59046,59046,59046,59046,59046,59046,59046,59046,59046,0,0,0,0,0,0,0,0,0,0,0,0,0,0,0,0,0,0,0,0,0,0,0,0,0,0,0,0,0,0,0,0,0,0,0,0,0,0,0,0,0,
0,0,0,0,0,0,0,0,0,0,0,0,0,0,0,0,0,0,0,0,0,0,0,0,0,0,0,0,0,0,0,0,0,0,0,0,0,0,0,0,0,0,0,0,0,0,0,0,0,0,0,0,0,0,0,0,0,0,0,0,0,0,0,59048,59048,59048,59048,59048,59048,59048,59048,59048,59048,59048,59048,59048,59048,59048,59048,59048,59048,59048,59048,59048,59048,59048,59048,59048,59048,59048,59048,59048,59048,59048,59048,59048,59048,59048,0,0,0,0,0,0,0,0,0,0,0,0,0,0,0,0,0,0,0,0,0,0,0,0,0,0,0,0,0,0,0,0,0,0,0,0,0,0,0,0,0,0,0,0,0,0,0,0,0,0,0,0,0,0,0,0,0,0,0,0,0,0,0,0,0,0,0,0,0,0,0,0,0,0,0,0,0,0,0,0,0,0,0,0,0,0,0,0,59046,59046,59046,59046,59046,59046,59046,59046,59046,59046,59046,59046,59046,0,0,0,0,0,0,0,0,0,0,0,0,0,0,0,0,0,0,0,0,0,0,0,0,0,0,0,0,0,0,0,0,0,0,0,0,0,0,0,0,0,
0,0,0,0,0,0,0,0,0,0,0,0,0,0,0,0,0,0,0,0,0,0,0,0,0,0,0,0,0,0,0,0,0,0,0,0,0,0,0,0,0,0,0,0,0,0,0,0,0,0,0,0,0,0,0,0,0,0,0,0,0,0,0,59048,59048,59048,59048,59048,59048,59048,59048,59048,59048,59048,59048,59048,59048,59048,59048,59048,59048,59048,59048,59048,59048,59048,59048,59048,59048,59048,59048,59048,59048,59048,59048,59048,59048,59048,0,0,0,0,0,0,0,0,0,0,0,0,0,0,0,0,0,0,0,0,0,0,0,0,0,0,0,0,0,0,0,0,0,0,0,0,0,0,0,0,0,0,0,0,0,0,0,0,0,0,0,0,0,0,0,0,0,0,0,0,0,0,0,0,0,0,0,0,0,0,0,0,0,0,0,0,0,0,0,0,0,0,0,0,0,0,0,0,59046,59046,59046,59046,59046,59046,59046,59046,59046,59046,59046,59046,59046,0,0,0,0,0,0,0,0,0,0,0,0,0,0,0,0,0,0,0,0,0,0,0,0,0,0,0,0,0,0,0,0,0,0,0,0,0,0,0,0,0,
0,0,0,0,0,0,0,0,0,0,0,0,0,0,0,0,0,0,0,0,0,0,0,0,0,0,0,0,0,0,0,0,0,0,0,0,0,0,0,0,0,0,0,0,0,0,0,0,0,0,0,0,0,0,0,0,0,0,0,0,0,0,0,59048,59048,59048,59048,59048,59048,59048,59048,59048,59048,59048,59048,0,59048,59048,59048,59048,59048,59048,59048,59048,59048,59048,59048,59048,59048,59048,59048,59048,59048,59048,59048,59048,59048,59048,0,0,0,0,0,0,0,0,0,0,0,0,0,0,0,0,0,0,0,0,0,0,0,0,0,0,0,0,0,0,0,0,0,0,0,0,0,0,0,0,0,0,0,0,0,0,0,0,0,0,0,0,0,0,0,0,0,0,0,0,0,0,0,0,0,0,0,0,0,0,0,0,0,0,0,0,0,0,0,0,0,0,0,0,0,0,0,0,59046,59046,59046,59046,59046,59046,59046,59046,59046,59046,59046,59046,59046,0,0,0,0,0,0,0,0,0,0,0,0,0,0,0,0,0,0,0,0,0,0,0,0,0,0,0,0,0,0,0,0,0,0,0,0,0,0,0,0,0,
0,0,0,0,0,0,0,0,0,0,0,0,0,0,0,0,0,0,0,0,0,0,0,0,0,0,0,0,0,0,0,0,0,0,0,0,0,0,0,0,0,0,0,0,0,0,0,0,0,0,0,0,0,0,0,0,0,0,0,0,0,0,0,0,0,0,0,0,0,0,0,0,0,0,0,0,0,0,0,0,0,0,0,0,0,0,0,0,59048,59048,59048,0,0,0,0,0,0,0,0,0,0,0,0,0,0,0,0,0,0,0,0,0,0,0,0,0,0,0,0,0,0,0,0,0,0,0,0,0,0,0,0,0,0,0,0,0,0,0,0,0,0,0,0,0,0,0,0,0,0,0,0,0,0,0,0,0,0,0,0,0,0,0,0,0,0,0,0,0,0,0,0,0,0,0,0,0,0,0,0,0,0,0,0,0,0,0,59046,59046,59046,59046,59046,59046,59046,59046,59046,59046,59046,59046,59046,0,0,0,0,0,0,0,0,0,0,0,0,0,0,0,0,0,0,0,0,0,0,0,0,0,0,0,0,0,0,0,0,0,0,0,0,0,0,0,0,0,
0,0,0,0,0,0,0,0,0,0,0,0,0,0,0,0,0,0,0,0,0,0,0,0,0,0,0,0,0,0,0,0,0,0,0,0,0,0,0,0,0,0,0,0,0,0,0,0,0,0,0,0,0,0,0,0,0,0,0,0,0,0,0,0,0,0,0,0,0,0,0,0,0,0,0,0,0,0,0,0,0,0,0,0,0,0,0,0,0,0,0,0,0,0,0,0,0,0,0,0,0,0,0,0,0,0,0,0,0,0,0,0,0,0,0,0,0,0,0,0,0,0,0,0,0,0,0,0,0,0,0,0,0,0,0,0,0,0,0,0,0,0,0,0,0,0,0,0,0,0,0,0,0,0,0,0,0,0,0,0,0,0,0,0,0,0,0,0,0,0,0,0,0,0,0,0,0,0,0,0,0,0,0,0,0,59046,59046,59046,59046,59046,59046,59046,59046,59046,59046,59046,59046,59046,59046,0,0,0,0,0,0,0,0,0,0,0,0,0,0,0,0,0,0,0,0,0,0,0,0,0,0,0,0,0,0,0,0,0,0,0,0,0,0,0,0,0,
0,0,0,0,0,0,0,0,0,0,0,0,0,0,0,0,0,0,0,0,0,0,0,0,0,0,0,0,0,0,0,0,0,0,0,0,0,0,0,0,0,0,0,0,0,0,0,0,0,0,0,0,0,0,0,0,0,0,0,0,0,0,0,0,0,0,0,0,0,0,0,0,0,0,0,0,0,0,0,0,0,0,0,0,0,0,0,0,0,0,0,0,0,0,0,0,0,0,0,0,0,0,0,0,0,0,0,0,0,0,0,0,0,0,0,0,0,0,0,0,0,0,0,0,0,0,0,0,0,0,0,0,0,0,0,0,0,0,0,0,0,0,0,0,0,0,0,0,0,0,0,0,0,0,0,0,0,0,0,0,0,0,0,0,0,0,0,0,0,0,0,0,0,0,0,0,0,0,0,0,0,0,0,0,0,59046,59046,59046,59046,59046,59046,59046,59046,59046,59046,59046,59046,59046,59046,0,0,0,0,0,0,0,0,0,0,0,0,0,0,0,0,0,0,0,0,0,0,0,0,0,0,0,0,0,0,0,0,0,0,0,0,0,0,0,0,0,
0,0,0,0,0,0,0,0,0,0,0,0,0,0,0,0,0,0,0,0,0,0,0,0,0,0,0,0,0,0,0,0,0,0,0,0,0,0,0,0,0,0,0,0,0,0,0,0,0,0,0,0,0,0,0,0,0,0,0,0,0,0,0,0,0,0,0,0,0,0,0,0,0,0,0,0,0,0,0,0,0,0,0,0,0,0,0,0,0,0,0,0,0,0,0,0,0,0,0,0,0,0,0,0,0,0,0,0,0,0,0,0,0,0,0,0,0,0,0,0,0,0,0,0,0,0,0,0,0,0,0,0,0,0,0,0,0,0,0,0,0,0,0,0,0,0,0,0,0,0,0,0,0,0,0,0,0,0,0,0,0,0,0,0,0,0,0,0,0,0,0,0,0,0,0,0,0,0,0,0,0,0,0,0,0,59046,59046,59046,59046,59046,59046,59046,59046,59046,59046,59046,59046,59046,59046,0,0,0,0,0,0,0,0,0,0,0,0,0,0,0,0,0,0,0,0,0,0,0,0,0,0,0,0,0,0,0,0,0,0,0,0,0,0,0,0,0,
0,0,0,0,0,0,0,0,0,0,0,0,0,0,0,0,0,0,0,0,0,0,0,0,0,0,0,0,0,0,0,0,0,0,0,0,0,0,0,0,0,0,0,0,0,0,0,0,0,0,0,0,0,0,0,0,0,0,0,0,0,0,0,0,0,0,0,0,0,0,0,0,0,0,0,0,0,0,0,0,0,0,0,0,0,0,0,0,0,0,0,0,0,0,0,0,0,0,0,0,0,0,0,0,0,0,0,0,0,0,0,0,0,0,0,0,0,0,0,0,0,0,0,0,0,0,0,0,0,0,0,0,0,0,0,0,0,0,0,0,0,0,0,0,0,0,0,0,0,0,0,0,0,0,0,0,0,0,0,0,0,0,0,0,0,0,0,0,0,0,0,0,0,0,0,0,0,0,0,0,0,0,0,0,0,0,59046,59046,59046,59046,59046,59046,59046,59046,59046,59046,59046,59046,59046,0,0,0,0,0,0,0,0,0,0,0,0,0,0,0,0,0,0,0,0,0,0,0,0,0,0,0,0,0,0,0,0,0,0,0,0,0,0,0,0,0,
0,0,0,0,0,0,0,0,0,0,0,0,0,0,0,0,0,0,0,0,0,0,0,0,0,0,0,0,0,0,0,0,0,0,0,0,0,0,0,0,0,0,0,0,0,0,0,0,0,0,0,0,0,0,0,0,0,0,0,0,0,0,0,0,0,0,0,0,0,0,0,0,0,0,0,0,0,0,0,0,0,0,0,0,0,0,0,0,0,0,0,0,0,0,0,0,0,0,0,0,0,0,0,0,0,0,0,0,0,0,0,0,0,0,0,0,0,0,0,0,0,0,0,0,0,0,0,0,0,0,0,0,0,0,0,0,0,0,0,0,0,0,0,0,0,0,0,0,0,0,0,0,0,0,0,0,0,0,0,0,0,0,0,0,0,0,0,0,0,0,0,0,0,0,0,0,0,0,0,0,0,0,0,0,0,0,59046,59046,59046,59046,59046,59046,59046,59046,59046,59046,59046,59046,59046,0,0,0,0,0,0,0,0,0,0,0,0,0,0,0,0,0,0,0,0,0,0,0,0,0,0,0,0,0,0,0,0,0,0,0,0,0,0,0,0,0,
0,0,0,0,0,0,0,0,0,0,0,0,0,0,0,0,0,0,0,0,0,0,0,0,0,0,0,0,0,0,0,0,0,0,0,0,0,0,0,0,0,0,0,0,0,0,0,0,0,0,0,0,0,0,0,0,0,0,0,0,0,0,0,0,0,0,0,0,0,0,0,0,0,0,0,0,0,0,0,0,0,0,0,0,0,0,0,0,0,0,0,0,0,0,0,0,0,0,0,0,0,0,0,0,0,0,0,0,0,0,0,0,0,0,0,0,0,0,0,0,0,0,0,0,0,0,0,0,0,0,0,0,0,0,0,0,0,0,0,0,0,0,0,0,0,0,0,0,0,0,0,0,0,0,0,0,0,0,0,0,0,0,0,0,0,0,0,0,0,0,0,0,0,0,0,0,0,0,0,0,0,0,0,0,0,0,0,0,0,0,0,0,0,0,0,0,0,0,0,0,0,0,0,0,0,0,0,0,0,0,0,0,0,0,0,0,0,0,0,0,0,0,0,0,0,0,0,0,0,0,0,0,0,0,0,0,0,0,0,0,
0,0,0,0,0,0,0,0,0,0,0,0,0,0,0,0,0,0,0,0,0,0,0,0,0,0,0,0,0,0,0,0,0,0,0,0,0,0,0,0,0,0,0,0,0,0,0,0,0,0,0,0,0,0,0,0,0,0,0,0,0,0,0,0,0,0,0,0,0,0,0,0,0,0,0,0,0,0,0,0,0,0,0,0,0,0,0,0,0,0,0,0,0,0,0,0,0,0,0,0,0,0,0,0,0,0,0,0,0,0,0,0,0,0,0,0,0,0,0,0,0,0,0,0,0,0,0,0,0,0,0,0,0,0,0,0,0,0,0,0,0,0,0,0,0,0,0,0,0,0,0,0,0,0,0,0,0,0,0,0,0,0,0,0,0,0,0,0,0,0,0,0,0,0,0,0,0,0,0,0,0,0,0,0,0,0,0,0,0,0,0,0,0,0,0,0,0,0,0,0,0,0,0,0,0,0,0,0,0,0,0,0,0,0,0,0,0,0,0,0,0,0,0,0,0,0,0,0,0,0,0,0,0,0,0,0,0,0,0,0,
0,0,0,0,0,0,0,0,0,0,0,0,0,0,0,0,0,0,0,0,0,0,0,0,0,0,0,0,0,0,0,0,0,0,0,0,0,0,0,0,0,0,0,0,0,0,0,0,0,0,0,0,0,0,0,0,0,0,0,0,0,0,0,0,0,0,0,0,0,0,0,0,0,0,0,0,0,0,0,0,0,0,0,0,0,0,0,0,0,0,0,0,0,0,0,0,0,0,0,0,0,0,0,0,0,0,0,0,0,0,0,0,0,0,0,0,0,0,0,0,0,0,0,0,0,0,0,0,0,0,0,0,0,0,0,0,0,0,0,0,0,0,0,0,0,0,0,0,0,0,0,0,0,0,0,0,0,0,0,0,0,0,0,0,0,0,0,0,0,0,0,0,0,0,0,0,0,0,0,0,0,0,0,0,0,0,0,0,0,0,0,0,0,0,0,0,0,0,0,0,0,0,0,0,0,0,0,0,0,0,0,0,0,0,0,0,0,0,0,0,0,0,0,0,0,0,0,0,0,0,0,0,0,0,0,0,0,0,0,0,
0,0,0,0,0,0,0,0,0,0,0,0,0,0,0,0,0,0,0,0,0,0,0,0,0,0,0,0,0,0,0,0,0,0,0,0,0,0,0,0,0,0,0,0,0,0,0,0,0,0,0,0,0,0,0,0,0,0,0,0,0,0,0,0,0,0,0,0,0,0,0,0,0,0,0,0,0,0,0,0,0,0,0,0,0,0,0,0,0,0,0,0,0,0,0,0,0,0,0,0,0,0,0,0,0,0,0,0,0,0,0,0,0,0,0,0,0,0,0,0,0,0,0,0,0,0,0,0,0,0,0,0,0,0,0,0,0,0,0,0,0,0,0,0,0,0,0,0,0,0,0,0,0,0,0,0,0,0,0,0,0,0,0,0,0,0,0,0,0,0,0,0,0,0,0,0,0,0,0,0,0,0,0,0,0,0,0,0,0,0,0,0,0,0,0,0,0,0,0,0,0,0,0,0,0,0,0,0,0,0,0,0,0,0,0,0,0,0,0,0,0,0,0,0,0,0,0,0,0,0,0,0,0,0,0,0,0,0,0,0,
0,0,0,0,0,0,0,0,0,0,0,0,0,0,0,0,0,0,0,0,0,0,0,0,0,0,0,0,0,0,0,0,0,0,0,0,0,0,0,0,0,0,0,0,0,0,0,0,0,0,0,0,0,0,0,0,0,0,0,0,0,0,0,0,0,0,0,0,0,0,0,0,0,0,0,0,0,0,0,0,0,0,0,0,0,0,0,0,0,0,0,0,0,0,0,0,0,0,0,0,0,0,0,0,0,0,0,0,0,0,0,0,0,0,0,0,0,0,0,0,0,0,0,0,0,0,0,0,0,0,0,0,0,0,0,0,0,0,0,0,0,0,0,0,0,0,0,0,0,0,0,0,0,0,0,0,0,0,0,0,0,0,0,0,0,0,0,0,0,0,0,0,0,0,0,0,0,0,0,0,0,0,0,0,0,0,0,0,0,0,0,0,0,0,0,0,0,0,0,0,0,0,0,0,0,0,0,0,0,0,0,0,0,0,0,0,0,0,0,0,0,0,0,0,0,0,0,0,0,0,0,0,0,0,0,0,0,0,0,0,
0,0,0,0,0,0,0,0,0,0,0,0,0,0,0,0,0,0,0,0,0,0,0,0,0,0,0,0,0,0,0,0,0,0,0,0,0,0,0,0,0,0,0,0,0,0,0,0,0,0,0,0,0,0,0,0,0,0,0,0,0,0,0,0,0,0,0,0,0,0,0,0,0,0,0,0,0,0,0,0,0,0,0,0,0,0,0,0,0,0,0,0,0,0,0,0,0,0,0,0,0,0,0,0,0,0,0,0,0,0,0,0,0,0,0,0,0,0,0,0,0,0,0,0,0,0,0,0,0,0,0,0,0,0,0,0,0,0,0,0,0,0,0,0,0,0,0,0,0,0,0,0,0,0,0,0,0,0,0,0,0,0,0,0,0,0,0,0,0,0,0,0,0,0,0,0,0,0,0,0,0,0,0,0,0,0,0,0,0,0,0,0,0,0,0,0,0,0,0,0,0,0,0,0,0,0,0,0,0,0,0,0,0,0,0,0,0,0,0,0,0,0,0,0,0,0,0,0,0,0,0,0,0,0,0,0,0,0,0,0,
0,0,0,0,0,0,0,0,0,0,0,0,0,0,0,0,0,0,0,0,0,0,0,0,0,0,0,0,0,0,0,0,0,0,0,0,0,0,0,0,0,0,0,0,0,0,0,0,0,0,0,0,0,0,0,0,0,0,0,0,0,0,0,0,0,0,0,0,0,0,0,0,0,0,0,0,0,0,0,0,0,0,0,0,0,0,0,0,0,0,0,0,0,0,0,0,0,0,0,0,0,0,0,0,0,0,0,0,0,0,0,0,0,0,0,0,0,0,0,0,0,0,0,0,0,0,0,0,0,0,0,0,0,0,0,0,0,0,0,0,0,0,0,0,0,0,0,0,0,0,0,0,0,0,0,0,0,0,0,0,0,0,0,0,0,0,0,0,0,0,0,0,0,0,0,0,0,0,0,0,0,0,0,0,0,0,0,0,0,0,0,0,0,0,0,0,0,0,0,0,0,0,0,0,0,0,0,0,0,0,0,0,0,0,0,0,0,0,0,0,0,0,0,0,0,0,0,0,0,0,0,0,0,0,0,0,0,0,0,0,
0,0,0,0,0,0,0,0,0,0,0,0,0,0,0,0,0,0,0,0,0,0,0,0,0,0,0,0,0,0,0,0,0,0,0,0,0,0,0,0,0,0,0,0,0,0,0,0,0,0,0,0,0,0,0,0,0,0,0,0,0,0,0,0,0,0,0,0,0,0,0,0,0,0,0,0,0,0,0,0,0,0,0,0,0,0,0,0,0,0,0,0,0,0,0,0,0,0,0,0,0,0,0,0,0,0,0,0,0,0,0,0,0,0,0,0,0,0,0,0,0,0,0,0,0,0,0,0,0,0,0,0,0,0,0,0,0,0,0,0,0,0,0,0,0,0,0,0,0,0,0,0,0,0,0,0,0,0,0,0,0,0,0,0,0,0,0,0,0,0,0,0,0,0,0,0,0,0,0,0,0,0,0,0,0,0,0,0,0,0,0,0,0,0,0,0,0,0,0,0,0,0,0,0,0,0,0,0,0,0,0,0,0,0,0,0,0,0,0,0,0,0,0,0,0,0,0,0,0,0,0,0,0,0,0,0,0,0,0,0,
0,0,0,0,0,0,0,0,0,0,0,0,0,0,0,0,0,0,0,0,0,0,0,0,0,0,0,0,0,0,0,0,0,0,0,0,0,0,0,0,0,0,0,0,0,0,0,0,0,0,0,0,0,0,0,0,0,0,0,0,0,0,0,0,0,0,0,0,0,0,0,0,0,0,0,0,0,0,0,0,0,0,0,0,0,0,0,0,0,0,0,0,0,0,0,0,0,0,0,0,0,0,0,0,0,0,0,0,0,0,0,0,0,0,0,0,0,0,0,0,0,0,0,0,0,0,0,0,0,0,0,0,0,0,0,0,0,0,0,0,0,0,0,0,0,0,0,0,0,0,0,0,0,0,0,0,0,0,0,0,0,0,0,0,0,0,0,0,0,0,0,0,0,0,0,0,0,0,0,0,0,0,0,0,0,0,0,0,0,0,0,0,0,0,0,0,0,0,0,0,0,0,0,0,0,0,0,0,0,0,0,0,0,0,0,0,0,0,0,0,0,0,0,0,0,0,0,0,0,0,0,0,0,0,0,0,0,0,0,0,
0,0,0,0,0,0,0,0,0,0,0,0,0,0,0,0,0,0,0,0,0,0,0,0,0,0,0,0,0,0,0,0,0,0,0,0,0,0,0,0,0,0,0,0,0,0,0,0,0,0,0,0,0,0,0,0,0,0,0,0,0,0,0,0,0,0,0,0,0,0,0,0,0,0,0,0,0,0,0,0,0,0,0,0,0,0,0,0,0,0,0,0,0,0,0,0,0,0,0,0,0,0,0,0,0,0,0,0,0,0,0,0,0,0,0,0,0,0,0,0,0,0,0,0,0,0,0,0,0,0,0,0,0,0,0,0,0,0,0,0,0,0,0,0,0,0,0,0,0,0,0,0,0,0,0,0,0,0,0,0,0,0,0,0,0,0,0,0,0,0,0,0,0,0,0,0,0,0,0,0,0,0,0,0,0,0,0,0,0,0,0,0,0,0,0,0,0,0,0,0,0,0,0,0,0,0,0,0,0,0,0,0,0,0,0,0,0,0,0,0,0,0,0,0,0,0,0,0,0,0,0,0,0,0,0,0,0,0,0,0,
0,0,0,0,0,0,0,0,0,0,0,0,0,0,0,0,0,0,0,0,0,0,0,0,0,0,0,0,0,0,0,0,0,0,0,0,0,0,0,0,0,0,0,0,0,0,0,0,0,0,0,0,0,0,0,0,0,0,0,0,0,0,0,0,0,0,0,0,0,0,0,0,0,0,0,0,0,0,0,0,0,0,0,0,0,0,0,0,0,0,0,0,0,0,0,0,0,0,0,0,0,0,0,0,0,0,0,0,0,0,0,0,0,0,0,0,0,0,0,0,0,0,0,0,0,0,0,0,0,0,0,0,0,0,0,0,0,0,0,0,0,0,0,0,0,0,0,0,0,0,0,0,0,0,0,0,0,0,0,0,0,0,0,0,0,0,0,0,0,0,0,0,0,0,0,0,0,0,0,0,0,0,0,0,0,0,0,0,0,0,0,0,0,0,0,0,0,0,0,0,0,0,0,0,0,0,0,0,0,0,0,0,0,0,0,0,0,0,0,0,0,0,0,0,0,0,0,0,0,0,0,0,0,0,0,0,0,0,0,0,
0,0,0,0,0,0,0,0,0,0,0,0,0,0,0,0,0,0,0,0,0,0,0,0,0,0,0,0,0,0,0,0,0,0,0,0,0,0,0,0,0,0,0,0,0,0,0,0,0,0,0,0,0,0,0,0,0,0,0,0,0,0,0,0,0,0,0,0,0,0,0,0,0,0,0,0,0,0,0,0,0,0,0,0,0,0,0,0,0,0,0,0,0,0,0,0,0,0,0,0,0,0,0,0,0,0,0,0,0,0,0,0,0,0,0,0,0,0,0,0,0,0,0,0,0,0,0,0,0,0,0,0,0,0,0,0,0,0,0,0,0,0,0,0,0,0,0,0,0,0,0,0,0,0,0,0,0,0,0,0,0,0,0,0,0,0,0,0,0,0,0,0,0,0,0,0,0,0,0,0,0,0,0,0,0,0,0,0,0,0,0,0,0,0,0,0,0,0,0,0,0,0,0,0,0,0,0,0,0,0,0,0,0,0,0,0,0,0,0,0,0,0,0,0,0,0,0,0,0,0,0,0,0,0,0,0,0,0,0,0,
0,0,0,0,0,0,0,0,0,0,0,0,0,0,0,0,0,0,0,0,0,0,0,0,0,0,0,0,0,0,0,0,0,0,0,0,0,0,0,0,0,0,0,0,0,0,0,0,0,0,0,0,0,0,0,0,0,0,0,0,0,0,0,0,0,0,0,0,0,0,0,0,0,0,0,0,0,0,0,0,0,0,0,0,0,0,0,0,0,0,0,0,0,0,0,0,0,0,0,0,0,0,0,0,0,0,0,0,0,0,0,0,0,0,0,0,0,0,0,0,0,0,0,0,0,0,0,0,0,0,0,0,0,0,0,0,0,0,0,0,0,0,0,0,0,0,0,0,0,0,0,0,0,0,0,0,0,0,0,0,0,0,0,0,0,0,0,0,0,0,0,0,0,0,0,0,0,0,0,0,0,0,0,0,0,0,0,0,0,0,0,0,0,0,0,0,0,0,0,0,0,0,0,0,0,0,0,0,0,0,0,0,0,0,0,0,0,0,0,0,0,0,0,0,0,0,0,0,0,0,0,0,0,0,0,0,0,0,0,0,
0,0,0,0,0,0,0,0,0,0,0,0,0,0,0,0,0,0,0,0,0,0,0,0,0,0,0,0,0,0,0,0,0,0,0,0,0,0,0,0,0,0,0,0,0,0,0,0,0,0,0,0,0,0,0,0,0,0,0,0,0,0,0,0,0,0,0,0,0,0,0,0,0,0,0,0,0,0,0,0,0,0,0,0,0,0,0,0,0,0,0,0,0,0,0,0,0,0,0,0,0,0,0,0,0,0,0,0,0,0,0,0,0,0,0,0,0,0,0,0,0,0,0,0,0,0,0,0,0,0,0,0,0,0,0,0,0,0,0,0,0,0,0,0,0,0,0,0,0,0,0,0,0,0,0,0,0,0,0,0,0,0,0,0,0,0,0,0,0,0,0,0,0,0,0,0,0,0,0,0,0,0,0,0,0,0,0,0,0,0,0,0,0,0,0,0,0,0,0,0,0,0,0,0,0,0,0,0,0,0,0,0,0,0,0,0,0,0,0,0,0,0,0,0,0,0,0,0,0,0,0,0,0,0,0,0,0,0,0,0,
0,0,0,0,0,0,0,0,0,0,0,0,0,0,0,0,0,0,0,0,0,0,0,0,0,0,0,0,0,0,0,0,0,0,0,0,0,0,0,0,0,0,0,0,0,0,0,0,0,0,0,0,0,0,0,0,0,0,0,0,0,0,0,0,0,0,0,0,0,0,0,0,0,0,0,0,0,0,0,0,0,0,0,0,0,0,0,0,0,0,0,0,0,0,0,0,0,0,0,0,0,0,0,0,0,0,0,0,0,0,0,0,0,0,0,0,0,0,0,0,0,0,0,0,0,0,0,0,0,0,0,0,0,0,0,0,0,0,0,0,0,0,0,0,0,0,0,0,0,0,0,0,0,0,0,0,0,0,0,0,0,0,0,0,0,0,0,0,0,0,0,0,0,0,0,0,0,0,0,0,0,0,0,0,0,0,0,0,0,0,0,0,0,0,0,0,0,0,0,0,0,0,0,0,0,0,0,0,0,0,0,0,0,0,0,0,0,0,0,0,0,0,0,0,0,0,0,0,0,0,0,0,0,0,0,0,0,0,0,0,
0,0,0,0,0,0,0,0,0,0,0,0,0,0,0,0,0,0,0,0,0,0,0,0,0,0,0,0,0,0,0,0,0,0,0,0,0,0,0,0,0,0,0,0,0,0,0,0,0,0,0,0,0,0,0,0,0,0,0,0,0,0,0,0,0,0,0,0,0,0,0,0,0,0,0,0,0,0,0,0,0,0,0,0,0,0,0,0,0,0,0,0,0,0,0,0,0,0,0,0,0,0,0,0,0,0,0,0,0,0,0,0,0,0,0,0,0,0,0,0,0,0,0,0,0,0,0,0,0,0,0,0,0,0,0,0,0,0,0,0,0,0,0,0,0,0,0,0,0,0,0,0,0,0,0,0,0,0,0,0,0,0,0,0,0,0,0,0,0,0,0,0,0,0,0,0,0,0,0,0,0,0,0,0,0,0,0,0,0,0,0,0,0,0,0,0,0,0,0,0,0,0,0,0,0,0,0,0,0,0,0,0,0,0,0,0,0,0,0,0,0,0,0,0,0,0,0,0,0,0,0,0,0,0,0,0,0,0,0,0,
0,0,0,0,0,0,0,0,0,0,0,0,0,0,0,0,0,0,0,0,0,0,0,0,0,0,0,0,0,0,0,0,0,0,0,0,0,0,0,0,0,0,0,0,0,0,0,0,0,0,0,0,0,0,0,0,0,0,0,0,0,0,0,0,0,0,0,0,0,0,0,0,0,0,0,0,0,0,0,0,0,0,0,0,0,0,0,0,0,0,0,0,0,0,0,0,0,0,0,0,0,0,0,0,0,0,0,0,0,0,0,0,0,0,0,0,0,0,0,0,0,0,0,0,0,0,0,0,0,0,0,0,0,0,0,0,0,0,0,0,0,0,0,0,0,0,0,0,0,0,0,0,0,0,0,0,0,0,0,0,0,0,0,0,0,0,0,0,0,0,0,0,0,0,0,0,0,0,0,0,0,0,0,0,0,0,0,0,0,0,0,0,0,0,0,0,0,0,0,0,0,0,0,0,0,0,0,0,0,0,0,0,0,0,0,0,0,0,0,0,0,0,0,0,0,0,0,0,0,0,0,0,0,0,0,0,0,0,0,0,
0,0,0,0,0,0,0,0,0,0,0,0,0,0,0,0,0,0,0,0,0,0,0,0,0,0,0,0,0,0,0,0,0,0,0,0,0,0,0,0,0,0,0,0,0,0,0,0,0,0,0,0,0,0,0,0,0,0,0,0,0,0,0,0,0,0,0,0,0,0,0,0,0,0,0,0,0,0,0,0,0,0,0,0,0,0,0,0,0,0,0,0,0,0,0,0,0,0,0,0,0,0,0,0,0,0,0,0,0,0,0,0,0,0,0,0,0,0,0,0,0,0,0,0,0,0,0,0,0,0,0,0,0,0,0,0,0,0,0,0,0,0,0,0,0,0,0,0,0,0,0,0,0,0,0,0,0,0,0,0,0,0,0,0,0,0,0,0,0,0,0,0,0,0,0,0,0,0,0,0,0,0,0,0,0,0,0,0,0,0,0,0,0,0,0,0,0,0,0,0,0,0,0,0,0,0,0,0,0,0,0,0,0,0,0,0,0,0,0,0,0,0,0,0,0,0,0,0,0,0,0,0,0,0,0,0,0,0,0,0,
0,0,0,0,0,0,0,0,0,0,0,0,0,0,0,0,0,0,0,0,0,0,0,0,0,0,0,0,0,0,0,0,0,0,0,0,0,0,0,0,0,0,0,0,0,0,0,0,0,0,0,0,0,0,0,0,0,0,0,0,0,0,0,0,0,0,0,0,0,0,0,0,0,0,0,0,0,0,0,0,0,0,0,0,0,0,0,0,0,0,0,0,0,0,0,0,0,0,0,0,0,0,0,0,0,0,0,0,0,0,0,0,0,0,0,0,0,0,0,0,0,0,0,0,0,0,0,0,0,0,0,0,0,0,0,0,0,0,0,0,0,0,0,0,0,0,0,0,0,0,0,0,0,0,0,0,0,0,0,0,0,0,0,0,0,0,0,0,0,0,0,0,0,0,0,0,0,0,0,0,0,0,0,0,0,0,0,0,0,0,0,0,0,0,0,0,0,0,0,0,0,0,0,0,0,0,0,0,0,0,0,0,0,0,0,0,0,0,0,0,0,0,0,0,0,0,0,0,0,0,0,0,0,0,0,0,0,0,0,0,
0,0,0,0,0,0,0,0,0,0,0,0,0,0,0,0,0,0,0,0,0,0,0,0,0,0,0,0,0,0,0,0,0,0,0,0,0,0,0,0,0,0,0,0,0,0,0,0,0,0,0,0,0,0,0,0,0,0,0,0,0,0,0,0,0,0,0,0,0,0,0,0,0,0,0,0,0,0,0,0,0,0,0,0,0,0,0,0,0,0,0,0,0,0,0,0,0,0,0,0,0,0,0,0,0,0,0,0,0,0,0,0,0,0,0,0,0,0,0,0,0,0,0,0,0,0,0,0,0,0,0,0,0,0,0,0,0,0,0,0,0,0,0,0,0,0,0,0,0,0,0,0,0,0,0,0,0,0,0,0,0,0,0,0,0,0,0,0,0,0,0,0,0,0,0,0,0,0,0,0,0,0,0,0,0,0,0,0,0,0,0,0,0,0,0,0,0,0,0,0,0,0,0,0,0,0,0,0,0,0,0,0,0,0,0,0,0,0,0,0,0,0,0,0,0,0,0,0,0,0,0,0,0,0,0,0,0,0,0,0,
0,0,0,0,0,0,0,0,0,0,0,0,0,0,0,0,0,0,0,0,0,0,0,0,0,0,0,0,0,0,0,0,0,0,0,0,0,0,0,0,0,0,0,0,0,0,0,0,0,0,0,0,0,0,0,0,0,0,0,0,0,0,0,0,0,0,0,0,0,0,0,0,0,0,0,0,0,0,0,0,0,0,0,0,0,0,0,0,0,0,0,0,0,0,0,0,0,0,0,0,0,0,0,0,0,0,0,0,0,0,0,0,0,0,0,0,0,0,0,0,0,0,0,0,0,0,0,0,0,0,0,0,0,0,0,0,0,0,0,0,0,0,0,0,0,0,0,0,0,0,0,0,0,0,0,0,0,0,0,0,0,0,0,0,0,0,0,0,0,0,0,0,0,0,0,0,0,0,0,0,0,0,0,0,0,0,0,0,0,0,0,0,0,0,0,0,0,0,0,0,0,0,0,0,0,0,0,0,0,0,0,0,0,0,0,0,0,0,0,0,0,0,0,0,0,0,0,0,0,0,0,0,0,0,0,0,0,0,0,0,
0,0,0,0,0,0,0,0,0,0,0,0,0,0,0,0,0,0,0,0,0,0,0,0,0,0,0,0,0,0,0,0,0,0,0,0,0,0,0,0,0,0,0,0,0,0,0,0,0,0,0,0,0,0,0,0,0,0,0,0,0,0,0,0,0,0,0,0,0,0,0,0,0,0,0,0,0,0,0,0,0,0,0,0,0,0,0,0,0,0,0,0,0,0,0,0,0,0,0,0,0,0,0,0,0,0,0,0,0,0,0,0,0,0,0,0,0,0,0,0,0,0,0,0,0,0,0,0,0,0,0,0,0,0,0,0,0,0,0,0,0,0,0,0,0,0,0,0,0,0,0,0,0,0,0,0,0,0,0,0,0,0,0,0,0,0,0,0,0,0,0,0,0,0,0,0,0,0,0,0,0,0,0,0,0,0,0,0,0,0,0,0,0,0,0,0,0,0,0,0,0,0,0,0,0,0,0,0,0,0,0,0,0,0,0,0,0,0,0,0,0,0,0,0,0,0,0,0,0,0,0,0,0,0,0,0,0,0,0,0,
0,0,0,0,0,0,0,0,0,0,0,0,0,0,0,0,0,0,0,0,0,0,0,0,0,0,0,0,0,0,0,0,0,0,0,0,0,0,0,0,0,0,0,0,0,0,0,0,0,0,0,0,0,0,0,0,0,0,0,0,0,0,0,0,0,0,0,0,0,0,0,0,0,0,0,0,0,0,0,0,0,0,0,0,0,0,0,0,0,0,0,0,0,0,0,0,0,0,0,0,0,0,0,0,0,0,0,0,0,0,0,0,0,0,0,0,0,0,0,0,0,0,0,0,0,0,0,0,0,0,0,0,0,0,0,0,0,0,0,0,0,0,0,0,0,0,0,0,0,0,0,0,0,0,0,0,0,0,0,0,0,0,0,0,0,0,0,0,0,0,0,0,0,0,0,0,0,0,0,0,0,0,0,0,0,0,0,0,0,0,0,0,0,0,0,0,0,0,0,0,0,0,0,0,0,0,0,0,0,0,0,0,0,0,0,0,0,0,0,0,0,0,0,0,0,0,0,0,0,0,0,0,0,0,0,0,0,0,0,0,
0,0,0,0,0,0,0,0,0,0,0,0,0,0,0,0,0,0,0,0,0,0,0,0,0,0,0,0,0,0,0,0,0,0,0,0,0,0,0,0,0,0,0,0,0,0,0,0,0,0,0,0,0,0,0,0,0,0,0,0,0,0,0,0,0,0,0,0,0,0,0,0,0,0,0,0,0,0,0,0,0,0,0,0,0,0,0,0,0,0,0,0,0,0,0,0,0,0,0,0,0,0,0,0,0,0,0,0,0,0,0,0,0,0,0,0,0,0,0,0,0,0,0,0,0,0,0,0,0,0,0,0,0,0,0,0,0,0,0,0,0,0,0,0,0,0,0,0,0,0,0,0,0,0,0,0,0,0,0,0,0,0,0,0,0,0,0,0,0,0,0,0,0,0,0,0,0,0,0,0,0,0,0,0,0,0,0,0,0,0,0,0,0,0,0,0,0,0,0,0,0,0,0,0,0,0,0,0,0,0,0,0,0,0,0,0,0,0,0,0,0,0,0,0,0,0,0,0,0,0,0,0,0,0,0,0,0,0,0,0,
0,0,0,0,0,0,0,0,0,0,0,0,0,0,0,0,0,0,0,0,0,0,0,0,0,0,0,0,0,0,0,0,0,0,0,0,0,0,0,0,0,0,0,0,0,0,0,0,0,0,0,0,0,0,0,0,0,0,0,0,0,0,0,0,0,0,0,0,0,0,0,0,0,0,0,0,0,0,0,0,0,0,0,0,0,0,0,0,0,0,0,0,0,0,0,0,0,0,0,0,0,0,0,0,0,0,0,0,0,0,0,0,0,0,0,0,0,0,0,0,0,0,0,0,0,0,0,0,0,0,0,0,0,0,0,0,0,0,0,0,0,0,0,0,0,0,0,0,0,0,0,0,0,0,0,0,0,0,0,0,0,0,0,0,0,0,0,0,0,0,0,0,0,0,0,0,0,0,0,0,0,0,0,0,0,0,0,0,0,0,0,0,0,0,0,0,0,0,0,0,0,0,0,0,0,0,0,0,0,0,0,0,0,0,0,0,0,0,0,0,0,0,0,0,0,0,0,0,0,0,0,0,0,0,0,0,0,0,0,0,
0,0,0,0,0,0,0,0,0,0,0,0,0,0,0,0,0,0,0,0,0,0,0,0,0,0,0,0,0,0,0,0,0,0,0,0,0,0,0,0,0,0,0,0,0,0,0,0,0,0,0,0,0,0,0,0,0,0,0,0,0,0,0,0,0,0,0,0,0,0,0,0,0,0,0,0,0,0,0,0,0,0,0,0,0,0,0,0,0,0,0,0,0,0,0,0,0,0,0,0,0,0,0,0,0,0,0,0,0,0,0,0,0,0,0,0,0,0,0,0,0,0,0,0,0,0,0,0,0,0,0,0,0,0,0,0,0,0,0,0,0,0,0,0,0,0,0,0,0,0,0,0,0,0,0,0,0,0,0,0,0,0,0,0,0,0,0,0,0,0,0,0,0,0,0,0,0,0,0,0,0,0,0,0,0,0,0,0,0,0,0,0,0,0,0,0,0,0,0,0,0,0,0,0,0,0,0,0,0,0,0,0,0,0,0,0,0,0,0,0,0,0,0,0,0,0,0,0,0,0,0,0,0,0,0,0,0,0,0,0,
0,0,0,0,0,0,0,0,0,0,0,0,0,0,0,0,0,0,0,0,0,0,0,0,0,0,0,0,0,0,0,0,0,0,0,0,0,0,0,0,0,0,0,0,0,0,0,0,0,0,0,0,0,0,0,0,0,0,0,0,0,0,0,0,0,0,0,0,0,0,0,0,0,0,0,0,0,0,0,0,0,0,0,0,0,0,0,0,0,0,0,0,0,0,0,0,0,0,0,0,0,0,0,0,0,0,0,0,0,0,0,0,0,0,0,0,0,0,0,0,0,0,0,0,0,0,0,0,0,0,0,0,0,0,0,0,0,0,0,0,0,0,0,0,0,0,0,0,0,0,0,0,0,0,0,0,0,0,0,0,0,0,0,0,0,0,0,0,0,0,0,0,0,0,0,0,0,0,0,0,0,0,0,0,0,0,0,0,0,0,0,0,0,0,0,0,0,0,0,0,0,0,0,0,0,0,0,0,0,0,0,0,0,0,0,0,0,0,0,0,0,0,0,0,0,0,0,0,0,0,0,0,0,0,0,0,0,0,0,0,
0,0,0,0,0,0,0,0,0,0,0,0,0,0,0,0,0,0,0,0,0,0,0,0,0,0,0,0,0,0,0,0,0,0,0,0,0,0,0,0,0,0,0,0,0,0,0,0,0,0,0,0,0,0,0,0,0,0,0,0,0,0,0,0,0,0,0,0,0,0,0,0,0,0,0,0,0,0,0,0,0,0,0,0,0,0,0,0,0,0,0,0,0,0,0,0,0,0,0,0,0,0,0,0,0,0,0,0,0,0,0,0,0,0,0,0,0,0,0,0,0,0,0,0,0,0,0,0,0,0,0,0,0,0,0,0,0,0,0,0,0,0,0,0,0,0,0,0,0,0,0,0,0,0,0,0,0,0,0,0,0,0,0,0,0,0,0,0,0,0,0,0,0,0,0,0,0,0,0,0,0,0,0,0,0,0,0,0,0,0,0,0,0,0,0,0,0,0,0,0,0,0,0,0,0,0,0,0,0,0,0,0,0,0,0,0,0,0,0,0,0,0,0,0,0,0,0,0,0,0,0,0,0,0,0,0,0,0,0,0,
0,0,0,0,0,0,0,0,0,0,0,0,0,0,0,0,0,0,0,0,0,0,0,0,0,0,0,0,0,0,0,0,0,0,0,0,0,0,0,0,0,0,0,0,0,0,0,0,0,0,0,0,0,0,0,0,0,0,0,0,0,0,0,0,0,0,0,0,0,0,0,0,0,0,0,0,0,0,0,0,0,0,0,0,0,0,0,0,0,0,0,0,0,0,0,0,0,0,0,0,0,0,0,0,0,0,0,0,0,0,0,0,0,0,0,0,0,0,0,0,0,0,0,0,0,0,0,0,0,0,0,0,0,0,0,0,0,0,0,0,0,0,0,0,0,0,0,0,0,0,0,0,0,0,0,0,0,0,0,0,0,0,0,0,0,0,0,0,0,0,0,0,0,0,0,0,0,0,0,0,0,0,0,0,0,0,0,0,0,0,0,0,0,0,0,0,0,0,0,0,0,0,0,0,0,0,0,0,0,0,0,0,0,0,0,0,0,0,0,0,0,0,0,0,0,0,0,0,0,0,0,0,0,0,0,0,0,0,0,0,
0,0,0,0,0,0,0,0,0,0,0,0,0,0,0,0,0,0,0,0,0,0,0,0,0,0,0,0,0,0,0,0,0,0,0,0,0,0,0,0,0,0,0,0,0,0,0,0,0,0,0,0,0,0,0,0,0,0,0,0,0,0,0,0,0,0,0,0,0,0,0,0,0,0,0,0,0,0,0,0,0,0,0,0,0,0,0,0,0,0,0,0,0,0,0,0,0,0,0,0,0,0,0,0,0,0,0,0,0,0,0,0,0,0,0,0,0,0,0,0,0,0,0,0,0,0,0,0,0,0,0,0,0,0,0,0,0,0,0,0,0,0,0,0,0,0,0,0,0,0,0,0,0,0,0,0,0,0,0,0,0,0,0,0,0,0,0,0,0,0,0,0,0,0,0,0,0,0,0,0,0,0,0,0,0,0,0,0,0,0,0,0,0,0,0,0,0,0,0,0,0,0,0,0,0,0,0,0,0,0,0,0,0,0,0,0,0,0,0,0,0,0,0,0,0,0,0,0,0,0,0,0,0,0,0,0,0,0,0,0,
0,0,0,0,0,0,0,0,0,0,0,0,0,0,0,0,0,0,0,0,0,0,0,0,0,0,0,0,0,0,0,0,0,0,0,0,0,0,0,0,0,0,0,0,0,0,0,0,0,0,0,0,0,0,0,0,0,0,0,0,0,0,0,0,0,0,0,0,0,0,0,0,0,0,0,0,0,0,0,0,0,0,0,0,0,0,0,0,0,0,0,0,0,0,0,0,0,0,0,0,0,0,0,0,0,0,0,0,0,0,0,0,0,0,0,0,0,0,0,0,0,0,0,0,0,0,0,0,0,0,0,0,0,0,0,0,0,0,0,0,0,0,0,0,0,0,0,0,0,0,0,0,0,0,0,0,0,0,0,0,0,0,0,0,0,0,0,0,0,0,0,0,0,0,0,0,0,0,0,0,0,0,0,0,0,0,0,0,0,0,0,0,0,0,0,0,0,0,0,0,0,0,0,0,0,0,0,0,0,0,0,0,0,0,0,0,0,0,0,0,0,0,0,0,0,0,0,0,0,0,0,0,0,0,0,0,0,0,0,0,
0,0,0,0,0,0,0,0,0,0,0,0,0,0,0,0,0,0,0,0,0,0,0,0,0,0,0,0,0,0,0,0,0,0,0,0,0,0,0,0,0,0,0,0,0,0,0,0,0,0,0,0,0,0,0,0,0,0,0,0,0,0,0,0,0,0,0,0,0,0,0,0,0,0,0,0,0,0,0,0,0,0,0,0,0,0,0,0,0,0,0,0,0,0,0,0,0,0,0,0,0,0,0,0,0,0,0,0,0,0,0,0,0,0,0,0,0,0,0,0,0,0,0,0,0,0,0,0,0,0,0,0,0,0,0,0,0,0,0,0,0,0,0,0,0,0,0,0,0,0,0,0,0,0,0,0,0,0,0,0,0,0,0,0,0,0,0,0,0,0,0,0,0,0,0,0,0,0,0,0,0,0,0,0,0,0,0,0,0,0,0,0,0,0,0,0,0,0,0,0,0,0,0,0,0,0,0,0,0,0,0,0,0,0,0,0,0,0,0,0,0,0,0,0,0,0,0,0,0,0,0,0,0,0,0,0,0,0,0,0,
0,0,0,0,0,0,0,0,0,0,0,0,0,0,0,0,0,0,0,0,0,0,0,0,0,0,0,0,0,0,0,0,0,0,0,0,0,0,0,0,0,0,0,0,0,0,0,0,0,0,0,0,0,0,0,0,0,0,0,0,0,0,0,0,0,0,0,0,0,0,0,0,0,0,0,0,0,0,0,0,0,0,0,0,0,0,0,0,0,0,0,0,0,0,0,0,0,0,0,0,0,0,0,0,0,0,0,0,0,0,0,0,0,0,0,0,0,0,0,0,0,0,0,0,0,0,0,0,0,0,0,0,0,0,0,0,0,0,0,0,0,0,0,0,0,0,0,0,0,0,0,0,0,0,0,0,0,0,0,0,0,0,0,0,0,0,0,0,0,0,0,0,0,0,0,0,0,0,0,0,0,0,0,0,0,0,0,0,0,0,0,0,0,0,0,0,0,0,0,0,0,0,0,0,0,0,0,0,0,0,0,0,0,0,0,0,0,0,0,0,0,0,0,0,0,0,0,0,0,0,0,0,0,0,0,0,0,0,0,0,
0,0,0,0,0,0,0,0,0,0,0,0,0,0,0,0,0,0,0,0,0,0,0,0,0,0,0,0,0,0,0,0,0,0,0,0,0,0,0,0,0,0,0,0,0,0,0,0,0,0,0,0,0,0,0,0,0,0,0,0,0,0,0,0,0,0,0,0,0,0,0,0,0,0,0,0,0,0,0,0,0,0,0,0,0,0,0,0,0,0,0,0,0,0,0,0,0,0,0,0,0,0,0,0,0,0,0,0,0,0,0,0,0,0,0,0,0,0,0,0,0,0,0,0,0,0,0,0,0,0,0,0,0,0,0,0,0,0,0,0,0,0,0,0,0,0,0,0,0,0,0,0,0,0,0,0,0,0,0,0,0,0,0,0,0,0,0,0,0,0,0,0,0,0,0,0,0,0,0,0,0,0,0,0,0,0,0,0,0,0,0,0,0,0,0,0,0,0,0,0,0,0,0,0,0,0,0,0,0,0,0,0,0,0,0,0,0,0,0,0,0,0,0,0,0,0,0,0,0,0,0,0,0,0,0,0,0,0,0,0,
0,0,0,0,0,0,0,0,0,0,0,0,0,0,0,0,0,0,0,0,0,0,0,0,0,0,0,0,0,0,0,0,0,0,0,0,0,0,0,0,0,0,0,0,0,0,0,0,0,0,0,0,0,0,0,0,0,0,0,0,0,0,0,0,0,0,0,0,0,0,0,0,0,0,0,0,0,0,0,0,0,0,0,0,0,0,0,0,0,0,0,0,0,0,0,0,0,0,0,0,0,0,0,0,0,0,0,0,0,0,0,0,0,0,0,0,0,0,0,0,0,0,0,0,0,0,0,0,0,0,0,0,0,0,0,0,0,0,0,0,0,0,0,0,0,0,0,0,0,0,0,0,0,0,0,0,0,0,0,0,0,0,0,0,0,0,0,0,0,0,0,0,0,0,0,0,0,0,0,0,0,0,0,0,0,0,0,0,0,0,0,0,0,0,0,0,0,0,0,0,0,0,0,0,0,0,0,0,0,0,0,0,0,0,0,0,0,0,0,0,0,0,0,0,0,0,0,0,0,0,0,0,0,0,0,0,0,0,0,0,
0,0,0,0,0,0,0,0,0,0,0,0,0,0,0,0,0,0,0,0,0,0,0,0,0,0,0,0,0,0,0,0,0,0,0,0,0,0,0,0,0,0,0,0,0,0,0,0,0,0,0,0,0,0,0,0,0,0,0,0,0,0,0,0,0,0,0,0,0,0,0,0,0,0,0,0,0,0,0,0,0,0,0,0,0,0,0,0,0,0,0,0,0,0,0,0,0,0,0,0,0,0,0,0,0,0,0,0,0,0,0,0,0,0,0,0,0,0,0,0,0,0,0,0,0,0,0,0,0,0,0,0,0,0,0,0,0,0,0,0,0,0,0,0,0,0,0,0,0,0,0,0,0,0,0,0,0,0,0,0,0,0,0,0,0,0,0,0,0,0,0,0,0,0,0,0,0,0,0,0,0,0,0,0,0,0,0,0,0,0,0,0,0,0,0,0,0,0,0,0,0,0,0,0,0,0,0,0,0,0,0,0,0,0,0,0,0,0,0,0,0,0,0,0,0,0,0,0,0,0,0,0,0,0,0,0,0,0,0,0,
0,0,0,0,0,0,0,0,0,0,0,0,0,0,0,0,0,0,0,0,0,0,0,0,0,0,0,0,0,0,0,0,0,0,0,0,0,0,0,0,0,0,0,0,0,0,0,0,0,0,0,0,0,0,0,0,0,0,0,0,0,0,0,0,0,0,0,0,0,0,0,0,0,0,0,0,0,0,0,0,0,0,0,0,0,0,0,0,0,0,0,0,0,0,0,0,0,0,0,0,0,0,0,0,0,0,0,0,0,0,0,0,0,0,0,0,0,0,0,0,0,0,0,0,0,0,0,0,0,0,0,0,0,0,0,0,0,0,0,0,0,0,0,0,0,0,0,0,0,0,0,0,0,0,0,0,0,0,0,0,0,0,0,0,0,0,0,0,0,0,0,0,0,0,0,0,0,0,0,0,0,0,0,0,0,0,0,0,0,0,0,0,0,0,0,0,0,0,0,0,0,0,0,0,0,0,0,0,0,0,0,0,0,0,0,0,0,0,0,0,0,0,0,0,0,0,0,0,0,0,0,0,0,0,0,0,0,0,0,0,
0,0,0,0,0,0,0,0,0,0,0,0,0,0,0,0,0,0,0,0,0,0,0,0,0,0,0,0,0,0,0,0,0,0,0,0,0,0,0,0,0,0,0,0,0,0,0,0,0,0,0,0,0,0,0,0,0,0,0,0,0,0,0,0,0,0,0,0,0,0,0,0,0,0,0,0,0,0,0,0,0,0,0,0,0,0,0,0,0,0,0,0,0,0,0,0,0,0,0,0,0,0,0,0,0,0,0,0,0,0,0,0,0,0,0,0,0,0,0,0,0,0,0,0,0,0,0,0,0,0,0,0,0,0,0,0,0,0,0,0,0,0,0,0,0,0,0,0,0,0,0,0,0,0,0,0,0,0,0,0,0,0,0,0,0,0,0,0,0,0,0,0,0,0,0,0,0,0,0,0,0,0,0,0,0,0,0,0,0,0,0,0,0,0,0,0,0,0,0,0,0,0,0,0,0,0,0,0,0,0,0,0,0,0,0,0,0,0,0,0,0,0,0,0,0,0,0,0,0,0,0,0,0,0,0,0,0,0,0,0,
0,0,0,0,0,0,0,0,0,0,0,0,0,0,0,0,0,0,0,0,0,0,0,0,0,0,0,0,0,0,0,0,0,0,0,0,0,0,0,0,0,0,0,0,0,0,0,0,0,0,0,0,0,0,0,0,0,0,0,0,0,0,0,0,0,0,0,0,0,0,0,0,0,0,0,0,0,0,0,0,0,0,0,0,0,0,0,0,0,0,0,0,0,0,0,0,0,0,0,0,0,0,0,0,0,0,0,0,0,0,0,0,0,0,0,0,0,0,0,0,0,0,0,0,0,0,0,0,0,0,0,0,0,0,0,0,0,0,0,0,0,0,0,0,0,0,0,0,0,0,0,0,0,0,0,0,0,0,0,0,0,0,0,0,0,0,0,0,0,0,0,0,0,0,0,0,0,0,0,0,0,0,0,0,0,0,0,0,0,0,0,0,0,0,0,0,0,0,0,0,0,0,0,0,0,0,0,0,0,0,0,0,0,0,0,0,0,0,0,0,0,0,0,0,0,0,0,0,0,0,0,0,0,0,0,0,0,0,0,0,
0,0,0,0,0,0,0,0,0,0,0,0,0,0,0,0,0,0,0,0,0,0,0,0,0,0,0,0,0,0,0,0,0,0,0,0,0,0,0,0,0,0,0,0,0,0,0,0,0,0,0,0,0,0,0,0,0,0,0,0,0,0,0,0,0,0,0,0,0,0,0,0,0,0,0,0,0,0,0,0,0,0,0,0,0,0,0,0,0,0,0,0,0,0,0,0,0,0,0,0,0,0,0,0,0,0,0,0,0,0,0,0,0,0,0,0,0,0,0,0,0,0,0,0,0,0,0,0,0,0,0,0,0,0,0,0,0,0,0,0,0,0,0,0,0,0,0,0,0,0,0,0,0,0,0,0,0,0,0,0,0,0,0,0,0,0,0,0,0,0,0,0,0,0,0,0,0,0,0,0,0,0,0,0,0,0,0,0,0,0,0,0,0,0,0,0,0,0,0,0,0,0,0,0,0,0,0,0,0,0,0,0,0,0,0,0,0,0,0,0,0,0,0,0,0,0,0,0,0,0,0,0,0,0,0,0,0,0,0,0,
0,0,0,0,0,0,0,0,0,0,0,0,0,0,0,0,0,0,0,0,0,0,0,0,0,0,0,0,0,0,0,0,0,0,0,0,0,0,0,0,0,0,0,0,0,0,0,0,0,0,0,0,0,0,0,0,0,0,0,0,0,0,0,0,0,0,0,0,0,0,0,0,0,0,0,0,0,0,0,0,0,0,0,0,0,0,0,0,0,0,0,0,0,0,0,0,0,0,0,0,0,0,0,0,0,0,0,0,0,0,0,0,0,0,0,0,0,0,0,0,0,0,0,0,0,0,0,0,0,0,0,0,0,0,0,0,0,0,0,0,0,0,0,0,0,0,0,0,0,0,0,0,0,0,0,0,0,0,0,0,0,0,0,0,0,0,0,0,0,0,0,0,0,0,0,0,0,0,0,0,0,0,0,0,0,0,0,0,0,0,0,0,0,0,0,0,0,0,0,0,0,0,0,0,0,0,0,0,0,0,0,0,0,0,0,0,0,0,0,0,0,0,0,0,0,0,0,0,0,0,0,0,0,0,0,0,0,0,0,0,
0,0,0,0,0,0,0,0,0,0,0,0,0,0,0,0,0,0,0,0,0,0,0,0,0,0,0,0,0,0,0,0,0,0,0,0,0,0,0,0,0,0,0,0,0,0,0,0,0,0,0,0,0,0,0,0,0,0,0,0,0,0,0,0,0,0,0,0,0,0,0,0,0,0,0,0,0,0,0,0,0,0,0,0,0,0,0,0,0,0,0,0,0,0,0,0,0,0,0,0,0,0,0,0,0,0,0,0,0,0,0,0,0,0,0,0,0,0,0,0,0,0,0,0,0,0,0,0,0,0,0,0,0,0,0,0,0,0,0,0,0,0,0,0,0,0,0,0,0,0,0,0,0,0,0,0,0,0,0,0,0,0,0,0,0,0,0,0,0,0,0,0,0,0,0,0,0,0,0,0,0,0,0,0,0,0,0,0,0,0,0,0,0,0,0,0,0,0,0,0,0,0,0,0,0,0,0,0,0,0,0,0,0,0,0,0,0,0,0,0,0,0,0,0,0,0,0,0,0,0,0,0,0,0,0,0,0,0,0,0,
0,0,0,0,0,0,0,0,0,0,0,0,0,0,0,0,0,0,0,0,0,0,0,0,0,0,0,0,0,0,0,0,0,0,0,0,0,0,0,0,0,0,0,0,0,0,0,0,0,0,0,0,0,0,0,0,0,0,0,0,0,0,0,0,0,0,0,0,0,0,0,0,0,0,0,0,0,0,0,0,0,0,0,0,0,0,0,0,0,0,0,0,0,0,0,0,0,0,0,0,0,0,0,0,0,0,0,0,0,0,0,0,0,0,0,0,0,0,0,0,0,0,0,0,0,0,0,0,0,0,0,0,0,0,0,0,0,0,0,0,0,0,0,0,0,0,0,0,0,0,0,0,0,0,0,0,0,0,0,0,0,0,0,0,0,0,0,0,0,0,0,0,0,0,0,0,0,0,0,0,0,0,0,0,0,0,0,0,0,0,0,0,0,0,0,0,0,0,0,0,0,0,0,0,0,0,0,0,0,0,0,0,0,0,0,0,0,0,0,0,0,0,0,0,0,0,0,0,0,0,0,0,0,0,0,0,0,0,0,0,
0,0,0,0,0,0,0,0,0,0,0,0,0,0,0,0,0,0,0,0,0,0,0,0,0,0,0,0,0,0,0,0,0,0,0,0,0,0,0,0,0,0,0,0,0,0,0,0,0,0,0,0,0,0,0,0,0,0,0,0,0,0,0,0,0,0,0,0,0,0,0,0,0,0,0,0,0,0,0,0,0,0,0,0,0,0,0,0,0,0,0,0,0,0,0,0,0,0,0,0,0,0,0,0,0,0,0,0,0,0,0,0,0,0,0,0,0,0,0,0,0,0,0,0,0,0,0,0,0,0,0,0,0,0,0,0,0,0,0,0,0,0,0,0,0,0,0,0,0,0,0,0,0,0,0,0,0,0,0,0,0,0,0,0,0,0,0,0,0,0,0,0,0,0,0,0,0,0,0,0,0,0,0,0,0,0,0,0,0,0,0,0,0,0,0,0,0,0,0,0,0,0,0,0,0,0,0,0,0,0,0,0,0,0,0,0,0,0,0,0,0,0,0,0,0,0,0,0,0,0,0,0,0,0,0,0,0,0,0,0,
0,0,0,0,0,0,0,0,0,0,0,0,0,0,0,0,0,0,0,0,0,0,0,0,0,0,0,0,0,0,0,0,0,0,0,0,0,0,0,0,0,0,0,0,0,0,0,0,0,0,0,0,0,0,0,0,0,0,0,0,0,0,0,0,0,0,0,0,0,0,0,0,0,0,0,0,0,0,0,0,0,0,0,0,0,0,0,0,0,0,0,0,0,0,0,0,0,0,0,0,0,0,0,0,0,0,0,0,0,0,0,0,0,0,0,0,0,0,0,0,0,0,0,0,0,0,0,0,0,0,0,0,0,0,0,0,0,0,0,0,0,0,0,0,0,0,0,0,0,0,0,0,0,0,0,0,0,0,0,0,0,0,0,0,0,0,0,0,0,0,0,0,0,0,0,0,0,0,0,0,0,0,0,0,0,0,0,0,0,0,0,0,0,0,0,0,0,0,0,0,0,0,0,0,0,0,0,0,0,0,0,0,0,0,0,0,0,0,0,0,0,0,0,0,0,0,0,0,0,0,0,0,0,0,0,0,0,0,0,0,
0,0,0,0,0,0,0,0,0,0,0,0,0,0,0,0,0,0,0,0,0,0,0,0,0,0,0,0,0,0,0,0,0,0,0,0,0,0,0,0,0,0,0,0,0,0,0,0,0,0,0,0,0,0,0,0,0,0,0,0,0,0,0,0,0,0,0,0,0,0,0,0,0,0,0,0,0,0,0,0,0,0,0,0,0,0,0,0,0,0,0,0,0,0,0,0,0,0,0,0,0,0,0,0,0,0,0,0,0,0,0,0,0,0,0,0,0,0,0,0,0,0,0,0,0,0,0,0,0,0,0,0,0,0,0,0,0,0,0,0,0,0,0,0,0,0,0,0,0,0,0,0,0,0,0,0,0,0,0,0,0,0,0,0,0,0,0,0,0,0,0,0,0,0,0,0,0,0,0,0,0,0,0,0,0,0,0,0,0,0,0,0,0,0,0,0,0,0,0,0,0,0,0,0,0,0,0,0,0,0,0,0,0,0,0,0,0,0,0,0,0,0,0,0,0,0,0,0,0,0,0,0,0,0,0,0,0,0,0,0,
0,0,0,0,0,0,0,0,0,0,0,0,0,0,0,0,0,0,0,0,0,0,0,0,0,0,0,0,0,0,0,0,0,0,0,0,0,0,0,0,0,0,0,0,0,0,0,0,0,0,0,0,0,0,0,0,0,0,0,0,0,0,0,0,0,0,0,0,0,0,0,0,0,0,0,0,0,0,0,0,0,0,0,0,0,0,0,0,0,0,0,0,0,0,0,0,0,0,0,0,0,0,0,0,0,0,0,0,0,0,0,0,0,0,0,0,0,0,0,0,0,0,0,0,0,0,0,0,0,0,0,0,0,0,0,0,0,0,0,0,0,0,0,0,0,0,0,0,0,0,0,0,0,0,0,0,0,0,0,0,0,0,0,0,0,0,0,0,0,0,0,0,0,0,0,0,0,0,0,0,0,0,0,0,0,0,0,0,0,0,0,0,0,0,0,0,0,0,0,0,0,0,0,0,0,0,0,0,0,0,0,0,0,0,0,0,0,0,0,0,0,0,0,0,0,0,0,0,0,0,0,0,0,0,0,0,0,0,0,0,
0,0,0,0,0,0,0,0,0,0,0,0,0,0,0,0,0,0,0,0,0,0,0,0,0,0,0,0,0,0,0,0,0,0,0,0,0,0,0,0,0,0,0,0,0,0,0,0,0,0,0,0,0,0,0,0,0,0,0,0,0,0,0,0,0,0,0,0,0,0,0,0,0,0,0,0,0,0,0,0,0,0,0,0,0,0,0,0,0,0,0,0,0,0,0,0,0,0,0,0,0,0,0,0,0,0,0,0,0,0,0,0,0,0,0,0,0,0,0,0,0,0,0,0,0,0,0,0,0,0,0,0,0,0,0,0,0,0,0,0,0,0,0,0,0,0,0,0,0,0,0,0,0,0,0,0,0,0,0,0,0,0,0,0,0,0,0,0,0,0,0,0,0,0,0,0,0,0,0,0,0,0,0,0,0,0,0,0,0,0,0,0,0,0,0,0,0,0,0,0,0,0,0,0,0,0,0,0,0,0,0,0,0,0,0,0,0,0,0,0,0,0,0,0,0,0,0,0,0,0,0,0,0,0,0,0,0,0,0,0,
0,0,0,0,0,0,0,0,0,0,0,0,0,0,0,0,0,0,0,0,0,0,0,0,0,0,0,0,0,0,0,0,0,0,0,0,0,0,0,0,0,0,0,0,0,0,0,0,0,0,0,0,0,0,0,0,0,0,0,0,0,0,0,0,0,0,0,0,0,0,0,0,0,0,0,0,0,0,0,0,0,0,0,0,0,0,0,0,0,0,0,0,0,0,0,0,0,0,0,0,0,0,0,0,0,0,0,0,0,0,0,0,0,0,0,0,0,0,0,0,0,0,0,0,0,0,0,0,0,0,0,0,0,0,0,0,0,0,0,0,0,0,0,0,0,0,0,0,0,0,0,0,0,0,0,0,0,0,0,0,0,0,0,0,0,0,0,0,0,0,0,0,0,0,0,0,0,0,0,0,0,0,0,0,0,0,0,0,0,0,0,0,0,0,0,0,0,0,0,0,0,0,0,0,0,0,0,0,0,0,0,0,0,0,0,0,0,0,0,0,0,0,0,0,0,0,0,0,0,0,0,0,0,0,0,0,0,0,0,0,
0,0,0,0,0,0,0,0,0,0,0,0,0,0,0,0,0,0,0,0,0,0,0,0,0,0,0,0,0,0,0,0,0,0,0,0,0,0,0,0,0,0,0,0,0,0,0,0,0,0,0,0,0,0,0,0,0,0,0,0,0,0,0,0,0,0,0,0,0,0,0,0,0,0,0,0,0,0,0,0,0,0,0,0,0,0,0,0,0,0,0,0,0,0,0,0,0,0,0,0,0,0,0,0,0,0,0,0,0,0,0,0,0,0,0,0,0,0,0,0,0,0,0,0,0,0,0,0,0,0,0,0,0,0,0,0,0,0,0,0,0,0,0,0,0,0,0,0,0,0,0,0,0,0,0,0,0,0,0,0,0,0,0,0,0,0,0,0,0,0,0,0,0,0,0,0,0,0,0,0,0,0,0,0,0,0,0,0,0,0,0,0,0,0,0,0,0,0,0,0,0,0,0,0,0,0,0,0,0,0,0,0,0,0,0,0,0,0,0,0,0,0,0,0,0,0,0,0,0,0,0,0,0,0,0,0,0,0,0,0,
0,0,0,0,0,0,0,0,0,0,0,0,0,0,0,0,0,0,0,0,0,0,0,0,0,0,0,0,0,0,0,0,0,0,0,0,0,0,0,0,0,0,0,0,0,0,0,0,0,0,0,0,0,0,0,0,0,0,0,0,0,0,0,0,0,0,0,0,0,0,0,0,0,0,0,0,0,0,0,0,0,0,0,0,0,0,0,0,0,0,0,0,0,0,0,0,0,0,0,0,0,0,0,0,0,0,0,0,0,0,0,0,0,0,0,0,0,0,0,0,0,0,0,0,0,0,0,0,0,0,0,0,0,0,0,0,0,0,0,0,0,0,0,0,0,0,0,0,0,0,0,0,0,0,0,0,0,0,0,0,0,0,0,0,0,0,0,0,0,0,0,0,0,0,0,0,0,0,0,0,0,0,0,0,0,0,0,0,0,0,0,0,0,0,0,0,0,0,0,0,0,0,0,0,0,0,0,0,0,0,0,0,0,0,0,0,0,0,0,0,0,0,0,0,0,0,0,0,0,0,0,0,0,0,0,0,0,0,0,0,
0,0,0,0,0,0,0,0,0,0,0,0,0,0,0,0,0,0,0,0,0,0,0,0,0,0,0,0,0,0,0,0,0,0,0,0,0,0,0,0,0,0,0,0,0,0,0,0,0,0,0,0,0,0,0,0,0,0,0,0,0,0,0,0,0,0,0,0,0,0,0,0,0,0,0,0,0,0,0,0,0,0,0,0,0,0,0,0,0,0,0,0,0,0,0,0,0,0,0,0,0,0,0,0,0,0,0,0,0,0,0,0,0,0,0,0,0,0,0,0,0,0,0,0,0,0,0,0,0,0,0,0,0,0,0,0,0,0,0,0,0,0,0,0,0,0,0,0,0,0,0,0,0,0,0,0,0,0,0,0,0,0,0,0,0,0,0,0,0,0,0,0,0,0,0,0,0,0,0,0,0,0,0,0,0,0,0,0,0,0,0,0,0,0,0,0,0,0,0,0,0,0,0,0,0,0,0,0,0,0,0,0,0,0,0,0,0,0,0,0,0,0,0,0,0,0,0,0,0,0,0,0,0,0,0,0,0,0,0,0,
0,0,0,0,0,0,0,0,0,0,0,0,0,0,0,0,0,0,0,0,0,0,0,0,0,0,0,0,0,0,0,0,0,0,0,0,0,0,0,0,0,0,0,0,0,0,0,0,0,0,0,0,0,0,0,0,0,0,0,0,0,0,0,0,0,0,0,0,0,0,0,0,0,0,0,0,0,0,0,0,0,0,0,0,0,0,0,0,0,0,0,0,0,0,0,0,0,0,0,0,0,0,0,0,0,0,0,0,0,0,0,0,0,0,0,0,0,0,0,0,0,0,0,0,0,0,0,0,0,0,0,0,0,0,0,0,0,0,0,0,0,0,0,0,0,0,0,0,0,0,0,0,0,0,0,0,0,0,0,0,0,0,0,0,0,0,0,0,0,0,0,0,0,0,0,0,0,0,0,0,0,0,0,0,0,0,0,0,0,0,0,0,0,0,0,0,0,0,0,0,0,0,0,0,0,0,0,0,0,0,0,0,0,0,0,0,0,0,0,0,0,0,0,0,0,0,0,0,0,0,0,0,0,0,0,0,0,0,0,0,
0,0,0,0,0,0,0,0,0,0,0,0,0,0,0,0,0,0,0,0,0,0,0,0,0,0,0,0,0,0,0,0,0,0,0,0,0,0,0,0,0,0,0,0,0,0,0,0,0,0,0,0,0,0,0,0,0,0,0,0,0,0,0,0,0,0,0,0,0,0,0,0,0,0,0,0,0,0,0,0,0,0,0,0,0,0,0,0,0,0,0,0,0,0,0,0,0,0,0,0,0,0,0,0,0,0,0,0,0,0,0,0,0,0,0,0,0,0,0,0,0,0,0,0,0,0,0,0,0,0,0,0,0,0,0,0,0,0,0,0,0,0,0,0,0,0,0,0,0,0,0,0,0,0,0,0,0,0,0,0,0,0,0,0,0,0,0,0,0,0,0,0,0,0,0,0,0,0,0,0,0,0,0,0,0,0,0,0,0,0,0,0,0,0,0,0,0,0,0,0,0,0,0,0,0,0,0,0,0,0,0,0,0,0,0,0,0,0,0,0,0,0,0,0,0,0,0,0,0,0,0,0,0,0,0,0,0,0,0,0,
0,0,0,0,0,0,0,0,0,0,0,0,0,0,0,0,0,0,0,0,0,0,0,0,0,0,0,0,0,0,0,0,0,0,0,0,0,0,0,0,0,0,0,0,0,0,0,0,0,0,0,0,0,0,0,0,0,0,0,0,0,0,0,0,0,0,0,0,0,0,0,0,0,0,0,0,0,0,0,0,0,0,0,0,0,0,0,0,0,0,0,0,0,0,0,0,0,0,0,0,0,0,0,0,0,0,0,0,0,0,0,0,0,0,0,0,0,0,0,0,0,0,0,0,0,0,0,0,0,0,0,0,0,0,0,0,0,0,0,0,0,0,0,0,0,0,0,0,0,0,0,0,0,0,0,0,0,0,0,0,0,0,0,0,0,0,0,0,0,0,0,0,0,0,0,0,0,0,0,0,0,0,0,0,0,0,0,0,0,0,0,0,0,0,0,0,0,0,0,0,0,0,0,0,0,0,0,0,0,0,0,0,0,0,0,0,0,0,0,0,0,0,0,0,0,0,0,0,0,0,0,0,0,0,0,0,0,0,0,0,
0,0,0,0,0,0,0,0,0,0,0,0,0,0,0,0,0,0,0,0,0,0,0,0,0,0,0,0,0,0,0,0,0,0,0,0,0,0,0,0,0,0,0,0,0,0,0,0,0,0,0,0,0,0,0,0,0,0,0,0,0,0,0,0,0,0,0,0,0,0,0,0,0,0,0,0,0,0,0,0,0,0,0,0,0,0,0,0,0,0,0,0,0,0,0,0,0,0,0,0,0,0,0,0,0,0,0,0,0,0,0,0,0,0,0,0,0,0,0,0,0,0,0,0,0,0,0,0,0,0,0,0,0,0,0,0,0,0,0,0,0,0,0,0,0,0,0,0,0,0,0,0,0,0,0,0,0,0,0,0,0,0,0,0,0,0,0,0,0,0,0,0,0,0,0,0,0,0,0,0,0,0,0,0,0,0,0,0,0,0,0,0,0,0,0,0,0,0,0,0,0,0,0,0,0,0,0,0,0,0,0,0,0,0,0,0,0,0,0,0,0,0,0,0,0,0,0,0,0,0,0,0,0,0,0,0,0,0,0,0,
0,0,0,0,0,0,0,0,0,0,0,0,0,0,0,0,0,0,0,0,0,0,0,0,0,0,0,0,0,0,0,0,0,0,0,0,0,0,0,0,0,0,0,0,0,0,0,0,0,0,0,0,0,0,0,0,0,0,0,0,0,0,0,0,0,0,0,0,0,0,0,0,0,0,0,0,0,0,0,0,0,0,0,0,0,0,0,0,0,0,0,0,0,0,0,0,0,0,0,0,0,0,0,0,0,0,0,0,0,0,0,0,0,0,0,0,0,0,0,0,0,0,0,0,0,0,0,0,0,0,0,0,0,0,0,0,0,0,0,0,0,0,0,0,0,0,0,0,0,0,0,0,0,0,0,0,0,0,0,0,0,0,0,0,0,0,0,0,0,0,0,0,0,0,0,0,0,0,0,0,0,0,0,0,0,0,0,0,0,0,0,0,0,0,0,0,0,0,0,0,0,0,0,0,0,0,0,0,0,0,0,0,0,0,0,0,0,0,0,0,0,0,0,0,0,0,0,0,0,0,0,0,0,0,0,0,0,0,0,0,
0,0,0,0,0,0,0,0,0,0,0,0,0,0,0,0,0,0,0,0,0,0,0,0,0,0,0,0,0,0,0,0,0,0,0,0,0,0,0,0,0,0,0,0,0,0,0,0,0,0,0,0,0,0,0,0,0,0,0,0,0,0,0,0,0,0,0,0,0,0,0,0,0,0,0,0,0,0,0,0,0,0,0,0,0,0,0,0,0,0,0,0,0,0,0,0,0,0,0,0,0,0,0,0,0,0,0,0,0,0,0,0,0,0,0,0,0,0,0,0,0,0,0,0,0,0,0,0,0,0,0,0,0,0,0,0,0,0,0,0,0,0,0,0,0,0,0,0,0,0,0,0,0,0,0,0,0,0,0,0,0,0,0,0,0,0,0,0,0,0,0,0,0,0,0,0,0,0,0,0,0,0,0,0,0,0,0,0,0,0,0,0,0,0,0,0,0,0,0,0,0,0,0,0,0,0,0,0,0,0,0,0,0,0,0,0,0,0,0,0,0,0,0,0,0,0,0,0,0,0,0,0,0,0,0,0,0,0,0,0,
0,0,0,0,0,0,0,0,0,0,0,0,0,0,0,0,0,0,0,0,0,0,0,0,0,0,0,0,0,0,0,0,0,0,0,0,0,0,0,0,0,0,0,0,0,0,0,0,0,0,0,0,0,0,0,0,0,0,0,0,0,0,0,0,0,0,0,0,0,0,0,0,0,0,0,0,0,0,0,0,0,0,0,0,0,0,0,0,0,0,0,0,0,0,0,0,0,0,0,0,0,0,0,0,0,0,0,0,0,0,0,0,0,0,0,0,0,0,0,0,0,0,0,0,0,0,0,0,0,0,0,0,0,0,0,0,0,0,0,0,0,0,0,0,0,0,0,0,0,0,0,0,0,0,0,0,0,0,0,0,0,0,0,0,0,0,0,0,0,0,0,0,0,0,0,0,0,0,0,0,0,0,0,0,0,0,0,0,0,0,0,0,0,0,0,0,0,0,0,0,0,0,0,0,0,0,0,0,0,0,0,0,0,0,0,0,0,0,0,0,0,0,0,0,0,0,0,0,0,0,0,0,0,0,0,0,0,0,0,0,
0,0,0,0,0,0,0,0,0,0,0,0,0,0,0,0,0,0,0,0,0,0,0,0,0,0,0,0,0,0,0,0,0,0,0,0,0,0,0,0,0,0,0,0,0,0,0,0,0,0,0,0,0,0,0,0,0,0,0,0,0,0,0,0,0,0,0,0,0,0,0,0,0,0,0,0,0,0,0,0,0,0,0,0,0,0,0,0,0,0,0,0,0,0,0,0,0,0,0,0,0,0,0,0,0,0,0,0,0,0,0,0,0,0,0,0,0,0,0,0,0,0,0,0,0,0,0,0,0,0,0,0,0,0,0,0,0,0,0,0,0,0,0,0,0,0,0,0,0,0,0,0,0,0,0,0,0,0,0,0,0,0,0,0,0,0,0,0,0,0,0,0,0,0,0,0,0,0,0,0,0,0,0,0,0,0,0,0,0,0,0,0,0,0,0,0,0,0,0,0,0,0,0,0,0,0,0,0,0,0,0,0,0,0,0,0,0,0,0,0,0,0,0,0,0,0,0,0,0,0,0,0,0,0,0,0,0,0,0,0,
0,0,0,0,0,0,0,0,0,0,0,0,0,0,0,0,0,0,0,0,0,0,0,0,0,0,0,0,0,0,0,0,0,0,0,0,0,0,0,0,0,0,0,0,0,0,0,0,0,0,0,0,0,0,0,0,0,0,0,0,0,0,0,0,0,0,0,0,0,0,0,0,0,0,0,0,0,0,0,0,0,0,0,0,0,0,0,0,0,0,0,0,0,0,0,0,0,0,0,0,0,0,0,0,0,0,0,0,0,0,0,0,0,0,0,0,0,0,0,0,0,0,0,0,0,0,0,0,0,0,0,0,0,0,0,0,0,0,0,0,0,0,0,0,0,0,0,0,0,0,0,0,0,0,0,0,0,0,0,0,0,0,0,0,0,0,0,0,0,0,0,0,0,0,0,0,0,0,0,0,0,0,0,0,0,0,0,0,0,0,0,0,0,0,0,0,0,0,0,0,0,0,0,0,0,0,0,0,0,0,0,0,0,0,0,0,0,0,0,0,0,0,0,0,0,0,0,0,0,0,0,0,0,0,0,0,0,0,0,0,
0,0,0,0,0,0,0,0,0,0,0,0,0,0,0,0,0,0,0,0,0,0,0,0,0,0,0,0,0,0,0,0,0,0,0,0,0,0,0,0,0,0,0,0,0,0,0,0,0,0,0,0,0,0,0,0,0,0,0,0,0,0,0,0,0,0,0,0,0,0,0,0,0,0,0,0,0,0,0,0,0,0,0,0,0,0,0,0,0,0,0,0,0,0,0,0,0,0,0,0,0,0,0,0,0,0,0,0,0,0,0,0,0,0,0,0,0,0,0,0,0,0,0,0,0,0,0,0,0,0,0,0,0,0,0,0,0,0,0,0,0,0,0,0,0,0,0,0,0,0,0,0,0,0,0,0,0,0,0,0,0,0,0,0,0,0,0,0,0,0,0,0,0,0,0,0,0,0,0,0,0,0,0,0,0,0,0,0,0,0,0,0,0,0,0,0,0,0,0,0,0,0,0,0,0,0,0,0,0,0,0,0,0,0,0,0,0,0,0,0,0,0,0,0,0,0,0,0,0,0,0,0,0,0,0,0,0,0,0,0,
0,0,0,0,0,0,0,0,0,0,0,0,0,0,0,0,0,0,0,0,0,0,0,0,0,0,0,0,0,0,0,0,0,0,0,0,0,0,0,0,0,0,0,0,0,0,0,0,0,0,0,0,0,0,0,0,0,0,0,0,0,0,0,0,0,0,0,0,0,0,0,0,0,0,0,0,0,0,0,0,0,0,0,0,0,0,0,0,0,0,0,0,0,0,0,0,0,0,0,0,0,0,0,0,0,0,0,0,0,0,0,0,0,0,0,0,0,0,0,0,0,0,0,0,0,0,0,0,0,0,0,0,0,0,0,0,0,0,0,0,0,0,0,0,0,0,0,0,0,0,0,0,0,0,0,0,0,0,0,0,0,0,0,0,0,0,0,0,0,0,0,0,0,0,0,0,0,0,0,0,0,0,0,0,0,0,0,0,0,0,0,0,0,0,0,0,0,0,0,0,0,0,0,0,0,0,0,0,0,0,0,0,0,0,0,0,0,0,0,0,0,0,0,0,0,0,0,0,0,0,0,0,0,0,0,0,0,0,0,0,
0,0,0,0,0,0,0,0,0,0,0,0,0,0,0,0,0,0,0,0,0,0,0,0,0,0,0,0,0,0,0,0,0,0,0,0,0,0,0,0,0,0,0,0,0,0,0,0,0,0,0,0,0,0,0,0,0,0,0,0,0,0,0,0,0,0,0,0,0,0,0,0,0,0,0,0,0,0,0,0,0,0,0,0,0,0,0,0,0,0,0,0,0,0,0,0,0,0,0,0,0,0,0,0,0,0,0,0,0,0,0,0,0,0,0,0,0,0,0,0,0,0,0,0,0,0,0,0,0,0,0,0,0,0,0,0,0,0,0,0,0,0,0,0,0,0,0,0,0,0,0,0,0,0,0,0,0,0,0,0,0,0,0,0,0,0,0,0,0,0,0,0,0,0,0,0,0,0,0,0,0,0,0,0,0,0,0,0,0,0,0,0,0,0,0,0,0,0,0,0,0,0,0,0,0,0,0,0,0,0,0,0,0,0,0,0,0,0,0,0,0,0,0,0,0,0,0,0,0,0,0,0,0,0,0,0,0,0,0,0,
0,0,0,0,0,0,0,0,0,0,0,0,0,0,0,0,0,0,0,0,0,0,0,0,0,0,0,0,0,0,0,0,0,0,0,0,0,0,0,0,0,0,0,0,0,0,0,0,0,0,0,0,0,0,0,0,0,0,0,0,0,0,0,0,0,0,0,0,0,0,0,0,0,0,0,0,0,0,0,0,0,0,0,0,0,0,0,0,0,0,0,0,0,0,0,0,0,0,0,0,0,0,0,0,0,0,0,0,0,0,0,0,0,0,0,0,0,0,0,0,0,0,0,0,0,0,0,0,0,0,0,0,0,0,0,0,0,0,0,0,0,0,0,0,0,0,0,0,0,0,0,0,0,0,0,0,0,0,0,0,0,0,0,0,0,0,0,0,0,0,0,0,0,0,0,0,0,0,0,0,0,0,0,0,0,0,0,0,0,0,0,0,0,0,0,0,0,0,0,0,0,0,0,0,0,0,0,0,0,0,0,0,0,0,0,0,0,0,0,0,0,0,0,0,0,0,0,0,0,0,0,0,0,0,0,0,0,0,0,0,
0,0,0,0,0,0,0,0,0,0,0,0,0,0,0,0,0,0,0,0,0,0,0,0,0,0,0,0,0,0,0,0,0,0,0,0,0,0,0,0,0,0,0,0,0,0,0,0,0,0,0,0,0,0,0,0,0,0,0,0,0,0,0,0,0,0,0,0,0,0,0,0,0,0,0,0,0,0,0,0,0,0,0,0,0,0,0,0,0,0,0,0,0,0,0,0,0,0,0,0,0,0,0,0,0,0,0,0,0,0,0,0,0,0,0,0,0,0,0,0,0,0,0,0,0,0,0,0,0,0,0,0,0,0,0,0,0,0,0,0,0,0,0,0,0,0,0,0,0,0,0,0,0,0,0,0,0,0,0,0,0,0,0,0,0,0,0,0,0,0,0,0,0,0,0,0,0,0,0,0,0,0,0,0,0,0,0,0,0,0,0,0,0,0,0,0,0,0,0,0,0,0,0,0,0,0,0,0,0,0,0,0,0,0,0,0,0,0,0,0,0,0,0,0,0,0,0,0,0,0,0,0,0,0,0,0,0,0,0,0,
0,0,0,0,0,0,0,0,0,0,0,0,0,0,0,0,0,0,0,0,0,0,0,0,0,0,0,0,0,0,0,0,0,0,0,0,0,0,0,0,0,0,0,0,0,0,0,0,0,0,0,0,0,0,0,0,0,0,0,0,0,0,0,0,0,0,0,0,0,0,0,0,0,0,0,0,0,0,0,0,0,0,0,0,0,0,0,0,0,0,0,0,0,0,0,0,0,0,0,0,0,0,0,0,0,0,0,0,0,0,0,0,0,0,0,0,0,0,0,0,0,0,0,0,0,0,0,0,0,0,0,0,0,0,0,0,0,0,0,0,0,0,0,0,0,0,0,0,0,0,0,0,0,0,0,0,0,0,0,0,0,0,0,0,0,0,0,0,0,0,0,0,0,0,0,0,0,0,0,0,0,0,0,0,0,0,0,0,0,0,0,0,0,0,0,0,0,0,0,0,0,0,0,0,0,0,0,0,0,0,0,0,0,0,0,0,0,0,0,0,0,0,0,0,0,0,0,0,0,0,0,0,0,0,0,0,0,0,0,0,
0,0,0,0,0,0,0,0,0,0,0,0,0,0,0,0,0,0,0,0,0,0,0,0,0,0,0,0,0,0,0,0,0,0,0,0,0,0,0,0,0,0,0,0,0,0,0,0,0,0,0,0,0,0,0,0,0,0,0,0,0,0,0,0,0,0,0,0,0,0,0,0,0,0,0,0,0,0,0,0,0,0,0,0,0,0,0,0,0,0,0,0,0,0,0,0,0,0,0,0,0,0,0,0,0,0,0,0,0,0,0,0,0,0,0,0,0,0,0,0,0,0,0,0,0,0,0,0,0,0,0,0,0,0,0,0,0,0,0,0,0,0,0,0,0,0,0,0,0,0,0,0,0,0,0,0,0,0,0,0,0,0,0,0,0,0,0,0,0,0,0,0,0,0,0,0,0,0,0,0,0,0,0,0,0,0,0,0,0,0,0,0,0,0,0,0,0,0,0,0,0,0,0,0,0,0,0,0,0,0,0,0,0,0,0,0,0,0,0,0,0,0,0,0,0,0,0,0,0,0,0,0,0,0,0,0,0,0,0,0,
0,0,0,0,0,0,0,0,0,0,0,0,0,0,0,0,0,0,0,0,0,0,0,0,0,0,0,0,0,0,0,0,0,0,0,0,0,0,0,0,0,0,0,0,0,0,0,0,0,0,0,0,0,0,0,0,0,0,0,0,0,0,0,0,0,0,0,0,0,0,0,0,0,0,0,0,0,0,0,0,0,0,0,0,0,0,0,0,0,0,0,0,0,0,0,0,0,0,0,0,0,0,0,0,0,0,0,0,0,0,0,0,0,0,0,0,0,0,0,0,0,0,0,0,0,0,0,0,0,0,0,0,0,0,0,0,0,0,0,0,0,0,0,0,0,0,0,0,0,0,0,0,0,0,0,0,0,0,0,0,0,0,0,0,0,0,0,0,0,0,0,0,0,0,0,0,0,0,0,0,0,0,0,0,0,0,0,0,0,0,0,0,0,0,0,0,0,0,0,0,0,0,0,0,0,0,0,0,0,0,0,0,0,0,0,0,0,0,0,0,0,0,0,0,0,0,0,0,0,0,0,0,0,0,0,0,0,0,0,0,
0,0,0,0,0,0,0,0,0,0,0,0,0,0,0,0,0,0,0,0,0,0,0,0,0,0,0,0,0,0,0,0,0,0,0,0,0,0,0,0,0,0,0,0,0,0,0,0,0,0,0,0,0,0,0,0,0,0,0,0,0,0,0,0,0,0,0,0,0,0,0,0,0,0,0,0,0,0,0,0,0,0,0,0,0,0,0,0,0,0,0,0,0,0,0,0,0,0,0,0,0,0,0,0,0,0,0,0,0,0,0,0,0,0,0,0,0,0,0,0,0,0,0,0,0,0,0,0,0,0,0,0,0,0,0,0,0,0,0,0,0,0,0,0,0,0,0,0,0,0,0,0,0,0,0,0,0,0,0,0,0,0,0,0,0,0,0,0,0,0,0,0,0,0,0,0,0,0,0,0,0,0,0,0,0,0,0,0,0,0,0,0,0,0,0,0,0,0,0,0,0,0,0,0,0,0,0,0,0,0,0,0,0,0,0,0,0,0,0,0,0,0,0,0,0,0,0,0,0,0,0,0,0,0,0,0,0,0,0,0,
0,0,0,0,0,0,0,0,0,0,0,0,0,0,0,0,0,0,0,0,0,0,0,0,0,0,0,0,0,0,0,0,0,0,0,0,0,0,0,0,0,0,0,0,0,0,0,0,0,0,0,0,0,0,0,0,0,0,0,0,0,0,0,0,0,0,0,0,0,0,0,0,0,0,0,0,0,0,0,0,0,0,0,0,0,0,0,0,0,0,0,0,0,0,0,0,0,0,0,0,0,0,0,0,0,0,0,0,0,0,0,0,0,0,0,0,0,0,0,0,0,0,0,0,0,0,0,0,0,0,0,0,0,0,0,0,0,0,0,0,0,0,0,0,0,0,0,0,0,0,0,0,0,0,0,0,0,0,0,0,0,0,0,0,0,0,0,0,0,0,0,0,0,0,0,0,0,0,0,0,0,0,0,0,0,0,0,0,0,0,0,0,0,0,0,0,0,0,0,0,0,0,0,0,0,0,0,0,0,0,0,0,0,0,0,0,0,0,0,0,0,0,0,0,0,0,0,0,0,0,0,0,0,0,0,0,0,0,0,0,
0,0,0,0,0,0,0,0,0,0,0,0,0,0,0,0,0,0,0,0,0,0,0,0,0,0,0,0,0,0,0,0,0,0,0,0,0,0,0,0,0,0,0,0,0,0,0,0,0,0,0,0,0,0,0,0,0,0,0,0,0,0,0,0,0,0,0,0,0,0,0,0,0,0,0,0,0,0,0,0,0,0,0,0,0,0,0,0,0,0,0,0,0,0,0,0,0,0,0,0,0,0,0,0,0,0,0,0,0,0,0,0,0,0,0,0,0,0,0,0,0,0,0,0,0,0,0,0,0,0,0,0,0,0,0,0,0,0,0,0,0,0,0,0,0,0,0,0,0,0,0,0,0,0,0,0,0,0,0,0,0,0,0,0,0,0,0,0,0,0,0,0,0,0,0,0,0,0,0,0,0,0,0,0,0,0,0,0,0,0,0,0,0,0,0,0,0,0,0,0,0,0,0,0,0,0,0,0,0,0,0,0,0,0,0,0,0,0,0,0,0,0,0,0,0,0,0,0,0,0,0,0,0,0,0,0,0,0,0,0,
0,0,0,0,0,0,0,0,0,0,0,0,0,0,0,0,0,0,0,0,0,0,0,0,0,0,0,0,0,0,0,0,0,0,0,0,0,0,0,0,0,0,0,0,0,0,0,0,0,0,0,0,0,0,0,0,0,0,0,0,0,0,0,0,0,0,0,0,0,0,0,0,0,0,0,0,0,0,0,0,0,0,0,0,0,0,0,0,0,0,0,0,0,0,0,0,0,0,0,0,0,0,0,0,0,0,0,0,0,0,0,0,0,0,0,0,0,0,0,0,0,0,0,0,0,0,0,0,0,0,0,0,0,0,0,0,0,0,0,0,0,0,0,0,0,0,0,0,0,0,0,0,0,0,0,0,0,0,0,0,0,0,0,0,0,0,0,0,0,0,0,0,0,0,0,0,0,0,0,0,0,0,0,0,0,0,0,0,0,0,0,0,0,0,0,0,0,0,0,0,0,0,0,0,0,0,0,0,0,0,0,0,0,0,0,0,0,0,0,0,0,0,0,0,0,0,0,0,0,0,0,0,0,0,0,0,0,0,0,0,
0,0,0,0,0,0,0,0,0,0,0,0,0,0,0,0,0,0,0,0,0,0,0,0,0,0,0,0,0,0,0,0,0,0,0,0,0,0,0,0,0,0,0,0,0,0,0,0,0,0,0,0,0,0,0,0,0,0,0,0,0,0,0,0,0,0,0,0,0,0,0,0,0,0,0,0,0,0,0,0,0,0,0,0,0,0,0,0,0,0,0,0,0,0,0,0,0,0,0,0,0,0,0,0,0,0,0,0,0,0,0,0,0,0,0,0,0,0,0,0,0,0,0,0,0,0,0,0,0,0,0,0,0,0,0,0,0,0,0,0,0,0,0,0,0,0,0,0,0,0,0,0,0,0,0,0,0,0,0,0,0,0,0,0,0,0,0,0,0,0,0,0,0,0,0,0,0,0,0,0,0,0,0,0,0,0,0,0,0,0,0,0,0,0,0,0,0,0,0,0,0,0,0,0,0,0,0,0,0,0,0,0,0,0,0,0,0,0,0,0,0,0,0,0,0,0,0,0,0,0,0,0,0,0,0,0,0,0,0,0,
0,0,0,0,0,0,0,0,0,0,0,0,0,0,0,0,0,0,0,0,0,0,0,0,0,0,0,0,0,0,0,0,0,0,0,0,0,0,0,0,0,0,0,0,0,0,0,0,0,0,0,0,0,0,0,0,0,0,0,0,0,0,0,0,0,0,0,0,0,0,0,0,0,0,0,0,0,0,0,0,0,0,0,0,0,0,0,0,0,0,0,0,0,0,0,0,0,0,0,0,0,0,0,0,0,0,0,0,0,0,0,0,0,0,0,0,0,0,0,0,0,0,0,0,0,0,0,0,0,0,0,0,0,0,0,0,0,0,0,0,0,0,0,0,0,0,0,0,0,0,0,0,0,0,0,0,0,0,0,0,0,0,0,0,0,0,0,0,0,0,0,0,0,0,0,0,0,0,0,0,0,0,0,0,0,0,0,0,0,0,0,0,0,0,0,0,0,0,0,0,0,0,0,0,0,0,0,0,0,0,0,0,0,0,0,0,0,0,0,0,0,0,0,0,0,0,0,0,0,0,0,0,0,0,0,0,0,0,0,0,
0,0,0,0,0,0,0,0,0,0,0,0,0,0,0,0,0,0,0,0,0,0,0,0,0,0,0,0,0,0,0,0,0,0,0,0,0,0,0,0,0,0,0,0,0,0,0,0,0,0,0,0,0,0,0,0,0,0,0,0,0,0,0,0,0,0,0,0,0,0,0,0,0,0,0,0,0,0,0,0,0,0,0,0,0,0,0,0,0,0,0,0,0,0,0,0,0,0,0,0,0,0,0,0,0,0,0,0,0,0,0,0,0,0,0,0,0,0,0,0,0,0,0,0,0,0,0,0,0,0,0,0,0,0,0,0,0,0,0,0,0,0,0,0,0,0,0,0,0,0,0,0,0,0,0,0,0,0,0,0,0,0,0,0,0,0,0,0,0,0,0,0,0,0,0,0,0,0,0,0,0,0,0,0,0,0,0,0,0,0,0,0,0,0,0,0,0,0,0,0,0,0,0,0,0,0,0,0,0,0,0,0,0,0,0,0,0,0,0,0,0,0,0,0,0,0,0,0,0,0,0,0,0,0,0,0,0,0,0,0,
0,0,0,0,0,0,0,0,0,0,0,0,0,0,0,0,0,0,0,0,0,0,0,0,0,0,0,0,0,0,0,0,0,0,0,0,0,0,0,0,0,0,0,0,0,0,0,0,0,0,0,0,0,0,0,0,0,0,0,0,0,0,0,0,0,0,0,0,0,0,0,0,0,0,0,0,0,0,0,0,0,0,0,0,0,0,0,0,0,0,0,0,0,0,0,0,0,0,0,0,0,0,0,0,0,0,0,0,0,0,0,0,0,0,0,0,0,0,0,0,0,0,0,0,0,0,0,0,0,0,0,0,0,0,0,0,0,0,0,0,0,0,0,0,0,0,0,0,0,0,0,0,0,0,0,0,0,0,0,0,0,0,0,0,0,0,0,0,0,0,0,0,0,0,0,0,0,0,0,0,0,0,0,0,0,0,0,0,0,0,0,0,0,0,0,0,0,0,0,0,0,0,0,0,0,0,0,0,0,0,0,0,0,0,0,0,0,0,0,0,0,0,0,0,0,0,0,0,0,0,0,0,0,0,0,0,0,0,0,0,
0,0,0,0,0,0,0,0,0,0,0,0,0,0,0,0,0,0,0,0,0,0,0,0,0,0,0,0,0,0,0,0,0,0,0,0,0,0,0,0,0,0,0,0,0,0,0,0,0,0,0,0,0,0,0,0,0,0,0,0,0,0,0,0,0,0,0,0,0,0,0,0,0,0,0,0,0,0,0,0,0,0,0,0,0,0,0,0,0,0,0,0,0,0,0,0,0,0,0,0,0,0,0,0,0,0,0,0,0,0,0,0,0,0,0,0,0,0,0,0,0,0,0,0,0,0,0,0,0,0,0,0,0,0,0,0,0,0,0,0,0,0,0,0,0,0,0,0,0,0,0,0,0,0,0,0,0,0,0,0,0,0,0,0,0,0,0,0,0,0,0,0,0,0,0,0,0,0,0,0,0,0,0,0,0,0,0,0,0,0,0,0,0,0,0,0,0,0,0,0,0,0,0,0,0,0,0,0,0,0,0,0,0,0,0,0,0,0,0,0,0,0,0,0,0,0,0,0,0,0,0,0,0,0,0,0,0,0,0,0,
0,0,0,0,0,0,0,0,0,0,0,0,0,0,0,0,0,0,0,0,0,0,0,0,0,0,0,0,0,0,0,0,0,0,0,0,0,0,0,0,0,0,0,0,0,0,0,0,0,0,0,0,0,0,0,0,0,0,0,0,0,0,0,0,0,0,0,0,0,0,0,0,0,0,0,0,0,0,0,0,0,0,0,0,0,0,0,0,0,0,0,0,0,0,0,0,0,0,0,0,0,0,0,0,0,0,0,0,0,0,0,0,0,0,0,0,0,0,0,0,0,0,0,0,0,0,0,0,0,0,0,0,0,0,0,0,0,0,0,0,0,0,0,0,0,0,0,0,0,0,0,0,0,0,0,0,0,0,0,0,0,0,0,0,0,0,0,0,0,0,0,0,0,0,0,0,0,0,0,0,0,0,0,0,0,0,0,0,0,0,0,0,0,0,0,0,0,0,0,0,0,0,0,0,0,0,0,0,0,0,0,0,0,0,0,0,0,0,0,0,0,0,0,0,0,0,0,0,0,0,0,0,0,0,0,0,0,0,0,0,
0,0,0,0,0,0,0,0,0,0,0,0,0,0,0,0,0,0,0,0,0,0,0,0,0,0,0,0,0,0,0,0,0,0,0,0,0,0,0,0,0,0,0,0,0,0,0,0,0,0,0,0,0,0,0,0,0,0,0,0,0,0,0,0,0,0,0,0,0,0,0,0,0,0,0,0,0,0,0,0,0,0,0,0,0,0,0,0,0,0,0,0,0,0,0,0,0,0,0,0,0,0,0,0,0,0,0,0,0,0,0,0,0,0,0,0,0,0,0,0,0,0,0,0,0,0,0,0,0,0,0,0,0,0,0,0,0,0,0,0,0,0,0,0,0,0,0,0,0,0,0,0,0,0,0,0,0,0,0,0,0,0,0,0,0,0,0,0,0,0,0,0,0,0,0,0,0,0,0,0,0,0,0,0,0,0,0,0,0,0,0,0,0,0,0,0,0,0,0,0,0,0,0,0,0,0,0,0,0,0,0,0,0,0,0,0,0,0,0,0,0,0,0,0,0,0,0,0,0,0,0,0,0,0,0,0,0,0,0,0,
0,0,0,0,0,0,0,0,0,0,0,0,0,0,0,0,0,0,0,0,0,0,0,0,0,0,0,0,0,0,0,0,0,0,0,0,0,0,0,0,0,0,0,0,0,0,0,0,0,0,0,0,0,0,0,0,0,0,0,0,0,0,0,0,0,0,0,0,0,0,0,0,0,0,0,0,0,0,0,0,0,0,0,0,0,0,0,0,0,0,0,0,0,0,0,0,0,0,0,0,0,0,0,0,0,0,0,0,0,0,0,0,0,0,0,0,0,0,0,0,0,0,0,0,0,0,0,0,0,0,0,0,0,0,0,0,0,0,0,0,0,0,0,0,0,0,0,0,0,0,0,0,0,0,0,0,0,0,0,0,0,0,0,0,0,0,0,0,0,0,0,0,0,0,0,0,0,0,0,0,0,0,0,0,0,0,0,0,0,0,0,0,0,0,0,0,0,0,0,0,0,0,0,0,0,0,0,0,0,0,0,0,0,0,0,0,0,0,0,0,0,0,0,0,0,0,0,0,0,0,0,0,0,0,0,0,0,0,0,0,
0,0,0,0,0,0,0,0,0,0,0,0,0,0,0,0,0,0,0,0,0,0,0,0,0,0,0,0,0,0,0,0,0,0,0,0,0,0,0,0,0,0,0,0,0,0,0,0,0,0,0,0,0,0,0,0,0,0,0,0,0,0,0,0,0,0,0,0,0,0,0,0,0,0,0,0,0,0,0,0,0,0,0,0,0,0,0,0,0,0,0,0,0,0,0,0,0,0,0,0,0,0,0,0,0,0,0,0,0,0,0,0,0,0,0,0,0,0,0,0,0,0,0,0,0,0,0,0,0,0,0,0,0,0,0,0,0,0,0,0,0,0,0,0,0,0,0,0,0,0,0,0,0,0,0,0,0,0,0,0,0,0,0,0,0,0,0,0,0,0,0,0,0,0,0,0,0,0,0,0,0,0,0,0,0,0,0,0,0,0,0,0,0,0,0,0,0,0,0,0,0,0,0,0,0,0,0,0,0,0,0,0,0,0,0,0,0,0,0,0,0,0,0,0,0,0,0,0,0,0,0,0,0,0,0,0,0,0,0,0,
0,0,0,0,0,0,0,0,0,0,0,0,0,0,0,0,0,0,0,0,0,0,0,0,0,0,0,0,0,0,0,0,0,0,0,0,0,0,0,0,0,0,0,0,0,0,0,0,0,0,0,0,0,0,0,0,0,0,0,0,0,0,0,0,0,0,0,0,0,0,0,0,0,0,0,0,0,0,0,0,0,0,0,0,0,0,0,0,0,0,0,0,0,0,0,0,0,0,0,0,0,0,0,0,0,0,0,0,0,0,0,0,0,0,0,0,0,0,0,0,0,0,0,0,0,0,0,0,0,0,0,0,0,0,0,0,0,0,0,0,0,0,0,0,0,0,0,0,0,0,0,0,0,0,0,0,0,0,0,0,0,0,0,0,0,0,0,0,0,0,0,0,0,0,0,0,0,0,0,0,0,0,0,0,0,0,0,0,0,0,0,0,0,0,0,0,0,0,0,0,0,0,0,0,0,0,0,0,0,0,0,0,0,0,0,0,0,0,0,0,0,0,0,0,0,0,0,0,0,0,0,0,0,0,0,0,0,0,0,0,
0,0,0,0,0,0,0,0,0,0,0,0,0,0,0,0,0,0,0,0,0,0,0,0,0,0,0,0,0,0,0,0,0,0,0,0,0,0,0,0,0,0,0,0,0,0,0,0,0,0,0,0,0,0,0,0,0,0,0,0,0,0,0,0,0,0,0,0,0,0,0,0,0,0,0,0,0,0,0,0,0,0,0,0,0,0,0,0,0,0,0,0,0,0,0,0,0,0,0,0,0,0,0,0,0,0,0,0,0,0,0,0,0,0,0,0,0,0,0,0,0,0,0,0,0,0,0,0,0,0,0,0,0,0,0,0,0,0,0,0,0,0,0,0,0,0,0,0,0,0,0,0,0,0,0,0,0,0,0,0,0,0,0,0,0,0,0,0,0,0,0,0,0,0,0,0,0,0,0,0,0,0,0,0,0,0,0,0,0,0,0,0,0,0,0,0,0,0,0,0,0,0,0,0,0,0,0,0,0,0,0,0,0,0,0,0,0,0,0,0,0,0,0,0,0,0,0,0,0,0,0,0,0,0,0,0,0,0,0,0,
0,0,0,0,0,0,0,0,0,0,0,0,0,0,0,0,0,0,0,0,0,0,0,0,0,0,0,0,0,0,0,0,0,0,0,0,0,0,0,0,0,0,0,0,0,0,0,0,0,0,0,0,0,0,0,0,0,0,0,0,0,0,0,0,0,0,0,0,0,0,0,0,0,0,0,0,0,0,0,0,0,0,0,0,0,0,0,0,0,0,0,0,0,0,0,0,0,0,0,0,0,0,0,0,0,0,0,0,0,0,0,0,0,0,0,0,0,0,0,0,0,0,0,0,0,0,0,0,0,0,0,0,0,0,0,0,0,0,0,0,0,0,0,0,0,0,0,0,0,0,0,0,0,0,0,0,0,0,0,0,0,0,0,0,0,0,0,0,0,0,0,0,0,0,0,0,0,0,0,0,0,0,0,0,0,0,0,0,0,0,0,0,0,0,0,0,0,0,0,0,0,0,0,0,0,0,0,0,0,0,0,0,0,0,0,0,0,0,0,0,0,0,0,0,0,0,0,0,0,0,0,0,0,0,0,0,0,0,0,0,
0,0,0,0,0,0,0,0,0,0,0,0,0,0,0,0,0,0,0,0,0,0,0,0,0,0,0,0,0,0,0,0,0,0,0,0,0,0,0,0,0,0,0,0,0,0,0,0,0,0,0,0,0,0,0,0,0,0,0,0,0,0,0,0,0,0,0,0,0,0,0,0,0,0,0,0,0,0,0,0,0,0,0,0,0,0,0,0,0,0,0,0,0,0,0,0,0,0,0,0,0,0,0,0,0,0,0,0,0,0,0,0,0,0,0,0,0,0,0,0,0,0,0,0,0,0,0,0,0,0,0,0,0,0,0,0,0,0,0,0,0,0,0,0,0,0,0,0,0,0,0,0,0,0,0,0,0,0,0,0,0,0,0,0,0,0,0,0,0,0,0,0,0,0,0,0,0,0,0,0,0,0,0,0,0,0,0,0,0,0,0,0,0,0,0,0,0,0,0,0,0,0,0,0,0,0,0,0,0,0,0,0,0,0,0,0,0,0,0,0,0,0,0,0,0,0,0,0,0,0,0,0,0,0,0,0,0,0,0,0,
0,0,0,0,0,0,0,0,0,0,0,0,0,0,0,0,0,0,0,0,0,0,0,0,0,0,0,0,0,0,0,0,0,0,0,0,0,0,0,0,0,0,0,0,0,0,0,0,0,0,0,0,0,0,0,0,0,0,0,0,0,0,0,0,0,0,0,0,0,0,0,0,0,0,0,0,0,0,0,0,0,0,0,0,0,0,0,0,0,0,0,0,0,0,0,0,0,0,0,0,0,0,0,0,0,0,0,0,0,0,0,0,0,0,0,0,0,0,0,0,0,0,0,0,0,0,0,0,0,0,0,0,0,0,0,0,0,0,0,0,0,0,0,0,0,0,0,0,0,0,0,0,0,0,0,0,0,0,0,0,0,0,0,0,0,0,0,0,0,0,0,0,0,0,0,0,0,0,0,0,0,0,0,0,0,0,0,0,0,0,0,0,0,0,0,0,0,0,0,0,0,0,0,0,0,0,0,0,0,0,0,0,0,0,0,0,0,0,0,0,0,0,0,0,0,0,0,0,0,0,0,0,0,0,0,0,0,0,0,0,
0,0,0,0,0,0,0,0,0,0,0,0,0,0,0,0,0,0,0,0,0,0,0,0,0,0,0,0,0,0,0,0,0,0,0,0,0,0,0,0,0,0,0,0,0,0,0,0,0,0,0,0,0,0,0,0,0,0,0,0,0,0,0,0,0,0,0,0,0,0,0,0,0,0,0,0,0,0,0,0,0,0,0,0,0,0,0,0,0,0,0,0,0,0,0,0,0,0,0,0,0,0,0,0,0,0,0,0,0,0,0,0,0,0,0,0,0,0,0,0,0,0,0,0,0,0,0,0,0,0,0,0,0,0,0,0,0,0,0,0,0,0,0,0,0,0,0,0,0,0,0,0,0,0,0,0,0,0,0,0,0,0,0,0,0,0,0,0,0,0,0,0,0,0,0,0,0,0,0,0,0,0,0,0,0,0,0,0,0,0,0,0,0,0,0,0,0,0,0,0,0,0,0,0,0,0,0,0,0,0,0,0,0,0,0,0,0,0,0,0,0,0,0,0,0,0,0,0,0,0,0,0,0,0,0,0,0,0,0,0,
0,0,0,0,0,0,0,0,0,0,0,0,0,0,0,0,0,0,0,0,0,0,0,0,0,0,0,0,0,0,0,0,0,0,0,0,0,0,0,0,0,0,0,0,0,0,0,0,0,0,0,0,0,0,0,0,0,0,0,0,0,0,0,0,0,0,0,0,0,0,0,0,0,0,0,0,0,0,0,0,0,0,0,0,0,0,0,0,0,0,0,0,0,0,0,0,0,0,0,0,0,0,0,0,0,0,0,0,0,0,0,0,0,0,0,0,0,0,0,0,0,0,0,0,0,0,0,0,0,0,0,0,0,0,0,0,0,0,0,0,0,0,0,0,0,0,0,0,0,0,0,0,0,0,0,0,0,0,0,0,0,0,0,0,0,0,0,0,0,0,0,0,0,0,0,0,0,0,0,0,0,0,0,0,0,0,0,0,0,0,0,0,0,0,0,0,0,0,0,0,0,0,0,0,0,0,0,0,0,0,0,0,0,0,0,0,0,0,0,0,0,0,0,0,0,0,0,0,0,0,0,0,0,0,0,0,0,0,0,0,
0,0,0,0,0,0,0,0,0,0,0,0,0,0,0,0,0,0,0,0,0,0,0,0,0,0,0,0,0,0,0,0,0,0,0,0,0,0,0,0,0,0,0,0,0,0,0,0,0,0,0,0,0,0,0,0,0,0,0,0,0,0,0,0,0,0,0,0,0,0,0,0,0,0,0,0,0,0,0,0,0,0,0,0,0,0,0,0,0,0,0,0,0,0,0,0,0,0,0,0,0,0,0,0,0,0,0,0,0,0,0,0,0,0,0,0,0,0,0,0,0,0,0,0,0,0,0,0,0,0,0,0,0,0,0,0,0,0,0,0,0,0,0,0,0,0,0,0,0,0,0,0,0,0,0,0,0,0,0,0,0,0,0,0,0,0,0,0,0,0,0,0,0,0,0,0,0,0,0,0,0,0,0,0,0,0,0,0,0,0,0,0,0,0,0,0,0,0,0,0,0,0,0,0,0,0,0,0,0,0,0,0,0,0,0,0,0,0,0,0,0,0,0,0,0,0,0,0,0,0,0,0,0,0,0,0,0,0,0,0,
0,0,0,0,0,0,0,0,0,0,0,0,0,0,0,0,0,0,0,0,0,0,0,0,0,0,0,0,0,0,0,0,0,0,0,0,0,0,0,0,0,0,0,0,0,0,0,0,0,0,0,0,0,0,0,0,0,0,0,0,0,0,0,0,0,0,0,0,0,0,0,0,0,0,0,0,0,0,0,0,0,0,0,0,0,0,0,0,0,0,0,0,0,0,0,0,0,0,0,0,0,0,0,0,0,0,0,0,0,0,0,0,0,0,0,0,0,0,0,0,0,0,0,0,0,0,0,0,0,0,0,0,0,0,0,0,0,0,0,0,0,0,0,0,0,0,0,0,0,0,0,0,0,0,0,0,0,0,0,0,0,0,0,0,0,0,0,0,0,0,0,0,0,0,0,0,0,0,0,0,0,0,0,0,0,0,0,0,0,0,0,0,0,0,0,0,0,0,0,0,0,0,0,0,0,0,0,0,0,0,0,0,0,0,0,0,0,0,0,0,0,0,0,0,0,0,0,0,0,0,0,0,0,0,0,0,0,0,0,0,
0,0,0,0,0,0,0,0,0,0,0,0,0,0,0,0,0,0,0,0,0,0,0,0,0,0,0,0,0,0,0,0,0,0,0,0,0,0,0,0,0,0,0,0,0,0,0,0,0,0,0,0,0,0,0,0,0,0,0,0,0,0,0,0,0,0,0,0,0,0,0,0,0,0,0,0,0,0,0,0,0,0,0,0,0,0,0,0,0,0,0,0,0,0,0,0,0,0,0,0,0,0,0,0,0,0,0,0,0,0,0,0,0,0,0,0,0,0,0,0,0,0,0,0,0,0,0,0,0,0,0,0,0,0,0,0,0,0,0,0,0,0,0,0,0,0,0,0,0,0,0,0,0,0,0,0,0,0,0,0,0,0,0,0,0,0,0,0,0,0,0,0,0,0,0,0,0,0,0,0,0,0,0,0,0,0,0,0,0,0,0,0,0,0,0,0,0,0,0,0,0,0,0,0,0,0,0,0,0,0,0,0,0,0,0,0,0,0,0,0,0,0,0,0,0,0,0,0,0,0,0,0,0,0,0,0,0,0,0,0,
0,0,0,0,0,0,0,0,0,0,0,0,0,0,0,0,0,0,0,0,0,0,0,0,0,0,0,0,0,0,0,0,0,0,0,0,0,0,0,0,0,0,0,0,0,0,0,0,0,0,0,0,0,0,0,0,0,0,0,0,0,0,0,0,0,0,0,0,0,0,0,0,0,0,0,0,0,0,0,0,0,0,0,0,0,0,0,0,0,0,0,0,0,0,0,0,0,0,0,0,0,0,0,0,0,0,0,0,0,0,0,0,0,0,0,0,0,0,0,0,0,0,0,0,0,0,0,0,0,0,0,0,0,0,0,0,0,0,0,0,0,0,0,0,0,0,0,0,0,0,0,0,0,0,0,0,0,0,0,0,0,0,0,0,0,0,0,0,0,0,0,0,0,0,0,0,0,0,0,0,0,0,0,0,0,0,0,0,0,0,0,0,0,0,0,0,0,0,0,0,0,0,0,0,0,0,0,0,0,0,0,0,0,0,0,0,0,0,0,0,0,0,0,0,0,0,0,0,0,0,0,0,0,0,0,0,0,0,0,0,
0,0,0,0,0,0,0,0,0,0,0,0,0,0,0,0,0,0,0,0,0,0,0,0,0,0,0,0,0,0,0,0,0,0,0,0,0,0,0,0,0,0,0,0,0,0,0,0,0,0,0,0,0,0,0,0,0,0,0,0,0,0,0,0,0,0,0,0,0,0,0,0,0,0,0,0,0,0,0,0,0,0,0,0,0,0,0,0,0,0,0,0,0,0,0,0,0,0,0,0,0,0,0,0,0,0,0,0,0,0,0,0,0,0,0,0,0,0,0,0,0,0,0,0,0,0,0,0,0,0,0,0,0,0,0,0,0,0,0,0,0,0,0,0,0,0,0,0,0,0,0,0,0,0,0,0,0,0,0,0,0,0,0,0,0,0,0,0,0,0,0,0,0,0,0,0,0,0,0,0,0,0,0,0,0,0,0,0,0,0,0,0,0,0,0,0,0,0,0,0,0,0,0,0,0,0,0,0,0,0,0,0,0,0,0,0,0,0,0,0,0,0,0,0,0,0,0,0,0,0,0,0,0,0,0,0,0,0,0,0,
0,0,0,0,0,0,0,0,0,0,0,0,0,0,0,0,0,0,0,0,0,0,0,0,0,0,0,0,0,0,0,0,0,0,0,0,0,0,0,0,0,0,0,0,0,0,0,0,0,0,0,0,0,0,0,0,0,0,0,0,0,0,0,0,0,0,0,0,0,0,0,0,0,0,0,0,0,0,0,0,0,0,0,0,0,0,0,0,0,0,0,0,0,0,0,0,0,0,0,0,0,0,0,0,0,0,0,0,0,0,0,0,0,0,0,0,0,0,0,0,0,0,0,0,0,0,0,0,0,0,0,0,0,0,0,0,0,0,0,0,0,0,0,0,0,0,0,0,0,0,0,0,0,0,0,0,0,0,0,0,0,0,0,0,0,0,0,0,0,0,0,0,0,0,0,0,0,0,0,0,0,0,0,0,0,0,0,0,0,0,0,0,0,0,0,0,0,0,0,0,0,0,0,0,0,0,0,0,0,0,0,0,0,0,0,0,0,0,0,0,0,0,0,0,0,0,0,0,0,0,0,0,0,0,0,0,0,0,0,0,
0,0,0,0,0,0,0,0,0,0,0,0,0,0,0,0,0,0,0,0,0,0,0,0,0,0,0,0,0,0,0,0,0,0,0,0,0,0,0,0,0,0,0,0,0,0,0,0,0,0,0,0,0,0,0,0,0,0,0,0,0,0,0,0,0,0,0,0,0,0,0,0,0,0,0,0,0,0,0,0,0,0,0,0,0,0,0,0,0,0,0,0,0,0,0,0,0,0,0,0,0,0,0,0,0,0,0,0,0,0,0,0,0,0,0,0,0,0,0,0,0,0,0,0,0,0,0,0,0,0,0,0,0,0,0,0,0,0,0,0,0,0,0,0,0,0,0,0,0,0,0,0,0,0,0,0,0,0,0,0,0,0,0,0,0,0,0,0,0,0,0,0,0,0,0,0,0,0,0,0,0,0,0,0,0,0,0,0,0,0,0,0,0,0,0,0,0,0,0,0,0,0,0,0,0,0,0,0,0,0,0,0,0,0,0,0,0,0,0,0,0,0,0,0,0,0,0,0,0,0,0,0,0,0,0,0,0,0,0,0,
0,0,0,0,0,0,0,0,0,0,0,0,0,0,0,0,0,0,0,0,0,0,0,0,0,0,0,0,0,0,0,0,0,0,0,0,0,0,0,0,0,0,0,0,0,0,0,0,0,0,0,0,0,0,0,0,0,0,0,0,0,0,0,0,0,0,0,0,0,0,0,0,0,0,0,0,0,0,0,0,0,0,0,0,0,0,0,0,0,0,0,0,0,0,0,0,0,0,0,0,0,0,0,0,0,0,0,0,0,0,0,0,0,0,0,0,0,0,0,0,0,0,0,0,0,0,0,0,0,0,0,0,0,0,0,0,0,0,0,0,0,0,0,0,0,0,0,0,0,0,0,0,0,0,0,0,0,0,0,0,0,0,0,0,0,0,0,0,0,0,0,0,0,0,0,0,0,0,0,0,0,0,0,0,0,0,0,0,0,0,0,0,0,0,0,0,0,0,0,0,0,0,0,0,0,0,0,0,0,0,0,0,0,0,0,0,0,0,0,0,0,0,0,0,0,0,0,0,0,0,0,0,0,0,0,0,0,0,0,0,
0,0,0,0,0,0,0,0,0,0,0,0,0,0,0,0,0,0,0,0,0,0,0,0,0,0,0,0,0,0,0,0,0,0,0,0,0,0,0,0,0,0,0,0,0,0,0,0,0,0,0,0,0,0,0,0,0,0,0,0,0,0,0,0,0,0,0,0,0,0,0,0,0,0,0,0,0,0,0,0,0,0,0,0,0,0,0,0,0,0,0,0,0,0,0,0,0,0,0,0,0,0,0,0,0,0,0,0,0,0,0,0,0,0,0,0,0,0,0,0,0,0,0,0,0,0,0,0,0,0,0,0,0,0,0,0,0,0,0,0,0,0,0,0,0,0,0,0,0,0,0,0,0,0,0,0,0,0,0,0,0,0,0,0,0,0,0,0,0,0,0,0,0,0,0,0,0,0,0,0,0,0,0,0,0,0,0,0,0,0,0,0,0,0,0,0,0,0,0,0,0,0,0,0,0,0,0,0,0,0,0,0,0,0,0,0,0,0,0,0,0,0,0,0,0,0,0,0,0,0,0,0,0,0,0,0,0,0,0,0,
0,0,0,0,0,0,0,0,0,0,0,0,0,0,0,0,0,0,0,0,0,0,0,0,0,0,0,0,0,0,0,0,0,0,0,0,0,0,0,0,0,0,0,0,0,0,0,0,0,0,0,0,0,0,0,0,0,0,0,0,0,0,0,0,0,0,0,0,0,0,0,0,0,0,0,0,0,0,0,0,0,0,0,0,0,0,0,0,0,0,0,0,0,0,0,0,0,0,0,0,0,0,0,0,0,0,0,0,0,0,0,0,0,0,0,0,0,0,0,0,0,0,0,0,0,0,0,0,0,0,0,0,0,0,0,0,0,0,0,0,0,0,0,0,0,0,0,0,0,0,0,0,0,0,0,0,0,0,0,0,0,0,0,0,0,0,0,0,0,0,0,0,0,0,0,0,0,0,0,0,0,0,0,0,0,0,0,0,0,0,0,0,0,0,0,0,0,0,0,0,0,0,0,0,0,0,0,0,0,0,0,0,0,0,0,0,0,0,0,0,0,0,0,0,0,0,0,0,0,0,0,0,0,0,0,0,0,0,0,0,
0,0,0,0,0,0,0,0,0,0,0,0,0,0,0,0,0,0,0,0,0,0,0,0,0,0,0,0,0,0,0,0,0,0,0,0,0,0,0,0,0,0,0,0,0,0,0,0,0,0,0,0,0,0,0,0,0,0,0,0,0,0,0,0,0,0,0,0,0,0,0,0,0,0,0,0,0,0,0,0,0,0,0,0,0,0,0,0,0,0,0,0,0,0,0,0,0,0,0,0,0,0,0,0,0,0,0,0,0,0,0,0,0,0,0,0,0,0,0,0,0,0,0,0,0,0,0,0,0,0,0,0,0,0,0,0,0,0,0,0,0,0,0,0,0,0,0,0,0,0,0,0,0,0,0,0,0,0,0,0,0,0,0,0,0,0,0,0,0,0,0,0,0,0,0,0,0,0,0,0,0,0,0,0,0,0,0,0,0,0,0,0,0,0,0,0,0,0,0,0,0,0,0,0,0,0,0,0,0,0,0,0,0,0,0,0,0,0,0,0,0,0,0,0,0,0,0,0,0,0,0,0,0,0,0,0,0,0,0,0,
0,0,0,0,0,0,0,0,0,0,0,0,0,0,0,0,0,0,0,0,0,0,0,0,0,0,0,0,0,0,0,0,0,0,0,0,0,0,0,0,0,0,0,0,0,0,0,0,0,0,0,0,0,0,0,0,0,0,0,0,0,0,0,0,0,0,0,0,0,0,0,0,0,0,0,0,0,0,0,0,0,0,0,0,0,0,0,0,0,0,0,0,0,0,0,0,0,0,0,0,0,0,0,0,0,0,0,0,0,0,0,0,0,0,0,0,0,0,0,0,0,0,0,0,0,0,0,0,0,0,0,0,0,0,0,0,0,0,0,0,0,0,0,0,0,0,0,0,0,0,0,0,0,0,0,0,0,0,0,0,0,0,0,0,0,0,0,0,0,0,0,0,0,0,0,0,0,0,0,0,0,0,0,0,0,0,0,0,0,0,0,0,0,0,0,0,0,0,0,0,0,0,0,0,0,0,0,0,0,0,0,0,0,0,0,0,0,0,0,0,0,0,0,0,0,0,0,0,0,0,0,0,0,0,0,0,0,0,0,0,
0,0,0,0,0,0,0,0,0,0,0,0,0,0,0,0,0,0,0,0,0,0,0,0,0,0,0,0,0,0,0,0,0,0,0,0,0,0,0,0,0,0,0,0,0,0,0,0,0,0,0,0,0,0,0,0,0,0,0,0,0,0,0,0,0,0,0,0,0,0,0,0,0,0,0,0,0,0,0,0,0,0,0,0,0,0,0,0,0,0,0,0,0,0,0,0,0,0,0,0,0,0,0,0,0,0,0,0,0,0,0,0,0,0,0,0,0,0,0,0,0,0,0,0,0,0,0,0,0,0,0,0,0,0,0,0,0,0,0,0,0,0,0,0,0,0,0,0,0,0,0,0,0,0,0,0,0,0,0,0,0,0,0,0,0,0,0,0,0,0,0,0,0,0,0,0,0,0,0,0,0,0,0,0,0,0,0,0,0,0,0,0,0,0,0,0,0,0,0,0,0,0,0,0,0,0,0,0,0,0,0,0,0,0,0,0,0,0,0,0,0,0,0,0,0,0,0,0,0,0,0,0,0,0,0,0,0,0,0,0
</data>
 </layer>
 <objectgroup id="3" name="environment">
  <object id="2" gid="58961" x="3648" y="3680" width="46" height="317"/>
  <object id="3" gid="58961" x="4000" y="3680" width="46" height="317"/>
  <object id="6" gid="58956" x="2432" y="3904" width="52" height="174"/>
  <object id="7" gid="58957" x="2944" y="3904" width="169" height="229"/>
  <object id="8" gid="58958" x="2752" y="3904" width="169" height="229"/>
  <object id="9" gid="58965" x="2592" y="3904" width="40" height="151"/>
  <object id="10" gid="58964" x="3072" y="4064" width="62" height="169"/>
  <object id="11" gid="58963" x="3072" y="4224" width="62" height="169"/>
  <object id="12" gid="58976" x="3712" y="3648" width="252" height="387"/>
  <object id="13" gid="58968" x="2112" y="4128" width="218" height="101"/>
  <object id="14" gid="58969" x="2016" y="4096" width="87" height="137"/>
  <object id="15" gid="58967" x="2048" y="4128" width="35" height="66"/>
  <object id="18" gid="58974" x="2112" y="4032" width="61" height="44"/>
  <object id="29" gid="58962" x="2944" y="4224" width="62" height="169"/>
  <object id="33" gid="58972" x="3360" y="4256" width="230" height="511"/>
  <object id="34" gid="58972" x="2144" y="3776" width="230" height="511"/>
  <object id="35" gid="58972" x="2080" y="2848" width="230" height="511"/>
  <object id="36" gid="58972" x="3360" y="2528" width="230" height="511"/>
  <object id="37" gid="58972" x="4256" y="2816" width="230" height="511"/>
  <object id="38" gid="58972" x="4160" y="3360" width="230" height="511"/>
  <object id="39" gid="58972" x="4256" y="4576" width="230" height="511"/>
  <object id="40" gid="58972" x="5216" y="3680" width="230" height="511"/>
  <object id="41" gid="58972" x="3680" y="4928" width="230" height="511"/>
  <object id="42" gid="58972" x="2944" y="5376" width="230" height="511"/>
  <object id="43" gid="58973" x="3392" y="5248" width="230" height="511"/>
  <object id="44" gid="58973" x="4000" y="4448" width="230" height="511"/>
  <object id="45" gid="58973" x="3840" y="4096" width="230" height="511"/>
  <object id="46" gid="58973" x="3744" y="3008" width="230" height="511"/>
  <object id="47" gid="58973" x="2784" y="2656" width="230" height="511"/>
  <object id="48" gid="58973" x="1696" y="3328" width="230" height="511"/>
  <object id="49" gid="58973" x="1504" y="4608" width="230" height="511"/>
  <object id="50" gid="58973" x="2112" y="5376" width="230" height="511"/>
  <object id="51" gid="58973" x="2880" y="5824" width="230" height="511"/>
  <object id="52" gid="58973" x="2208" y="1920" width="230" height="511"/>
  <object id="53" gid="58973" x="992" y="1792" width="230" height="511"/>
  <object id="54" gid="58973" x="832" y="1152" width="230" height="511"/>
  <object id="79" gid="58981" x="2752" y="4128" width="65" height="96"/>
  <object id="80" gid="58982" x="2752" y="4032" width="65" height="96"/>
  <object id="84" gid="58984" x="2752" y="4224" width="65" height="96"/>
  <object id="86" gid="58986" x="2816" y="4032" width="96" height="96"/>
  <object id="88" gid="58987" x="2656" y="4224" width="96" height="96"/>
  <object id="89" gid="58985" x="6048" y="4000" width="96" height="96"/>
  <object id="90" gid="58986" x="6144" y="4000" width="96" height="96"/>
  <object id="91" gid="58988" x="5472" y="3776" width="192" height="192"/>
  <object id="95" gid="58990" x="5792" y="3872" width="128" height="96"/>
 </objectgroup>
 <objectgroup id="5" name="items">
  <object id="55" gid="58991" x="3744" y="4000" width="63" height="58"/>
  <object id="56" gid="58992" x="3680" y="4000" width="37" height="60"/>
  <object id="57" gid="58993" x="3616" y="4000" width="63" height="58"/>
 </objectgroup>
 <objectgroup id="6" name="buildings">
  <object id="97" gid="58995" x="5440" y="4160" width="480" height="638"/>
  <object id="98" gid="58996" x="5920" y="4448" width="480" height="928"/>
  <object id="101" gid="58997" x="928" y="1536" width="1982" height="1456"/>
  <object id="102" gid="59000" x="1984" y="4256" width="1184" height="576"/>
 </objectgroup>
</map>
